; generated by SuperSlicer 2.3.55 on 2021-06-17 at 13:39:10 UTC

; 

; external perimeters extrusion width = 0.45mm
; perimeters extrusion width = 0.45mm
; infill extrusion width = 0.45mm
; solid infill extrusion width = 0.45mm
; top infill extrusion width = 0.40mm
; support material extrusion width = 0.35mm
; first layer extrusion width = 0.42mm

; object:{"name":"blasterxmounting","id":"blasterxmounting.STL id:0 copy 0","object_center":[124.991482,105.043295,0.000000],"boundingbox_center":[124.991482,105.043295,5.000000],"boundingbox_size":[44.766983,32.444489,10.000000]}
; Total objects to print: 1
M486 T1
; plater:{"center":[124.991482,105.043295,0.000000],"boundingbox_center":[124.991482,105.043295,5.000000],"boundingbox_size":[44.766983,32.444489,10.000000]}

M73 P0 R23
M73 Q0 S23
;TYPE:Custom
M862.3 P "MK3S" ; printer model check
M862.1 P0.4 ; nozzle diameter check
M115 U3.9.2 ; tell printer latest fw version
G90 ; use absolute coordinates
M83 ; extruder relative mode
M104 S215 ; set extruder temp
M140 S60 ; set bed temp
M190 S60 ; wait for bed temp
M109 S215 ; wait for extruder temp
G28 W ; home all without mesh bed level
G80 ; mesh bed leveling
G1 Y-3.0 F1000.0 ; go outside print area
G92 E0.0
G1 X60.0 E9.0 F1000.0 ; intro line
G1 X100.0 E12.5 F1000.0 ; intro line
G92 E0.0
M221 S95

; Don't change E values below. Excessive value can damage the printer.

M107
G21 ; set units to millimeters
G90 ; use absolute coordinates
M83 ; use relative distances for extrusion
M900 K0.05 ; Filament gcode LA 1.5
M900 K30 ; Filament gcode LA 1.0
;LAYER_CHANGE
;Z:0.2
;HEIGHT:0.2
;BEFORE_LAYER_CHANGE
;0.2


G1 E-0.80000 F2100.000
G1 Z0.400000 F10800.000
;AFTER_LAYER_CHANGE
;0.2
G1 X97.180 Y88.342
G1 Z0.200000
G1 E0.80000 F2100.000
;TYPE:Skirt
;WIDTH:0.42
G1 F1200.000
G1 X98.206 Y87.247 E0.04706
G1 X99.078 Y86.601 E0.03403
G1 X100.038 Y86.094 E0.03403
G1 X101.063 Y85.737 E0.03403
G1 X102.130 Y85.539 E0.03403
G1 X146.731 Y81.969 E1.40290
G1 X148.404 Y82.168 E0.05284
G1 X149.985 Y82.751 E0.05284
G1 X151.387 Y83.686 E0.05284
G1 X152.537 Y84.927 E0.05304
G1 X153.270 Y86.184 E0.04561
G1 X153.734 Y87.562 E0.04561
G1 X154.192 Y90.829 E0.10343
G1 X154.195 Y92.218 E0.04355
G1 X153.907 Y93.657 E0.04603
G1 X144.601 Y123.295 E0.97399
G1 X144.236 Y124.168 E0.02968
G1 X143.760 Y124.986 E0.02968
G1 X143.180 Y125.734 E0.02968
G1 X142.502 Y126.404 E0.02988
G1 X141.646 Y127.039 E0.03341
G1 X140.706 Y127.541 E0.03341
G1 X139.703 Y127.898 E0.03341
G1 X138.664 Y128.102 E0.03320
G1 X128.071 Y128.148 E0.33214
G1 X102.066 Y126.993 E0.81615
M73 P1 R23
M73 Q1 S23
G1 X100.766 Y126.716 E0.04169
G1 X99.539 Y126.204 E0.04169
G1 X98.427 Y125.475 E0.04169
G1 X97.469 Y124.554 E0.04169
G1 X96.771 Y123.597 E0.03713
G1 X96.242 Y122.545 E0.03693
G1 X95.892 Y121.420 E0.03693
G1 X95.730 Y120.247 E0.03713
G1 X95.721 Y92.546 E0.86856
G1 X95.908 Y91.050 E0.04727
G1 X96.400 Y89.632 E0.04706
G1 X97.149 Y88.393 E0.04538
;WIPE_START
G1 F8640.000
G1 X98.206 Y87.247 E-0.36012
G1 X99.078 Y86.601 E-0.25059
G1 X99.650 Y86.299 E-0.14929
;WIPE_END
G1 E-0.04000 F2100.000
G1 Z1.000000 F10800.000
G1 X97.442 Y93.878
G1 Z0.200000
G1 E0.80000 F2100.000
G1 F1200.000
G1 X97.442 Y92.461 E0.04442
G1 X97.492 Y91.923 E0.01696
G1 X97.762 Y90.892 E0.03339
G1 X98.066 Y90.205 E0.02356
G1 X98.349 Y89.739 E0.01709
G1 X99.256 Y88.698 E0.04330
G1 X99.948 Y88.129 E0.02809
G1 X100.980 Y87.584 E0.03660
G1 X101.982 Y87.293 E0.03269
G1 X103.803 Y87.180 E0.05720
;WIPE_START
M73 P1 R22
G1 F8640.000
G1 X101.982 Y87.293 E-0.42127
G1 X100.980 Y87.584 E-0.24074
G1 X100.605 Y87.782 E-0.09799
;WIPE_END
G1 E-0.04000 F2100.000
G1 Z0.600000 F10800.000
G1 X104.969 Y87.505
G1 Z0.200000
G1 E0.80000 F2100.000
G1 F1200.000
G1 X102.380 Y87.618 E0.08127
G1 X101.692 Y87.744 E0.02193
G1 X101.127 Y87.932 E0.01866
G1 X100.414 Y88.278 E0.02485
G1 X99.525 Y88.963 E0.03519
G1 X98.678 Y89.925 E0.04020
G1 X98.270 Y90.645 E0.02595
G1 X97.977 Y91.441 E0.02660
G1 X97.819 Y92.486 E0.03314
G1 X97.819 Y94.966 E0.07775
G1 X98.196 Y95.701 F10800.000
G1 F1200.000
G1 X98.196 Y92.495 E0.10052
G1 X98.237 Y92.034 E0.01451
G1 X98.464 Y91.169 E0.02804
G1 X98.742 Y90.539 E0.02160
G1 X98.990 Y90.137 E0.01481
G1 X99.793 Y89.228 E0.03802
G1 X100.604 Y88.604 E0.03209
G1 X101.273 Y88.279 E0.02331
G1 X101.785 Y88.109 E0.01693
G1 X102.416 Y87.993 E0.02013
G1 X105.761 Y87.847 E0.10495
G1 X106.225 Y88.203 E0.01837
G1 X102.453 Y88.369 E0.11839
G1 X101.876 Y88.475 E0.01840
G1 X100.861 Y88.891 E0.03438
G1 X100.340 Y89.243 E0.01971
G1 X99.522 Y90.062 E0.03629
G1 X99.080 Y90.707 E0.02452
G1 X98.925 Y91.032 E0.01129
G1 X98.708 Y91.627 E0.01984
G1 X98.573 Y92.505 E0.02785
G1 X98.573 Y96.192 E0.11563
G1 X98.950 Y96.674 E0.01918
G1 X98.985 Y92.134 E0.14235
G1 X99.074 Y91.721 E0.01326
G1 X99.423 Y90.866 E0.02893
G1 X99.835 Y90.277 E0.02254
G1 X100.343 Y89.744 E0.02310
G1 X101.056 Y89.214 E0.02785
G1 X101.583 Y88.967 E0.01826
G1 X102.122 Y88.804 E0.01766
G1 X102.562 Y88.738 E0.01395
G1 X106.687 Y88.558 E0.12944
G1 X107.045 Y88.919 E0.01595
G1 X102.227 Y89.167 E0.15126
M73 Q1 S22
G1 X101.761 Y89.302 E0.01523
G1 X101.257 Y89.534 E0.01738
G1 X100.847 Y89.804 E0.01540
G1 X100.123 Y90.520 E0.03192
G1 X99.627 Y91.309 E0.02923
G1 X99.436 Y91.824 E0.01722
G1 X99.327 Y92.523 E0.02218
G1 X99.326 Y96.963 E0.13923
G1 X99.703 Y97.253 E0.01490
G1 X99.730 Y92.251 E0.15681
G1 X99.799 Y91.929 E0.01034
G1 X100.090 Y91.218 E0.02411
G1 X100.407 Y90.769 E0.01722
G1 X100.875 Y90.279 E0.02123
G1 X101.440 Y89.864 E0.02199
G1 X101.899 Y89.653 E0.01582
G1 X102.635 Y89.489 E0.02366
G1 X107.325 Y89.284 E0.14720
G1 X107.605 Y89.649 E0.01443
G1 X102.392 Y89.903 E0.16367
G1 X101.634 Y90.188 E0.02538
G1 X101.318 Y90.394 E0.01185
G1 X100.689 Y91.019 E0.02780
G1 X100.324 Y91.595 E0.02137
G1 X100.101 Y92.317 E0.02369
G1 X100.080 Y97.542 E0.16382
G1 X100.457 Y97.704 E0.01287
G1 X100.457 Y92.567 E0.16107
G1 X100.542 Y92.076 E0.01562
G1 X100.762 Y91.562 E0.01753
G1 X100.974 Y91.266 E0.01142
G1 X101.396 Y90.824 E0.01915
G1 X101.801 Y90.526 E0.01576
G1 X102.146 Y90.367 E0.01191
G1 X102.683 Y90.241 E0.01730
G1 X107.837 Y90.016 E0.16175
G1 X107.990 Y90.387 E0.01258
G1 X102.555 Y90.639 E0.17061
G1 X102.287 Y90.716 E0.00874
G1 X101.780 Y90.990 E0.01807
G1 X101.254 Y91.518 E0.02336
G1 X101.088 Y91.753 E0.00902
G1 X100.903 Y92.184 E0.01472
G1 X100.834 Y92.573 E0.01239
G1 X100.834 Y97.860 E0.16575
G1 X101.211 Y98.016 E0.01280
G1 X101.211 Y92.578 E0.17051
G1 X101.263 Y92.295 E0.00902
G1 X101.412 Y91.946 E0.01190
G1 X102.001 Y91.295 E0.02753
G1 X102.430 Y91.065 E0.01526
G1 X102.727 Y90.994 E0.00957
G1 X108.144 Y90.758 E0.17000
G1 X108.297 Y91.128 E0.01258
G1 X102.753 Y91.371 E0.17402
G1 X102.227 Y91.598 E0.01796
G1 X101.792 Y92.052 E0.01970
G1 X101.588 Y92.587 E0.01796
G1 X101.588 Y98.134 E0.17392
G1 X101.965 Y98.184 E0.01193
G1 X101.965 Y92.605 E0.17492
G1 X102.099 Y92.271 E0.01128
G1 X102.459 Y91.895 E0.01633
G1 X102.787 Y91.746 E0.01128
G1 X108.375 Y91.503 E0.17538
G1 X108.425 Y91.878 E0.01187
G1 X102.840 Y92.122 E0.17528
G1 X102.707 Y92.182 E0.00457
G1 X102.397 Y92.506 E0.01406
G1 X102.342 Y92.641 E0.00457
G1 X102.342 Y98.233 E0.17534
G1 X102.719 Y98.283 E0.01193
G1 X102.719 Y92.714 E0.17461
M73 Q2 S22
G1 X102.929 Y92.495 E0.00949
G1 X108.474 Y92.253 E0.17403
;WIPE_START
M73 P2 R22
G1 F8640.000
G1 X105.186 Y92.397 E-0.76000
;WIPE_END
G1 E-0.04000 F2100.000
G1 Z0.600000 F10800.000
G1 X98.196 Y116.837
G1 Z0.200000
G1 E0.80000 F2100.000
G1 F1200.000
G1 X98.224 Y120.410 E0.11202
G1 X98.449 Y121.333 E0.02981
G1 X98.618 Y121.748 E0.01403
G1 X99.175 Y122.649 E0.03320
G1 X99.958 Y123.466 E0.03550
G1 X100.692 Y123.985 E0.02817
G1 X101.619 Y124.384 E0.03164
G1 X102.573 Y124.558 E0.03043
G1 X105.756 Y124.696 E0.09987
G1 X106.221 Y124.339 E0.01839
G1 X102.592 Y124.181 E0.11389
G1 X101.727 Y124.022 E0.02757
G1 X100.866 Y123.651 E0.02940
G1 X100.467 Y123.392 E0.01492
G1 X99.461 Y122.404 E0.04421
G1 X99.083 Y121.837 E0.02135
G1 X98.802 Y121.199 E0.02187
G1 X98.655 Y120.691 E0.01659
G1 X98.573 Y120.040 E0.02057
G1 X98.573 Y116.346 E0.11580
G1 X98.950 Y115.865 E0.01918
G1 X98.950 Y120.027 E0.13051
G1 X98.997 Y120.471 E0.01398
G1 X99.144 Y121.037 E0.01833
G1 X99.403 Y121.636 E0.02046
G1 X99.709 Y122.108 E0.01766
G1 X100.414 Y122.862 E0.03236
G1 X100.977 Y123.279 E0.02198
G1 X101.508 Y123.540 E0.01852
G1 X102.209 Y123.754 E0.02299
G1 X102.611 Y123.804 E0.01271
G1 X106.686 Y123.982 E0.12791
G1 X107.045 Y123.620 E0.01597
G1 X102.279 Y123.383 E0.14962
G1 X101.661 Y123.195 E0.02025
G1 X101.158 Y122.948 E0.01758
G1 X100.661 Y122.577 E0.01947
G1 X100.155 Y122.054 E0.02279
G1 X99.733 Y121.454 E0.02301
G1 X99.494 Y120.896 E0.01902
G1 X99.326 Y119.997 E0.02868
G1 X99.326 Y115.576 E0.13863
G1 X99.703 Y115.287 E0.01490
G1 X99.736 Y120.324 E0.15795
G1 X100.034 Y121.215 E0.02945
G1 X100.293 Y121.631 E0.01537
G1 X100.915 Y122.298 E0.02858
G1 X101.552 Y122.732 E0.02418
G1 X102.030 Y122.932 E0.01624
G1 X102.652 Y123.051 E0.01986
G1 X107.325 Y123.255 E0.14667
G1 X107.606 Y122.890 E0.01443
G1 X102.418 Y122.642 E0.16284
G1 X101.708 Y122.389 E0.02362
G1 X101.149 Y122.000 E0.02137
G1 X100.592 Y121.401 E0.02562
G1 X100.369 Y121.042 E0.01325
G1 X100.108 Y120.258 E0.02594
G1 X100.080 Y114.997 E0.16493
G1 X100.457 Y114.835 E0.01287
G1 X100.478 Y120.187 E0.16780
G1 X100.705 Y120.870 E0.02256
G1 X100.892 Y121.172 E0.01114
G1 X101.409 Y121.727 E0.02379
G1 X101.719 Y121.966 E0.01226
G1 X102.196 Y122.192 E0.01655
G1 X102.688 Y122.298 E0.01576
G1 X107.837 Y122.523 E0.16161
G1 X107.990 Y122.152 E0.01258
G1 X102.706 Y121.921 E0.16584
G1 X102.320 Y121.836 E0.01239
G1 X101.898 Y121.632 E0.01472
G1 X101.186 Y120.937 E0.03119
G1 X100.914 Y120.389 E0.01918
G1 X100.834 Y119.966 E0.01351
G1 X100.834 Y114.679 E0.16575
G1 X101.211 Y114.523 E0.01280
G1 X101.211 Y119.961 E0.17051
G1 X101.378 Y120.530 E0.01858
G1 X101.933 Y121.185 E0.02694
G1 X102.447 Y121.480 E0.01858
G1 X102.727 Y121.545 E0.00902
G1 X108.144 Y121.781 E0.17000
G1 X108.297 Y121.411 E0.01258
G1 X102.753 Y121.168 E0.17402
G1 X102.227 Y120.941 E0.01796
G1 X101.792 Y120.487 E0.01970
G1 X101.588 Y119.952 E0.01796
G1 X101.588 Y114.405 E0.17392
G1 X101.965 Y114.355 E0.01193
G1 X101.965 Y119.934 E0.17492
G1 X102.099 Y120.268 E0.01128
G1 X102.459 Y120.644 E0.01633
G1 X102.787 Y120.793 E0.01128
G1 X108.375 Y121.037 E0.17538
G1 X108.425 Y120.661 E0.01187
G1 X102.840 Y120.417 E0.17528
G1 X102.707 Y120.357 E0.00457
G1 X102.397 Y120.033 E0.01406
G1 X102.342 Y119.898 E0.00457
G1 X102.342 Y114.306 E0.17534
G1 X102.719 Y114.256 E0.01193
G1 X102.719 Y119.825 E0.17461
G1 X102.929 Y120.044 E0.00949
G1 X108.474 Y120.286 E0.17403
;WIPE_START
G1 F8640.000
G1 X105.186 Y120.142 E-0.76000
;WIPE_END
G1 E-0.04000 F2100.000
G1 Z0.600000 F10800.000
G1 X104.959 Y125.039
G1 Z0.200000
G1 E0.80000 F2100.000
G1 F1200.000
G1 X102.555 Y124.934 E0.07546
G1 X101.527 Y124.750 E0.03273
G1 X100.526 Y124.324 E0.03412
G1 X100.158 Y124.097 E0.01357
G1 X99.494 Y123.545 E0.02706
G1 X98.667 Y122.598 E0.03943
G1 X98.274 Y121.903 E0.02502
G1 X97.986 Y121.127 E0.02596
G1 X97.819 Y120.078 E0.03332
G1 X97.819 Y117.572 E0.07857
;WIPE_START
G1 F8640.000
G1 X97.819 Y120.078 E-0.57863
G1 X97.942 Y120.853 E-0.18137
;WIPE_END
G1 E-0.04000 F2100.000
G1 Z0.600000 F10800.000
G1 X97.443 Y118.652
G1 Z0.200000
G1 E0.80000 F2100.000
G1 F1200.000
G1 X97.478 Y120.521 E0.05859
G1 X97.745 Y121.603 E0.03496
G1 X98.106 Y122.409 E0.02769
G1 X98.355 Y122.809 E0.01478
G1 X99.223 Y123.807 E0.04148
G1 X99.943 Y124.407 E0.02936
G1 X100.344 Y124.655 E0.01480
G1 X101.420 Y125.112 E0.03665
G1 X102.536 Y125.311 E0.03555
G1 X103.764 Y125.364 E0.03854
;WIPE_START
G1 F8640.000
G1 X102.536 Y125.311 E-0.28381
G1 X101.420 Y125.112 E-0.26177
G1 X100.566 Y124.749 E-0.21442
;WIPE_END
G1 E-0.04000 F2100.000
G1 Z0.600000 F10800.000
G1 X132.202 Y121.154
G1 Z0.200000
G1 E0.80000 F2100.000
G1 F1200.000
G1 X137.756 Y121.154 E0.17414
G1 X137.982 Y120.897 E0.01071
G1 X137.260 Y115.414 E0.17341
G1 X137.634 Y115.365 E0.01182
G1 X138.366 Y120.929 E0.17596
M73 Q3 S22
G1 X138.319 Y121.085 E0.00511
G1 X137.986 Y121.464 E0.01582
G1 X137.838 Y121.531 E0.00511
G1 X132.252 Y121.531 E0.17514
G1 X132.302 Y121.908 E0.01192
G1 X137.878 Y121.908 E0.17485
M73 P3 R22
G1 X138.243 Y121.743 E0.01257
G1 X138.629 Y121.303 E0.01835
G1 X138.745 Y120.919 E0.01257
G1 X138.015 Y115.371 E0.17547
G1 X138.402 Y115.422 E0.01224
G1 X139.122 Y120.890 E0.17293
G1 X139.105 Y121.090 E0.00629
G1 X138.949 Y121.504 E0.01387
G1 X138.513 Y122.007 E0.02086
G1 X138.094 Y122.243 E0.01509
G1 X137.898 Y122.285 E0.00629
G1 X132.351 Y122.285 E0.17392
G1 X132.469 Y122.662 E0.01239
G1 X137.908 Y122.662 E0.17054
G1 X138.222 Y122.598 E0.01004
G1 X138.604 Y122.414 E0.01328
G1 X139.274 Y121.696 E0.03081
G1 X139.469 Y121.190 E0.01700
G1 X139.497 Y120.851 E0.01066
G1 X138.789 Y115.473 E0.17008
G1 X139.176 Y115.524 E0.01223
G1 X139.872 Y120.817 E0.16739
G1 X139.843 Y121.246 E0.01349
G1 X139.679 Y121.742 E0.01641
G1 X139.509 Y122.015 E0.01006
G1 X138.945 Y122.631 E0.02618
G1 X138.382 Y122.940 E0.02014
G1 X138.083 Y123.021 E0.00974
G1 X132.625 Y123.039 E0.17111
G1 X132.781 Y123.416 E0.01279
G1 X137.941 Y123.416 E0.16177
G1 X138.522 Y123.290 E0.01864
G1 X139.172 Y122.932 E0.02327
G1 X139.801 Y122.254 E0.02900
G1 X140.016 Y121.910 E0.01272
G1 X140.212 Y121.324 E0.01939
G1 X140.252 Y121.000 E0.01022
G1 X139.575 Y115.666 E0.16859
G1 X139.975 Y115.832 E0.01358
G1 X140.627 Y120.792 E0.15685
G1 X140.581 Y121.403 E0.01921
G1 X140.452 Y121.846 E0.01447
G1 X140.091 Y122.494 E0.02325
G1 X139.400 Y123.233 E0.03174
G1 X139.075 Y123.450 E0.01226
G1 X138.625 Y123.655 E0.01549
G1 X138.236 Y123.760 E0.01265
G1 X132.943 Y123.793 E0.16595
G1 X133.232 Y124.169 E0.01485
G1 X138.018 Y124.167 E0.15007
G1 X138.478 Y124.093 E0.01461
G1 X139.273 Y123.771 E0.02690
G1 X139.888 Y123.298 E0.02433
G1 X140.383 Y122.733 E0.02353
G1 X140.693 Y122.244 E0.01817
G1 X140.951 Y121.478 E0.02535
G1 X141.003 Y120.768 E0.02231
G1 X140.376 Y115.998 E0.15084
G1 X140.786 Y116.229 E0.01474
G1 X141.380 Y120.756 E0.14314
G1 X141.380 Y121.092 E0.01056
G1 X141.319 Y121.559 E0.01477
G1 X141.167 Y122.086 E0.01718
G1 X141.031 Y122.409 E0.01100
G1 X140.674 Y122.973 E0.02092
G1 X139.871 Y123.821 E0.03664
G1 X139.459 Y124.100 E0.01560
G1 X138.562 Y124.461 E0.03031
G1 X138.047 Y124.543 E0.01634
G1 X133.520 Y124.545 E0.14194
G1 X133.809 Y124.921 E0.01486
G1 X138.087 Y124.918 E0.13415
G1 X138.647 Y124.828 E0.01779
G1 X139.651 Y124.424 E0.03391
G1 X140.123 Y124.103 E0.01791
G1 X140.437 Y123.815 E0.01336
G1 X140.972 Y123.204 E0.02546
G1 X141.390 Y122.535 E0.02475
G1 X141.690 Y121.628 E0.02994
G1 X141.756 Y121.121 E0.01604
G1 X141.757 Y120.740 E0.01193
G1 X141.207 Y116.553 E0.13243
G1 X141.627 Y116.875 E0.01659
G1 X142.135 Y120.748 E0.12247
G1 X142.059 Y121.705 E0.03011
G1 X141.891 Y122.298 E0.01934
G1 X141.730 Y122.698 E0.01351
G1 X141.265 Y123.441 E0.02749
G1 X140.712 Y124.073 E0.02632
G1 X140.086 Y124.599 E0.02563
G1 X139.227 Y125.039 E0.03025
G1 X138.748 Y125.192 E0.01578
G1 X138.127 Y125.293 E0.01972
G1 X134.287 Y125.297 E0.12039
G1 X134.775 Y125.671 E0.01928
G1 X138.187 Y125.667 E0.10697
G1 X138.836 Y125.559 E0.02063
G1 X139.370 Y125.388 E0.01758
G1 X140.298 Y124.910 E0.03272
G1 X140.987 Y124.331 E0.02823
G1 X141.838 Y123.284 E0.04232
G1 X142.240 Y122.443 E0.02922
G1 X142.428 Y121.780 E0.02159
G1 X142.512 Y120.743 E0.03263
G1 X142.084 Y117.390 E0.10598
G1 X142.543 Y117.989 F10800.000
G1 F1200.000
G1 X142.863 Y120.420 E0.07688
G1 X142.869 Y121.381 E0.03016
G1 X142.795 Y121.871 E0.01554
G1 X142.598 Y122.562 E0.02252
G1 X142.159 Y123.482 E0.03196
G1 X141.865 Y123.899 E0.01600
G1 X141.262 Y124.588 E0.02872
G1 X140.858 Y124.964 E0.01728
G1 X140.231 Y125.396 E0.02387
G1 X139.532 Y125.729 E0.02429
G1 X138.923 Y125.926 E0.02005
G1 X138.221 Y126.042 E0.02231
G1 X135.523 Y126.056 E0.08461
;WIPE_START
G1 F8640.000
G1 X138.221 Y126.042 E-0.62311
G1 X138.806 Y125.945 E-0.13689
;WIPE_END
G1 E-0.04000 F2100.000
G1 Z0.600000 F10800.000
G1 X136.618 Y126.433
G1 Z0.200000
G1 E0.80000 F2100.000
G1 F1200.000
G1 X138.298 Y126.414 E0.05268
G1 X139.125 Y126.263 E0.02637
G1 X139.542 Y126.130 E0.01371
