; generated by SuperSlicer 2.3.55 on 2021-06-17 at 13:38:22 UTC

; 

; external perimeters extrusion width = 0.45mm
; perimeters extrusion width = 0.45mm
; infill extrusion width = 0.45mm
; solid infill extrusion width = 0.45mm
; top infill extrusion width = 0.40mm
; support material extrusion width = 0.35mm
; first layer extrusion width = 0.42mm

; object:{"name":"blasterxmounting","id":"blasterxmounting.STL id:0 copy 0","object_center":[123.477080,86.254886,0.000000],"boundingbox_center":[123.477080,86.254886,5.000000],"boundingbox_size":[44.766983,32.444489,10.000000]}
; object:{"name":"blasterxmounting","id":"blasterxmounting.STL id:0 copy 1","object_center":[126.505884,123.831703,0.000000],"boundingbox_center":[126.505884,123.831703,5.000000],"boundingbox_size":[44.766983,32.444489,10.000000]}
; Total objects to print: 2
M486 T2
; plater:{"center":[124.991482,105.043295,0.000000],"boundingbox_center":[124.991482,105.043295,5.000000],"boundingbox_size":[47.795787,70.021306,10.000000]}

M73 P0 R45
M73 Q0 S46
;TYPE:Custom
M862.3 P "MK3S" ; printer model check
M862.1 P0.4 ; nozzle diameter check
M115 U3.9.2 ; tell printer latest fw version
G90 ; use absolute coordinates
M83 ; extruder relative mode
M104 S215 ; set extruder temp
M140 S60 ; set bed temp
M190 S60 ; wait for bed temp
M109 S215 ; wait for extruder temp
G28 W ; home all without mesh bed level
G80 ; mesh bed leveling
G1 Y-3.0 F1000.0 ; go outside print area
G92 E0.0
G1 X60.0 E9.0 F1000.0 ; intro line
G1 X100.0 E12.5 F1000.0 ; intro line
G92 E0.0
M221 S95

; Don't change E values below. Excessive value can damage the printer.

M107
G21 ; set units to millimeters
G90 ; use absolute coordinates
M83 ; use relative distances for extrusion
M900 K0.05 ; Filament gcode LA 1.5
M900 K30 ; Filament gcode LA 1.0
M107
;LAYER_CHANGE
;Z:0.2
;HEIGHT:0.2
;BEFORE_LAYER_CHANGE
;0.2


G1 E-0.80000 F2100.000
G1 Z0.400000 F10800.000
;AFTER_LAYER_CHANGE
;0.2
G1 X96.031 Y69.109
M73 Q0 S45
G1 Z0.200000
G1 E0.80000 F2100.000
;TYPE:Skirt
;WIDTH:0.42
G1 F1200.000
M204 P1000
G1 X97.277 Y68.003 E0.05222
G1 X98.750 Y67.212 E0.05243
G1 X100.359 Y66.783 E0.05222
G1 X145.216 Y63.181 E1.41099
G1 X146.423 Y63.284 E0.03796
G1 X147.595 Y63.587 E0.03796
G1 X148.699 Y64.084 E0.03796
G1 X149.704 Y64.758 E0.03796
G1 X150.582 Y65.592 E0.03796
G1 X151.308 Y66.561 E0.03796
G1 X151.860 Y67.638 E0.03796
G1 X152.226 Y68.800 E0.03817
G1 X152.687 Y72.140 E0.10571
G1 X155.741 Y110.291 E1.20002
G1 X155.665 Y111.373 E0.03403
G1 X155.424 Y112.438 E0.03424
G1 X146.166 Y141.932 E0.96926
G1 X145.638 Y143.174 E0.04231
G1 X145.141 Y143.964 E0.02926
G1 X144.551 Y144.679 E0.02906
G1 X143.869 Y145.316 E0.02926
G1 X143.116 Y145.855 E0.02906
G1 X142.299 Y146.294 E0.02906
G1 X141.433 Y146.623 E0.02906
G1 X140.525 Y146.840 E0.02926
G1 X139.604 Y146.937 E0.02906
G1 X129.651 Y146.939 E0.31206
G1 X104.056 Y145.822 E0.80328
G1 X102.484 Y145.565 E0.04995
G1 X101.007 Y144.968 E0.04995
G1 X99.658 Y144.025 E0.05160
G1 X98.555 Y142.795 E0.05181
G1 X97.761 Y141.346 E0.05181
G1 X97.320 Y139.753 E0.05181
G1 X94.228 Y101.637 E1.19905
G1 X94.208 Y73.704 E0.87580
G1 X94.448 Y72.043 E0.05263
G1 X95.070 Y70.477 E0.05284
G1 X95.997 Y69.158 E0.05054
;WIPE_START
G1 F8640.000
G1 X97.277 Y68.003 E-0.39805
G1 X98.658 Y67.261 E-0.36195
;WIPE_END
G1 E-0.04000 F2100.000
G1 Z1.000000 F10800.000
M73 P0 R44
G1 X95.926 Y75.080
G1 Z0.200000
G1 E0.80000 F2100.000
G1 F1200.000
G1 X95.927 Y73.721 E0.04260
G1 X95.975 Y73.151 E0.01795
G1 X96.099 Y72.553 E0.01914
G1 X96.586 Y71.352 E0.04063
G1 X97.243 Y70.431 E0.03548
G1 X97.885 Y69.773 E0.02881
G1 X98.433 Y69.341 E0.02187
G1 X98.915 Y69.050 E0.01767
G1 X99.588 Y68.747 E0.02315
G1 X100.700 Y68.469 E0.03594
G1 X102.250 Y68.386 E0.04865
;WIPE_START
G1 F8640.000
G1 X100.700 Y68.469 E-0.35830
G1 X99.588 Y68.747 E-0.26466
G1 X99.047 Y68.991 E-0.13704
;WIPE_END
G1 E-0.04000 F2100.000
G1 Z0.600000 F10800.000
G1 X103.444 Y68.711
G1 Z0.200000
G1 E0.80000 F2100.000
G1 F1200.000
G1 X100.750 Y68.843 E0.08455
G1 X99.723 Y69.099 E0.03319
G1 X99.089 Y69.385 E0.02181
G1 X98.649 Y69.650 E0.01611
G1 X98.139 Y70.051 E0.02032
G1 X97.531 Y70.675 E0.02732
G1 X96.924 Y71.521 E0.03267
G1 X96.468 Y72.634 E0.03770
G1 X96.304 Y73.729 E0.03472
G1 X96.303 Y76.175 E0.07670
;WIPE_START
G1 F8640.000
G1 X96.304 Y73.729 E-0.56484
G1 X96.429 Y72.893 E-0.19516
;WIPE_END
G1 E-0.04000 F2100.000
G1 Z0.600000 F10800.000
G1 X101.205 Y79.495
G1 Z0.200000
G1 E0.80000 F2100.000
G1 F1200.000
G1 X101.205 Y73.925 E0.17461
G1 X101.414 Y73.707 E0.00949
G1 X106.960 Y73.465 E0.17403
G1 X106.910 Y73.089 E0.01187
G1 X101.325 Y73.333 E0.17528
G1 X101.192 Y73.393 E0.00457
G1 X100.882 Y73.717 E0.01406
G1 X100.828 Y73.853 E0.00457
G1 X100.828 Y79.445 E0.17534
G1 X100.451 Y79.395 E0.01193
G1 X100.451 Y73.817 E0.17492
G1 X100.585 Y73.483 E0.01128
G1 X100.945 Y73.107 E0.01633
G1 X101.273 Y72.958 E0.01128
G1 X106.861 Y72.714 E0.17538
G1 X106.783 Y72.340 E0.01198
G1 X101.238 Y72.582 E0.17402
G1 X100.712 Y72.809 E0.01796
G1 X100.278 Y73.263 E0.01970
G1 X100.074 Y73.799 E0.01796
G1 X100.074 Y79.346 E0.17392
G1 X99.697 Y79.228 E0.01239
G1 X99.697 Y73.790 E0.17051
G1 X99.749 Y73.507 E0.00902
G1 X100.021 Y72.981 E0.01858
G1 X100.652 Y72.397 E0.02694
G1 X101.213 Y72.206 E0.01858
G1 X106.629 Y71.969 E0.17000
G1 X106.476 Y71.599 E0.01258
G1 X101.192 Y71.829 E0.16584
G1 X100.773 Y71.928 E0.01351
G1 X100.265 Y72.202 E0.01807
G1 X99.573 Y72.965 E0.03230
G1 X99.388 Y73.396 E0.01472
G1 X99.320 Y73.785 E0.01239
G1 X99.320 Y79.071 E0.16575
G1 X98.943 Y78.915 E0.01280
G1 X98.943 Y73.778 E0.16107
G1 X99.027 Y73.287 E0.01562
G1 X99.248 Y72.774 E0.01753
G1 X99.460 Y72.477 E0.01142
G1 X100.031 Y71.906 E0.02533
M73 P1 R44
G1 X100.631 Y71.578 E0.02144
G1 X100.955 Y71.483 E0.01057
G1 X106.322 Y71.228 E0.16848
M73 Q1 S45
G1 X106.091 Y70.861 E0.01361
G1 X100.877 Y71.114 E0.16367
G1 X100.120 Y71.399 E0.02538
G1 X99.803 Y71.606 E0.01185
G1 X99.175 Y72.231 E0.02780
G1 X98.810 Y72.807 E0.02137
G1 X98.587 Y73.529 E0.02369
G1 X98.566 Y78.753 E0.16382
G1 X98.189 Y78.464 E0.01489
G1 X98.189 Y73.745 E0.14797
G1 X98.284 Y73.141 E0.01919
G1 X98.461 Y72.663 E0.01596
G1 X98.893 Y71.980 E0.02533
G1 X99.361 Y71.491 E0.02123
G1 X99.925 Y71.075 E0.02199
G1 X100.795 Y70.746 E0.02914
G1 X105.811 Y70.495 E0.15748
G1 X105.531 Y70.130 E0.01443
G1 X101.094 Y70.324 E0.13923
G1 X100.246 Y70.514 E0.02725
G1 X99.743 Y70.745 E0.01738
G1 X99.095 Y71.223 E0.02522
G1 X98.609 Y71.732 E0.02208
G1 X98.243 Y72.253 E0.01996
G1 X97.922 Y73.036 E0.02653
G1 X97.843 Y73.404 E0.01182
G1 X97.812 Y78.175 E0.14959
G1 X97.435 Y77.886 E0.01491
G1 X97.435 Y73.749 E0.12969
G1 X97.557 Y72.940 E0.02567
G1 X97.763 Y72.378 E0.01877
G1 X97.919 Y72.058 E0.01115
G1 X98.363 Y71.442 E0.02383
G1 X98.897 Y70.891 E0.02406
G1 X99.297 Y70.577 E0.01593
G1 X99.646 Y70.370 E0.01272
G1 X100.462 Y70.050 E0.02748
G1 X100.921 Y69.962 E0.01466
G1 X105.179 Y69.774 E0.13364
G1 X104.715 Y69.418 E0.01834
G1 X100.875 Y69.587 E0.12051
G1 X99.994 Y69.803 E0.02846
G1 X99.474 Y70.035 E0.01785
G1 X98.642 Y70.613 E0.03177
G1 X97.834 Y71.494 E0.03747
G1 X97.414 Y72.235 E0.02670
G1 X97.194 Y72.837 E0.02010
G1 X97.058 Y73.743 E0.02870
G1 X97.058 Y77.403 E0.11478
G1 X96.680 Y76.911 E0.01944
G1 X96.680 Y73.779 E0.09823
G1 X96.826 Y72.754 E0.03245
G1 X97.065 Y72.093 E0.02205
G1 X97.528 Y71.275 E0.02946
G1 X98.385 Y70.337 E0.03986
G1 X98.865 Y69.959 E0.01914
G1 X99.302 Y69.699 E0.01595
G1 X99.858 Y69.451 E0.01908
G1 X100.818 Y69.214 E0.03101
G1 X104.252 Y69.063 E0.10778
;WIPE_START
G1 F8640.000
G1 X100.964 Y69.208 E-0.76000
;WIPE_END
G1 E-0.04000 F2100.000
G1 Z0.600000 F10800.000
G1 X101.205 Y95.468
G1 Z0.200000
G1 E0.80000 F2100.000
G1 F1200.000
G1 X101.205 Y101.037 E0.17461
G1 X101.414 Y101.255 E0.00949
G1 X106.960 Y101.498 E0.17403
G1 X106.910 Y101.873 E0.01187
G1 X101.325 Y101.629 E0.17528
G1 X101.192 Y101.569 E0.00457
G1 X100.882 Y101.245 E0.01406
G1 X100.828 Y101.110 E0.00457
G1 X100.828 Y95.517 E0.17534
G1 X100.451 Y95.567 E0.01193
G1 X100.451 Y101.146 E0.17492
G1 X100.585 Y101.480 E0.01128
G1 X100.945 Y101.856 E0.01633
G1 X101.273 Y102.004 E0.01128
G1 X106.861 Y102.248 E0.17538
G1 X106.783 Y102.622 E0.01198
G1 X101.238 Y102.380 E0.17402
G1 X100.712 Y102.153 E0.01796
G1 X100.278 Y101.699 E0.01970
G1 X100.074 Y101.164 E0.01796
G1 X100.074 Y95.617 E0.17392
G1 X99.697 Y95.735 E0.01239
G1 X99.697 Y101.173 E0.17051
G1 X99.755 Y101.472 E0.00957
G1 X99.976 Y101.926 E0.01581
G1 X100.590 Y102.528 E0.02698
G1 X100.933 Y102.692 E0.01190
G1 X101.213 Y102.756 E0.00902
G1 X106.630 Y102.993 E0.17000
G1 X106.476 Y103.363 E0.01258
G1 X101.192 Y103.133 E0.16584
G1 X100.806 Y103.047 E0.01239
G1 X100.383 Y102.844 E0.01472
G1 X100.156 Y102.667 E0.00902
G1 X99.672 Y102.148 E0.02224
G1 X99.526 Y101.910 E0.00875
G1 X99.334 Y101.329 E0.01919
G1 X99.320 Y95.891 E0.17053
G1 X98.943 Y96.047 E0.01280
G1 X98.943 Y101.184 E0.16107
G1 X99.046 Y101.730 E0.01744
G1 X99.377 Y102.384 E0.02297
G1 X99.895 Y102.939 E0.02379
G1 X100.205 Y103.177 E0.01226
G1 X100.959 Y103.480 E0.02549
G1 X106.322 Y103.734 E0.16834
G1 X106.091 Y104.101 E0.01361
G1 X101.156 Y103.886 E0.15490
G1 X100.624 Y103.782 E0.01697
G1 X100.194 Y103.600 E0.01465
G1 X99.634 Y103.212 E0.02137
G1 X99.078 Y102.613 E0.02562
G1 X98.855 Y102.254 E0.01325
G1 X98.593 Y101.469 E0.02594
G1 X98.566 Y96.209 E0.16493
G1 X98.189 Y96.498 E0.01490
G1 X98.189 Y101.199 E0.14739
G1 X98.334 Y101.980 E0.02492
G1 X98.520 Y102.427 E0.01515
G1 X98.779 Y102.843 E0.01537
G1 X99.400 Y103.509 E0.02858
G1 X99.832 Y103.833 E0.01690
G1 X100.516 Y104.143 E0.02355
G1 X100.835 Y104.224 E0.01034
G1 X105.811 Y104.467 E0.15620
G1 X105.531 Y104.832 E0.01443
G1 X101.115 Y104.639 E0.13858
G1 X100.765 Y104.595 E0.01108
G1 X100.147 Y104.407 E0.02025
G1 X99.644 Y104.160 E0.01758
G1 X99.146 Y103.788 E0.01947
G1 X98.487 Y103.081 E0.03031
G1 X98.219 Y102.665 E0.01552
G1 X97.979 Y102.108 E0.01902
G1 X97.851 Y101.605 E0.01628
G1 X97.812 Y101.209 E0.01248
G1 X97.812 Y96.787 E0.13863
G1 X97.435 Y97.076 E0.01488
G1 X97.435 Y101.240 E0.13055
G1 X97.468 Y101.598 E0.01128
G1 X97.640 Y102.278 E0.02198
G1 X97.840 Y102.753 E0.01614
G1 X98.194 Y103.320 E0.02098
G1 X98.810 Y103.987 E0.02845
G1 X99.293 Y104.382 E0.01959
G1 X99.726 Y104.630 E0.01563
G1 X100.384 Y104.891 E0.02219
G1 X101.072 Y105.015 E0.02193
G1 X105.172 Y105.194 E0.12866
G1 X104.713 Y105.546 E0.01814
G1 X100.906 Y105.378 E0.11949
G1 X100.057 Y105.182 E0.02731
G1 X99.536 Y104.958 E0.01780
G1 X99.219 Y104.784 E0.01132
G1 X98.625 Y104.333 E0.02338
G1 X98.081 Y103.771 E0.02452
G1 X97.653 Y103.194 E0.02253
G1 X97.172 Y102.041 E0.03917
G1 X97.057 Y101.198 E0.02667
G1 X97.057 Y97.559 E0.11410
G1 X96.680 Y98.050 E0.01941
G1 X96.680 Y101.221 E0.09940
G1 X96.714 Y101.653 E0.01359
G1 X96.925 Y102.519 E0.02796
G1 X97.147 Y103.053 E0.01812
G1 X97.439 Y103.559 E0.01833
G1 X98.302 Y104.546 E0.04108
G1 X99.023 Y105.106 E0.02863
G1 X99.945 Y105.542 E0.03198
G1 X100.541 Y105.704 E0.01937
G1 X101.070 Y105.770 E0.01673
G1 X105.169 Y105.949 E0.12864
;WIPE_START
G1 F8640.000
G1 X101.881 Y105.805 E-0.76000
;WIPE_END
G1 E-0.04000 F2100.000
G1 Z0.600000 F10800.000
G1 X107.270 Y106.631
G1 Z0.200000
G1 E0.80000 F2100.000
G1 F1200.000
G1 X103.663 Y106.818 E0.11324
G1 X102.787 Y107.068 E0.02855
G1 X102.200 Y107.346 E0.02036
G1 X101.348 Y107.976 E0.03324
G1 X100.789 Y108.561 E0.02537
G1 X100.481 Y108.959 E0.01577
G1 X100.173 Y109.493 E0.01932
G1 X99.908 Y110.153 E0.02229
G1 X99.757 Y110.791 E0.02059
G1 X99.709 Y111.344 E0.01739
G1 X99.710 Y114.489 E0.09862
G1 X100.087 Y114.981 E0.01942
G1 X100.086 Y111.319 E0.11480
G1 X100.223 Y110.414 E0.02870
G1 X100.443 Y109.812 E0.02010
G1 X100.838 Y109.107 E0.02534
G1 X101.619 Y108.239 E0.03660
G1 X102.410 Y107.661 E0.03072
G1 X102.931 Y107.416 E0.01807
G1 X103.790 Y107.180 E0.02794
G1 X107.735 Y106.988 E0.12382
G1 X108.205 Y107.349 E0.01858
G1 X103.996 Y107.533 E0.13209
G1 X103.645 Y107.590 E0.01114
G1 X103.217 Y107.710 E0.01396
G1 X102.478 Y108.056 E0.02558
G1 X101.933 Y108.461 E0.02127
G1 X101.282 Y109.145 E0.02961
G1 X100.937 Y109.655 E0.01931
G1 X100.668 Y110.264 E0.02089
G1 X100.539 Y110.714 E0.01465
G1 X100.464 Y111.302 E0.01861
G1 X100.464 Y115.463 E0.13045
G1 X100.841 Y115.752 E0.01489
G1 X100.872 Y110.981 E0.14959
G1 X100.951 Y110.613 E0.01182
G1 X101.272 Y109.829 E0.02653
G1 X101.638 Y109.309 E0.01996
G1 X102.124 Y108.799 E0.02208
G1 X102.772 Y108.322 E0.02522
G1 X103.275 Y108.091 E0.01738
G1 X104.123 Y107.901 E0.02725
G1 X108.560 Y107.707 E0.13923
G1 X108.840 Y108.072 E0.01443
G1 X103.823 Y108.323 E0.15748
G1 X102.954 Y108.652 E0.02914
G1 X102.389 Y109.068 E0.02199
G1 X101.921 Y109.557 E0.02123
G1 X101.490 Y110.240 E0.02533
G1 X101.313 Y110.717 E0.01596
G1 X101.218 Y111.322 E0.01919
G1 X101.218 Y116.041 E0.14797
G1 X101.594 Y116.330 E0.01489
G1 X101.616 Y111.105 E0.16382
G1 X101.675 Y110.823 E0.00903
G1 X101.933 Y110.192 E0.02140
G1 X102.203 Y109.808 E0.01472
G1 X102.655 Y109.335 E0.02049
G1 X103.148 Y108.976 E0.01914
G1 X103.551 Y108.793 E0.01389
G1 X104.175 Y108.653 E0.02004
G1 X109.120 Y108.437 E0.15518
G1 X109.351 Y108.805 E0.01361
G1 X103.984 Y109.060 E0.16848
G1 X103.660 Y109.155 E0.01057
G1 X103.060 Y109.483 E0.02144
G1 X102.489 Y110.054 E0.02533
G1 X102.277 Y110.350 E0.01142
G1 X102.056 Y110.864 E0.01753
G1 X101.971 Y111.355 E0.01562
G1 X101.971 Y116.492 E0.16107
G1 X102.348 Y116.648 E0.01280
G1 X102.348 Y111.362 E0.16575
G1 X102.417 Y110.973 E0.01239
G1 X102.602 Y110.541 E0.01472
G1 X103.294 Y109.778 E0.03230
G1 X103.801 Y109.505 E0.01807
G1 X104.221 Y109.406 E0.01351
G1 X109.505 Y109.175 E0.16584
G1 X109.658 Y109.546 E0.01258
G1 X104.242 Y109.783 E0.17000
G1 X103.681 Y109.974 E0.01858
G1 X103.050 Y110.558 E0.02694
G1 X102.778 Y111.084 E0.01858
G1 X102.726 Y111.366 E0.00902
G1 X102.726 Y116.805 E0.17051
G1 X103.103 Y116.922 E0.01239
G1 X103.103 Y111.375 E0.17392
G1 X103.307 Y110.840 E0.01796
G1 X103.741 Y110.386 E0.01970
G1 X104.267 Y110.159 E0.01796
G1 X109.812 Y109.917 E0.17402
G1 X109.890 Y110.291 E0.01198
G1 X104.301 Y110.535 E0.17538
G1 X103.974 Y110.683 E0.01128
G1 X103.614 Y111.060 E0.01633
G1 X103.480 Y111.393 E0.01128
G1 X103.480 Y116.972 E0.17492
G1 X103.857 Y117.022 E0.01193
G1 X103.857 Y111.429 E0.17534
G1 X103.911 Y111.294 E0.00457
G1 X104.221 Y110.970 E0.01406
G1 X104.354 Y110.910 E0.00457
G1 X109.939 Y110.666 E0.17528
G1 X109.988 Y111.041 E0.01187
G1 X104.443 Y111.284 E0.17403
G1 X104.234 Y111.502 E0.00949
G1 X104.234 Y117.071 E0.17461
;WIPE_START
G1 F8640.000
G1 X104.234 Y113.780 E-0.76000
;WIPE_END
G1 E-0.04000 F2100.000
G1 Z0.600000 F10800.000
G1 X99.333 Y113.754
G1 Z0.200000
G1 E0.80000 F2100.000
G1 F1200.000
G1 X99.332 Y111.356 E0.07519
G1 X99.431 Y110.485 E0.02748
G1 X99.770 Y109.466 E0.03367
G1 X100.222 Y108.671 E0.02868
G1 X100.506 Y108.312 E0.01433
G1 X101.432 Y107.405 E0.04067
G1 X102.173 Y106.933 E0.02754
G1 X102.719 Y106.689 E0.01875
G1 X103.143 Y106.549 E0.01399
G1 X103.896 Y106.406 E0.02402
G1 X105.389 Y106.336 E0.04687
G1 X100.825 Y106.128 E0.14325
G1 X100.448 Y106.070 E0.01196
G1 X100.013 Y105.962 E0.01405
G1 X99.244 Y105.654 E0.02597
G1 X98.310 Y105.059 E0.03473
G1 X97.368 Y104.098 E0.04219
G1 X96.821 Y103.245 E0.03177
G1 X96.567 Y102.638 E0.02062
G1 X96.337 Y101.683 E0.03081
G1 X96.303 Y101.193 E0.01541
G1 X96.303 Y98.788 E0.07541
;WIPE_START
G1 F8640.000
G1 X96.303 Y101.193 E-0.55532
G1 X96.337 Y101.683 E-0.11347
G1 X96.430 Y102.067 E-0.09121
;WIPE_END
G1 E-0.04000 F2100.000
G1 Z0.600000 F10800.000
G1 X95.926 Y99.886
G1 Z0.200000
G1 E0.80000 F2100.000
G1 F1200.000
G1 X95.926 Y101.193 E0.04099
G1 X96.075 Y102.317 E0.03552
G1 X96.444 Y103.331 E0.03385
G1 X96.675 Y103.764 E0.01538
G1 X97.217 Y104.503 E0.02875
G1 X98.179 Y105.438 E0.04206
G1 X98.969 Y105.939 E0.02932
G1 X99.499 Y106.180 E0.01827
G1 X99.923 Y106.328 E0.01408
G1 X100.782 Y106.503 E0.02749
G1 X102.062 Y106.568 E0.04018
G1 X101.522 Y106.877 E0.01952
G1 X100.950 Y107.316 E0.02261
G1 X100.238 Y108.046 E0.03196
G1 X99.840 Y108.562 E0.02043
G1 X99.485 Y109.183 E0.02242
G1 X99.180 Y109.953 E0.02597
G1 X99.012 Y110.672 E0.02316
G1 X98.955 Y111.340 E0.02102
G1 X98.955 Y112.653 E0.04118
