; generated by Slic3r Prusa Edition 1.42.0-beta2+linux64 on 2019-06-18 at 12:16:12

; 

; external perimeters extrusion width = 0.45mm
; perimeters extrusion width = 0.45mm
; infill extrusion width = 0.45mm
; solid infill extrusion width = 0.45mm
; top infill extrusion width = 0.40mm
; first layer extrusion width = 0.42mm

M73 P0 R56
M73 Q0 S56
M201 X1000 Y1000 Z1000 E5000 ; sets maximum accelerations, mm/sec^2
M203 X200 Y200 Z12 E120 ; sets maximum feedrates, mm/sec
M204 P1250 R1250 T1250 ; sets acceleration (P, T) and retract acceleration (R), mm/sec^2
M205 X8.00 Y8.00 Z0.40 E1.50 ; sets the jerk limits, mm/sec
M205 S0 T0 ; sets the minimum extruding and travel feed rate, mm/sec
M107
M115 U3.6.0 ; tell printer latest fw version
M83  ; extruder relative mode
M104 S215 ; set extruder temp
M140 S60 ; set bed temp
M190 S60 ; wait for bed temp
M109 S215 ; wait for extruder temp
G28 W ; home all without mesh bed level
G80 ; mesh bed leveling
G1 Y-3.0 F1000.0 ; go outside print area
G92 E0.0
G1 X60.0 E9.0  F1000.0 ; intro line
M73 Q0 S56
M73 P0 R56
G1 X100.0 E12.5  F1000.0 ; intro line
G92 E0.0
M221 S95
M900 K30 ; Filament gcode
G21 ; set units to millimeters
G90 ; use absolute coordinates
M83 ; use relative distances for extrusion
;BEFORE_LAYER_CHANGE
G92 E0.0
;0.2


G1 E-0.80000 F2100.00000
G1 Z0.600 F10800.000
;AFTER_LAYER_CHANGE
;0.2
G1 X100.483 Y72.898
G1 Z0.200
G1 E0.80000 F2100.00000
M204 S1000
G1 F1200
G1 X100.727 Y72.349 E0.01885
G1 X101.038 Y71.958 E0.01567
G1 X101.429 Y71.647 E0.01567
G1 X101.880 Y71.433 E0.01567
G1 X102.369 Y71.327 E0.01567
G1 X146.965 Y67.739 E1.40279
G1 X147.560 Y67.823 E0.01885
G1 X148.107 Y68.063 E0.01873
G1 X148.569 Y68.442 E0.01873
G1 X148.911 Y68.932 E0.01873
G1 X149.122 Y69.576 E0.02123
G1 X149.538 Y72.773 E0.10109
G1 X149.532 Y111.026 E1.19939
G1 X140.209 Y140.946 E0.98261
G1 X139.980 Y141.446 E0.01726
G1 X139.664 Y141.843 E0.01589
G1 X139.266 Y142.157 E0.01589
G1 X138.806 Y142.370 E0.01589
G1 X138.314 Y142.472 E0.01578
G1 X128.312 Y142.480 E0.31361
G1 X102.469 Y141.353 E0.81105
G1 X101.927 Y141.254 E0.01726
G1 X101.430 Y141.026 E0.01714
G1 X101.003 Y140.679 E0.01726
G1 X100.678 Y140.239 E0.01714
G1 X100.472 Y139.733 E0.01714
G1 X100.398 Y139.191 E0.01714
G1 X100.398 Y73.493 E2.05990
G1 X100.475 Y72.958 E0.01697
G1 F8640
G1 X100.727 Y72.349 E-0.15218
G1 X101.038 Y71.958 E-0.11536
G1 X101.429 Y71.647 E-0.11536
G1 X101.880 Y71.433 E-0.11536
G1 X102.369 Y71.327 E-0.11536
G1 X103.000 Y71.276 E-0.14636
G1 E-0.04000 F2100.00000
G1 Z0.800 F10800.000
G1 X104.322 Y75.166
G1 Z0.200
G1 E0.80000 F2100.00000
G1 F1200
G1 X129.728 Y74.057 E0.79736
G1 X129.728 Y78.888 E0.15146
G1 X125.528 Y79.071 E0.13181
G1 X125.528 Y81.511 E0.07652
G1 X129.728 Y81.731 E0.13187
G1 X129.728 Y85.931 E0.13167
G1 X125.528 Y86.151 E0.13187
G1 X125.528 Y88.602 E0.07685
G1 X129.728 Y88.822 E0.13187
G1 X129.728 Y93.021 E0.13167
G1 X125.528 Y93.241 E0.13187
G1 X125.528 Y95.682 E0.07652
G1 X129.728 Y95.865 E0.13181
G1 X129.728 Y100.696 E0.15146
G1 X104.322 Y99.586 E0.79736
G1 X104.322 Y75.226 E0.76380
G1 X104.699 Y75.527 F10800.000
G1 F1200
G1 X129.351 Y74.451 E0.77369
G1 X129.351 Y78.527 E0.12780
G1 X125.151 Y78.710 E0.13181
G1 X125.151 Y81.869 E0.09905
G1 X129.351 Y82.089 E0.13187
G1 X129.351 Y85.573 E0.10923
G1 X125.151 Y85.793 E0.13187
G1 X125.151 Y88.960 E0.09929
G1 X129.351 Y89.180 E0.13187
G1 X129.351 Y92.663 E0.10923
G1 X125.151 Y92.883 E0.13187
G1 X125.151 Y96.043 E0.09905
G1 X129.351 Y96.226 E0.13181
G1 X129.351 Y100.302 E0.12780
G1 X104.699 Y99.225 E0.77369
G1 X104.699 Y75.587 E0.74117
G1 X105.076 Y75.888 F10800.000
G1 F1200
G1 X128.974 Y74.845 E0.75003
G1 X128.974 Y78.166 E0.10413
G1 X124.774 Y78.349 E0.13181
G1 X124.774 Y82.227 E0.12159
G1 X128.974 Y82.447 E0.13187
G1 X128.974 Y85.215 E0.08679
G1 X124.774 Y85.435 E0.13187
G1 X124.774 Y89.317 E0.12173
G1 X128.974 Y89.538 E0.13187
G1 X128.974 Y92.305 E0.08679
G1 X124.774 Y92.526 E0.13187
G1 X124.774 Y96.404 E0.12159
G1 X128.974 Y96.587 E0.13181
G1 X128.974 Y99.908 E0.10413
G1 X105.076 Y98.865 E0.75003
G1 X105.076 Y75.948 E0.71853
G1 X104.962 Y75.505 F10800.000
G1 F8640
G1 X108.364 Y75.796 E-0.76000
G1 E-0.04000 F2100.00000
G1 Z0.800 F10800.000
G1 X125.906 Y79.432
G1 Z0.200
G1 E0.80000 F2100.00000
G1 F1200
G1 X130.106 Y79.249 E0.13181
G1 X130.106 Y73.802 E0.17076
G1 X132.660 Y73.466 E0.08078
G1 X136.249 Y100.731 E0.86225
G1 X130.106 Y100.731 E0.19263
G1 X130.106 Y95.504 E0.16389
G1 X125.906 Y95.321 E0.13181
G1 X125.906 Y93.599 E0.05398
G1 X130.106 Y93.379 E0.13187
G1 X130.106 Y88.464 E0.15411
G1 X125.906 Y88.244 E0.13187
G1 X125.906 Y86.509 E0.05441
G1 X130.106 Y86.289 E0.13187
G1 X130.106 Y81.374 E0.15410
G1 X125.906 Y81.153 E0.13187
G1 X125.906 Y79.492 E0.05210
G1 F8640
G1 X129.191 Y79.302 E-0.76000
G1 E-0.04000 F2100.00000
G1 Z0.800 F10800.000
G1 X133.046 Y73.511
G1 Z0.200
G1 E0.80000 F2100.00000
G1 F1200
G1 X136.679 Y101.108 E0.87277
G1 X128.361 Y101.108 E0.26081
G1 X103.850 Y100.038 E0.76925
G1 X103.850 Y74.715 E0.79400
G1 X128.444 Y73.641 E0.77185
G1 X145.873 Y71.346 E0.55120
G1 X145.935 Y71.814 E0.01479
G1 X133.105 Y73.503 E0.40572
G1 X133.469 Y73.835 F10800.000
G1 F1200
G1 X137.109 Y101.485 E0.87443
G1 X128.353 Y101.485 E0.27455
G1 X103.473 Y100.399 E0.78083
G1 X103.473 Y74.354 E0.81663
G1 X128.411 Y73.265 E0.78265
G1 X146.198 Y70.923 E0.56251
G1 X146.358 Y72.138 E0.03844
G1 X133.529 Y73.827 E0.40572
G1 X133.892 Y74.160 F10800.000
G1 F1200
G1 X137.539 Y101.862 E0.87608
G1 X128.345 Y101.862 E0.28829
G1 X103.096 Y100.760 E0.79240
G1 X103.096 Y73.993 E0.83927
G1 X128.378 Y72.889 E0.79345
M73 Q1 S55
G1 X146.522 Y70.500 E0.57382
M73 P1 R55
G1 X146.781 Y72.463 E0.06208
G1 X133.952 Y74.152 E0.40572
G1 X133.499 Y74.232 F10800.000
G1 F8640
G1 X134.374 Y77.416 E-0.76000
G1 E-0.04000 F2100.00000
G1 Z0.800 F10800.000
G1 X132.678 Y74.475
G1 Z0.200
G1 E0.80000 F2100.00000
G1 F1200
G1 X132.037 Y73.833 E0.02855
G1 X131.564 Y73.896 E0.01502
G1 X132.563 Y74.894 E0.04445
G1 X132.644 Y75.511 E0.01957
G1 X131.091 Y73.958 E0.06912
G1 X130.618 Y74.020 E0.01502
G1 X132.725 Y76.127 E0.09379
G1 X132.806 Y76.744 E0.01957
G1 X130.388 Y74.326 E0.10762
G1 X130.388 Y74.861 E0.01685
G1 X132.887 Y77.360 E0.11123
G1 X132.968 Y77.977 E0.01957
G1 X130.388 Y75.397 E0.11485
G1 X130.388 Y75.932 E0.01685
G1 X133.050 Y78.593 E0.11846
G1 X133.131 Y79.210 E0.01957
G1 X130.388 Y76.467 E0.12207
G1 X130.388 Y77.003 E0.01685
G1 X133.212 Y79.826 E0.12569
G1 X133.293 Y80.443 E0.01957
G1 X130.388 Y77.538 E0.12930
G1 X130.388 Y78.073 E0.01685
G1 X133.374 Y81.059 E0.13291
G1 X133.455 Y81.676 E0.01957
G1 X130.388 Y78.609 E0.13652
G1 X130.388 Y79.144 E0.01685
G1 X133.537 Y82.292 E0.14014
G1 X133.618 Y82.909 E0.01957
G1 X130.235 Y79.526 E0.15058
G1 X129.722 Y79.548 E0.01616
G1 X133.699 Y83.525 E0.17703
G1 X133.780 Y84.142 E0.01957
G1 X129.209 Y79.571 E0.20347
G1 X128.696 Y79.593 E0.01616
G1 X133.861 Y84.758 E0.22992
G1 X133.942 Y85.375 E0.01957
G1 X130.388 Y81.821 E0.15820
G1 X130.388 Y82.356 E0.01685
G1 X134.024 Y85.991 E0.16182
G1 X134.105 Y86.608 E0.01957
G1 X130.388 Y82.891 E0.16543
G1 X130.388 Y83.427 E0.01685
G1 X134.186 Y87.224 E0.16904
G1 X134.267 Y87.841 E0.01957
G1 X130.388 Y83.962 E0.17265
G1 X130.388 Y84.498 E0.01685
G1 X134.348 Y88.457 E0.17627
G1 X134.429 Y89.074 E0.01957
G1 X130.388 Y85.033 E0.17988
G1 X130.388 Y85.568 E0.01685
G1 X134.511 Y89.690 E0.18349
G1 X134.592 Y90.307 E0.01957
G1 X130.388 Y86.104 E0.18711
G1 X130.388 Y86.557 E0.01427
G1 X130.310 Y86.561 E0.00245
G1 X134.673 Y90.923 E0.19419
G1 X134.754 Y91.540 E0.01957
G1 X129.802 Y86.588 E0.22044
G1 X129.293 Y86.614 E0.01603
G1 X134.835 Y92.156 E0.24670
G1 X134.916 Y92.773 E0.01957
G1 X128.784 Y86.641 E0.27296
G1 X128.276 Y86.668 E0.01603
G1 X129.771 Y88.163 E0.06658
G1 X129.206 Y88.134 E0.01781
G1 X127.767 Y86.694 E0.06407
G1 X127.258 Y86.721 E0.01603
G1 X128.642 Y88.104 E0.06157
G1 X128.077 Y88.075 E0.01781
G1 X126.750 Y86.748 E0.05907
G1 X126.241 Y86.774 E0.01603
G1 X127.512 Y88.045 E0.05656
G1 X126.947 Y88.015 E0.01781
G1 X126.188 Y87.257 E0.03376
G1 X126.188 Y87.792 E0.01685
G1 X126.561 Y88.165 E0.01659
G1 F8640
G1 X126.188 Y87.792 E-0.12171
G1 X126.188 Y87.257 E-0.12361
G1 X126.947 Y88.015 E-0.24763
G1 X127.512 Y88.045 E-0.13063
G1 X127.094 Y87.627 E-0.13642
G1 E-0.04000 F2100.00000
G1 Z0.800 F10800.000
G1 X126.678 Y95.241
G1 Z0.200
G1 E0.80000 F2100.00000
G1 F1200
G1 X126.188 Y94.752 E0.02179
G1 X126.188 Y94.216 E0.01685
G1 X127.060 Y95.088 E0.03880
G1 X127.620 Y95.112 E0.01764
G1 X126.365 Y93.858 E0.05583
G1 X126.874 Y93.832 E0.01603
G1 X128.180 Y95.137 E0.05811
G1 X128.739 Y95.161 E0.01764
G1 X127.383 Y93.805 E0.06038
G1 X127.892 Y93.778 E0.01603
G1 X129.299 Y95.186 E0.06266
G1 X129.859 Y95.210 E0.01764
G1 X128.400 Y93.752 E0.06493
G1 X128.909 Y93.725 E0.01603
G1 X135.632 Y100.448 E0.29929
G1 X135.927 Y100.448 E0.00927
G1 X135.890 Y100.171 E0.00880
G1 X129.418 Y93.698 E0.28813
G1 X129.926 Y93.672 E0.01603
G1 X135.809 Y99.554 E0.26187
G1 X135.728 Y98.938 E0.01957
G1 X130.388 Y93.598 E0.23769
G1 X130.388 Y93.063 E0.01685
G1 X135.647 Y98.321 E0.23407
G1 X135.566 Y97.705 E0.01957
G1 X130.388 Y92.528 E0.23046
G1 X130.388 Y91.992 E0.01685
G1 X135.484 Y97.088 E0.22685
G1 X135.403 Y96.472 E0.01957
G1 X130.388 Y91.457 E0.22324
G1 X130.388 Y90.922 E0.01685
G1 X135.322 Y95.855 E0.21962
G1 X135.241 Y95.239 E0.01957
G1 X130.388 Y90.386 E0.21601
G1 X130.388 Y89.851 E0.01685
G1 X135.160 Y94.622 E0.21240
G1 X135.079 Y94.006 E0.01957
G1 X130.388 Y89.316 E0.20878
G1 X130.388 Y88.780 E0.01685
G1 X135.195 Y93.586 E0.21394
G1 F8640
G1 X132.867 Y91.259 E-0.76000
G1 E-0.04000 F2100.00000
G1 Z0.800 F10800.000
G1 X135.267 Y100.618
G1 Z0.200
G1 E0.80000 F2100.00000
G1 F1200
G1 X130.388 Y95.740 E0.21715
G1 X130.388 Y96.275 E0.01685
G1 X134.562 Y100.448 E0.18577
G1 X134.026 Y100.448 E0.01685
G1 X130.388 Y96.810 E0.16194
G1 X130.388 Y97.346 E0.01685
G1 X133.491 Y100.448 E0.13811
G1 X132.956 Y100.448 E0.01685
G1 X130.388 Y97.881 E0.11428
G1 X130.388 Y98.416 E0.01685
G1 X132.420 Y100.448 E0.09045
G1 X131.885 Y100.448 E0.01685
G1 X130.388 Y98.952 E0.06662
G1 X130.388 Y99.487 E0.01685
G1 X131.350 Y100.448 E0.04279
G1 X130.814 Y100.448 E0.01685
G1 X130.219 Y99.853 E0.02651
G1 F8640
G1 X130.814 Y100.448 E-0.19448
G1 X131.350 Y100.448 E-0.12361
G1 X130.388 Y99.487 E-0.31388
G1 X130.388 Y98.952 E-0.12361
G1 X130.402 Y98.965 E-0.00442
G1 E-0.04000 F2100.00000
G1 Z0.800 F10800.000
G1 X129.404 Y100.895
G1 Z0.200
G1 E0.80000 F2100.00000
G1 F1200
G1 X128.366 Y100.872 E0.00818
G1 X104.131 Y99.814 E0.19119
G1 X104.094 Y99.805 E0.00031
G1 X104.086 Y99.767 E0.00031
G1 X104.094 Y74.948 E0.19562
G1 X128.466 Y73.876 E0.19228
G1 X128.950 Y73.833 E0.00541
G1 X129.433 Y73.791 E0.00699
G1 X129.917 Y73.749 E0.00858
G1 F8640
G1 X129.433 Y73.791 E-0.11208
G1 E-0.68792 F2100.00000
G1 Z0.800 F10800.000
G1 X132.828 Y73.301
G1 Z0.200
G1 E0.80000 F2100.00000
G1 F1200
G1 X145.717 Y71.605 E0.10227
G1 F8640
G1 X142.454 Y72.034 E-0.76000
G1 E-0.04000 F2100.00000
G1 Z0.800 F10800.000
G1 X129.813 Y81.245
G1 Z0.200
G1 E0.80000 F2100.00000
G1 F1200
G1 X128.183 Y79.616 E0.07253
G1 X127.670 Y79.638 E0.01616
G1 X129.068 Y81.036 E0.06224
G1 X128.503 Y81.006 E0.01781
G1 X127.157 Y79.660 E0.05992
G1 X126.644 Y79.683 E0.01616
G1 X127.938 Y80.977 E0.05761
G1 X127.373 Y80.947 E0.01781
G1 X126.188 Y79.762 E0.05275
G1 X126.188 Y80.298 E0.01685
G1 X126.808 Y80.918 E0.02760
G1 X126.244 Y80.888 E0.01781
G1 X126.019 Y80.663 E0.01001
G1 F8640
G1 X126.244 Y80.888 E-0.07343
G1 X126.808 Y80.918 E-0.13063
G1 X126.188 Y80.298 E-0.20250
G1 X126.188 Y79.762 E-0.12361
G1 X126.892 Y80.466 E-0.22983
G1 E-0.04000 F2100.00000
G1 Z0.800 F10800.000
G1 X129.728 Y111.976
G1 Z0.200
G1 E0.80000 F2100.00000
G1 F1200
G1 X129.728 Y116.807 E0.15146
G1 X125.528 Y116.990 E0.13181
G1 X125.528 Y119.431 E0.07652
G1 X129.728 Y119.651 E0.13187
G1 X129.728 Y123.850 E0.13167
G1 X125.528 Y124.070 E0.13187
G1 X125.528 Y126.521 E0.07685
G1 X129.728 Y126.741 E0.13187
G1 X129.728 Y130.940 E0.13167
G1 X125.528 Y131.161 E0.13187
G1 X125.528 Y133.601 E0.07652
G1 X129.728 Y133.784 E0.13181
G1 X129.728 Y138.615 E0.15146
G1 X104.322 Y137.506 E0.79736
G1 X104.322 Y113.085 E0.76568
G1 X129.669 Y111.979 E0.79548
G1 X129.351 Y112.370 F10800.000
G1 F1200
G1 X129.351 Y116.446 E0.12780
G1 X125.151 Y116.629 E0.13181
G1 X125.151 Y119.788 E0.09905
G1 X129.351 Y120.009 E0.13187
G1 X129.351 Y123.492 E0.10923
G1 X125.151 Y123.712 E0.13187
G1 X125.151 Y126.879 E0.09929
G1 X129.351 Y127.099 E0.13187
G1 X129.351 Y130.583 E0.10923
G1 X125.151 Y130.803 E0.13187
G1 X125.151 Y133.962 E0.09905
G1 X129.351 Y134.145 E0.13181
G1 X129.351 Y138.221 E0.12780
G1 X104.699 Y137.145 E0.77369
G1 X104.699 Y113.446 E0.74305
G1 X129.291 Y112.373 E0.77181
G1 X128.974 Y112.764 F10800.000
G1 F1200
G1 X128.974 Y116.085 E0.10413
G1 X124.774 Y116.268 E0.13181
G1 X124.774 Y120.146 E0.12159
G1 X128.974 Y120.366 E0.13187
G1 X128.974 Y123.134 E0.08679
G1 X124.774 Y123.354 E0.13187
G1 X124.774 Y127.237 E0.12173
G1 X128.974 Y127.457 E0.13187
G1 X128.974 Y130.225 E0.08679
G1 X124.774 Y130.445 E0.13187
G1 X124.774 Y134.323 E0.12159
G1 X128.974 Y134.506 E0.13181
G1 X128.974 Y137.827 E0.10413
G1 X105.076 Y136.784 E0.75003
G1 X105.076 Y113.807 E0.72041
G1 X128.914 Y112.767 E0.74814
G1 X129.361 Y112.660 F10800.000
G1 F8640
G1 X128.974 Y116.057 E-0.76000
G1 E-0.04000 F2100.00000
G1 Z0.800 F10800.000
G1 X130.106 Y133.423
G1 Z0.200
G1 E0.80000 F2100.00000
G1 F1200
G1 X125.906 Y133.240 E0.13181
G1 X125.906 Y131.518 E0.05398
G1 X130.106 Y131.298 E0.13187
G1 X130.106 Y126.383 E0.15411
G1 X125.906 Y126.163 E0.13187
G1 X125.906 Y124.428 E0.05441
G1 X130.106 Y124.208 E0.13187
G1 X130.106 Y119.293 E0.15410
G1 X125.906 Y119.073 E0.13187
G1 X125.906 Y117.351 E0.05398
G1 X130.106 Y117.168 E0.13181
G1 X130.106 Y111.722 E0.17076
G1 X132.660 Y111.385 E0.08078
G1 X136.249 Y138.650 E0.86225
G1 X130.106 Y138.650 E0.19263
G1 X130.106 Y133.483 E0.16201
G1 F8640
G1 X126.820 Y133.293 E-0.76000
G1 E-0.04000 F2100.00000
G1 Z0.800 F10800.000
G1 X133.046 Y111.430
G1 Z0.200
G1 E0.80000 F2100.00000
G1 F1200
G1 X136.679 Y139.027 E0.87277
G1 X128.361 Y139.027 E0.26081
G1 X103.850 Y137.957 E0.76925
G1 X103.850 Y112.634 E0.79400
G1 X128.444 Y111.560 E0.77185
G1 X145.873 Y109.265 E0.55120
G1 X145.935 Y109.733 E0.01479
G1 X133.105 Y111.422 E0.40572
G1 X133.469 Y111.755 F10800.000
G1 F1200
G1 X137.109 Y139.405 E0.87443
M73 Q3 S54
M73 P3 R54
G1 X128.353 Y139.405 E0.27455
G1 X103.473 Y138.318 E0.78083
G1 X103.473 Y112.273 E0.81663
G1 X128.411 Y111.184 E0.78265
G1 X146.198 Y108.842 E0.56251
G1 X146.358 Y110.058 E0.03844
G1 X133.529 Y111.747 E0.40572
G1 X133.892 Y112.079 F10800.000
G1 F1200
G1 X137.539 Y139.782 E0.87608
G1 X128.345 Y139.782 E0.28829
G1 X103.096 Y138.679 E0.79240
G1 X103.096 Y111.912 E0.83927
G1 X128.378 Y110.808 E0.79345
G1 X146.522 Y108.419 E0.57382
G1 X146.781 Y110.382 E0.06208
G1 X133.952 Y112.071 E0.40572
G1 X133.499 Y112.151 F10800.000
G1 F8640
G1 X134.374 Y115.336 E-0.76000
G1 E-0.04000 F2100.00000
G1 Z0.800 F10800.000
G1 X132.678 Y112.394
G1 Z0.200
G1 E0.80000 F2100.00000
G1 F1200
G1 X132.037 Y111.753 E0.02855
G1 X131.564 Y111.815 E0.01502
G1 X132.563 Y112.813 E0.04445
G1 X132.644 Y113.430 E0.01957
G1 X131.091 Y111.877 E0.06912
G1 X130.618 Y111.939 E0.01502
G1 X132.725 Y114.046 E0.09379
G1 X132.806 Y114.663 E0.01957
G1 X130.388 Y112.245 E0.10762
G1 X130.388 Y112.781 E0.01685
G1 X132.887 Y115.280 E0.11123
G1 X132.968 Y115.896 E0.01957
G1 X130.388 Y113.316 E0.11485
G1 X130.388 Y113.851 E0.01685
G1 X133.050 Y116.513 E0.11846
G1 X133.131 Y117.129 E0.01957
G1 X130.388 Y114.387 E0.12207
G1 X130.388 Y114.922 E0.01685
G1 X133.212 Y117.746 E0.12569
G1 X133.293 Y118.362 E0.01957
G1 X130.388 Y115.457 E0.12930
G1 X130.388 Y115.993 E0.01685
G1 X133.374 Y118.979 E0.13291
G1 X133.455 Y119.595 E0.01957
G1 X130.388 Y116.528 E0.13652
G1 X130.388 Y117.063 E0.01685
G1 X133.537 Y120.212 E0.14014
G1 X133.618 Y120.828 E0.01957
G1 X130.235 Y117.445 E0.15058
G1 X129.722 Y117.468 E0.01616
G1 X133.699 Y121.445 E0.17703
G1 X133.780 Y122.061 E0.01957
G1 X129.209 Y117.490 E0.20347
G1 X128.696 Y117.512 E0.01616
