; generated by Slic3r Prusa Edition 1.42.0-beta2+linux64 on 2019-06-18 at 12:15:53

; 

; external perimeters extrusion width = 0.45mm
; perimeters extrusion width = 0.45mm
; infill extrusion width = 0.45mm
; solid infill extrusion width = 0.45mm
; top infill extrusion width = 0.40mm
; first layer extrusion width = 0.42mm

M73 P0 R28
M73 Q0 S28
M201 X1000 Y1000 Z1000 E5000 ; sets maximum accelerations, mm/sec^2
M203 X200 Y200 Z12 E120 ; sets maximum feedrates, mm/sec
M204 P1250 R1250 T1250 ; sets acceleration (P, T) and retract acceleration (R), mm/sec^2
M205 X8.00 Y8.00 Z0.40 E1.50 ; sets the jerk limits, mm/sec
M205 S0 T0 ; sets the minimum extruding and travel feed rate, mm/sec
M107
M115 U3.6.0 ; tell printer latest fw version
M83  ; extruder relative mode
M104 S215 ; set extruder temp
M140 S60 ; set bed temp
M190 S60 ; wait for bed temp
M109 S215 ; wait for extruder temp
G28 W ; home all without mesh bed level
G80 ; mesh bed leveling
G1 Y-3.0 F1000.0 ; go outside print area
G92 E0.0
G1 X60.0 E9.0  F1000.0 ; intro line
M73 Q0 S28
M73 P0 R28
G1 X100.0 E12.5  F1000.0 ; intro line
G92 E0.0
M221 S95
M900 K30 ; Filament gcode
G21 ; set units to millimeters
G90 ; use absolute coordinates
M83 ; use relative distances for extrusion
;BEFORE_LAYER_CHANGE
G92 E0.0
;0.2


G1 E-0.80000 F2100.00000
G1 Z0.600 F10800.000
;AFTER_LAYER_CHANGE
;0.2
G1 X101.571 Y122.021
G1 Z0.200
G1 E0.80000 F2100.00000
M204 S1000
G1 F1200
G1 X100.870 Y121.417 E0.02900
G1 X100.547 Y120.810 E0.02157
G1 X100.428 Y120.133 E0.02157
G1 X100.428 Y92.325 E0.87189
G1 X100.492 Y91.830 E0.01567
G1 X100.665 Y91.365 E0.01555
G1 X100.938 Y90.951 E0.01555
G1 X101.297 Y90.609 E0.01555
G1 X101.832 Y90.311 E0.01919
G1 X102.424 Y90.174 E0.01908
G1 X146.995 Y86.589 E1.40199
G1 X147.615 Y86.680 E0.01964
G1 X148.181 Y86.940 E0.01953
G1 X148.650 Y87.350 E0.01953
G1 X148.987 Y87.878 E0.01964
G1 X149.154 Y88.436 E0.01828
G1 X149.555 Y91.481 E0.09628
G1 X149.526 Y92.197 E0.02247
G1 X140.232 Y121.901 E0.97587
G1 X139.931 Y122.495 E0.02089
G1 X139.469 Y122.970 E0.02078
G1 X138.889 Y123.283 E0.02066
G1 X138.238 Y123.409 E0.02078
G1 X128.276 Y123.409 E0.31235
G1 X102.459 Y122.281 E0.81025
G1 X101.629 Y122.038 E0.02712
G1 F8640
G1 X100.870 Y121.417 E-0.22626
G1 X100.547 Y120.810 E-0.15884
G1 X100.428 Y120.133 E-0.15884
G1 X100.428 Y119.197 E-0.21606
G1 E-0.04000 F2100.00000
G1 Z0.800 F10800.000
G1 X104.352 Y118.436
G1 Z0.200
G1 E0.80000 F2100.00000
G1 F1200
G1 X104.352 Y94.016 E0.76568
G1 X129.759 Y92.907 E0.79736
G1 X129.759 Y97.737 E0.15146
G1 X125.559 Y97.921 E0.13181
G1 X125.559 Y100.361 E0.07652
G1 X129.759 Y100.581 E0.13187
G1 X129.759 Y104.781 E0.13167
G1 X125.559 Y105.001 E0.13187
G1 X125.559 Y107.452 E0.07685
G1 X129.759 Y107.672 E0.13187
G1 X129.759 Y111.871 E0.13167
G1 X125.559 Y112.091 E0.13187
G1 X125.559 Y114.532 E0.07652
G1 X129.759 Y114.715 E0.13181
G1 X129.759 Y119.546 E0.15146
G1 X104.412 Y118.439 E0.79548
G1 X104.729 Y118.075 F10800.000
G1 F1200
G1 X104.729 Y94.377 E0.74305
G1 X129.382 Y93.301 E0.77369
G1 X129.382 Y97.377 E0.12780
G1 X125.182 Y97.560 E0.13181
G1 X125.182 Y100.719 E0.09905
G1 X129.382 Y100.939 E0.13187
G1 X129.382 Y104.423 E0.10923
G1 X125.182 Y104.643 E0.13187
G1 X125.182 Y107.810 E0.09929
G1 X129.382 Y108.030 E0.13187
G1 X129.382 Y111.513 E0.10923
G1 X125.182 Y111.733 E0.13187
G1 X125.182 Y114.893 E0.09905
G1 X129.382 Y115.076 E0.13181
G1 X129.382 Y119.152 E0.12780
G1 X104.789 Y118.078 E0.77181
G1 X105.107 Y117.714 F10800.000
G1 F1200
G1 X105.107 Y94.738 E0.72041
G1 X129.005 Y93.695 E0.75003
G1 X129.005 Y97.016 E0.10413
G1 X124.805 Y97.199 E0.13181
G1 X124.805 Y101.077 E0.12159
G1 X129.005 Y101.297 E0.13187
G1 X129.005 Y104.065 E0.08679
G1 X124.805 Y104.285 E0.13187
G1 X124.805 Y108.167 E0.12173
G1 X129.005 Y108.387 E0.13187
G1 X129.005 Y111.155 E0.08679
G1 X124.805 Y111.376 E0.13187
G1 X124.805 Y115.254 E0.12159
G1 X129.005 Y115.437 E0.13181
G1 X129.005 Y118.758 E0.10413
G1 X105.166 Y117.717 E0.74814
G1 X104.707 Y117.727 F10800.000
G1 F8640
G1 X105.158 Y114.426 E-0.76000
G1 E-0.04000 F2100.00000
G1 Z0.800 F10800.000
G1 X125.936 Y114.171
G1 Z0.200
G1 E0.80000 F2100.00000
G1 F1200
G1 X125.936 Y112.449 E0.05398
G1 X130.136 Y112.229 E0.13187
G1 X130.136 Y107.314 E0.15411
G1 X125.936 Y107.094 E0.13187
G1 X125.936 Y105.359 E0.05441
G1 X130.136 Y105.138 E0.13187
G1 X130.136 Y100.224 E0.15410
G1 X125.936 Y100.003 E0.13187
G1 X125.936 Y98.282 E0.05398
G1 X130.136 Y98.098 E0.13181
G1 X130.136 Y92.652 E0.17076
G1 X132.690 Y92.316 E0.08078
G1 X136.280 Y119.581 E0.86225
G1 X130.136 Y119.581 E0.19263
G1 X130.136 Y114.354 E0.16389
G1 X125.996 Y114.173 E0.12993
G1 F8640
G1 X125.936 Y112.449 E-0.39836
G1 X127.500 Y112.367 E-0.36164
G1 E-0.04000 F2100.00000
G1 Z0.800 F10800.000
G1 X133.076 Y92.361
G1 Z0.200
G1 E0.80000 F2100.00000
G1 F1200
G1 X136.710 Y119.958 E0.87277
G1 X128.391 Y119.958 E0.26081
G1 X103.881 Y118.888 E0.76925
G1 X103.881 Y93.565 E0.79400
G1 X128.474 Y92.491 E0.77185
G1 X145.904 Y90.196 E0.55120
G1 X145.965 Y90.664 E0.01479
G1 X133.136 Y92.353 E0.40572
G1 X133.499 Y92.685 F10800.000
G1 F1200
G1 X137.140 Y120.335 E0.87443
G1 X128.383 Y120.335 E0.27455
G1 X103.504 Y119.249 E0.78083
G1 X103.504 Y93.204 E0.81663
G1 X128.441 Y92.115 E0.78265
G1 X146.228 Y89.773 E0.56251
G1 X146.388 Y90.988 E0.03844
G1 X133.559 Y92.677 E0.40572
G1 X133.923 Y93.010 F10800.000
G1 F1200
G1 X137.570 Y120.712 E0.87608
G1 X128.375 Y120.712 E0.28829
G1 X103.127 Y119.610 E0.79240
G1 X103.127 Y92.843 E0.83927
G1 X128.408 Y91.739 E0.79345
G1 X146.553 Y89.350 E0.57382
G1 X146.811 Y91.313 E0.06208
G1 X133.982 Y93.002 E0.40572
G1 X133.529 Y93.082 F10800.000
G1 F8640
G1 X134.405 Y96.266 E-0.76000
G1 E-0.04000 F2100.00000
G1 Z0.800 F10800.000
G1 X132.709 Y93.325
G1 Z0.200
G1 E0.80000 F2100.00000
G1 F1200
G1 X132.067 Y92.683 E0.02855
G1 X131.594 Y92.746 E0.01502
G1 X132.593 Y93.744 E0.04445
G1 X132.674 Y94.361 E0.01957
G1 X131.121 Y92.808 E0.06912
G1 X130.648 Y92.870 E0.01502
G1 X132.755 Y94.977 E0.09379
G1 X132.836 Y95.594 E0.01957
G1 X130.419 Y93.176 E0.10762
G1 X130.419 Y93.711 E0.01685
G1 X132.918 Y96.210 E0.11123
G1 X132.999 Y96.827 E0.01957
M73 Q3 S27
G1 X130.419 Y94.247 E0.11485
G1 X130.419 Y94.782 E0.01685
G1 X133.080 Y97.443 E0.11846
G1 X133.161 Y98.060 E0.01957
G1 X130.419 Y95.317 E0.12207
M73 P3 R27
G1 X130.419 Y95.853 E0.01685
G1 X133.242 Y98.676 E0.12569
G1 X133.323 Y99.293 E0.01957
G1 X130.419 Y96.388 E0.12930
G1 X130.419 Y96.923 E0.01685
G1 X133.405 Y99.909 E0.13291
G1 X133.486 Y100.526 E0.01957
G1 X130.419 Y97.459 E0.13652
G1 X130.419 Y97.994 E0.01685
G1 X133.567 Y101.142 E0.14014
G1 X133.648 Y101.759 E0.01957
G1 X130.265 Y98.376 E0.15058
G1 X129.752 Y98.398 E0.01616
G1 X133.729 Y102.375 E0.17703
G1 X133.810 Y102.992 E0.01957
G1 X129.239 Y98.421 E0.20347
G1 X128.726 Y98.443 E0.01616
G1 X133.892 Y103.608 E0.22992
G1 X133.973 Y104.225 E0.01957
G1 X130.419 Y100.671 E0.15820
G1 X130.419 Y101.206 E0.01685
G1 X134.054 Y104.841 E0.16182
G1 X134.135 Y105.458 E0.01957
G1 X130.419 Y101.741 E0.16543
G1 X130.419 Y102.277 E0.01685
G1 X134.216 Y106.074 E0.16904
G1 X134.297 Y106.691 E0.01957
G1 X130.419 Y102.812 E0.17265
G1 X130.419 Y103.347 E0.01685
G1 X134.379 Y107.307 E0.17627
G1 X134.460 Y107.924 E0.01957
G1 X130.419 Y103.883 E0.17988
G1 X130.419 Y104.418 E0.01685
G1 X134.541 Y108.540 E0.18349
G1 X134.622 Y109.157 E0.01957
G1 X130.419 Y104.953 E0.18711
G1 X130.419 Y105.407 E0.01427
G1 X130.341 Y105.411 E0.00245
G1 X134.703 Y109.773 E0.19419
G1 X134.784 Y110.390 E0.01957
G1 X129.832 Y105.438 E0.22044
G1 X129.323 Y105.464 E0.01603
G1 X134.866 Y111.006 E0.24670
G1 X134.947 Y111.623 E0.01957
G1 X128.815 Y105.491 E0.27296
G1 X128.306 Y105.518 E0.01603
G1 X129.802 Y107.013 E0.06658
G1 X129.237 Y106.984 E0.01781
G1 X127.797 Y105.544 E0.06407
G1 X127.289 Y105.571 E0.01603
G1 X128.672 Y106.954 E0.06157
G1 X128.107 Y106.924 E0.01781
G1 X126.780 Y105.598 E0.05907
G1 X126.271 Y105.624 E0.01603
G1 X127.542 Y106.895 E0.05656
G1 X126.977 Y106.865 E0.01781
G1 X126.219 Y106.107 E0.03376
G1 X126.219 Y106.642 E0.01685
G1 X126.591 Y107.015 E0.01659
G1 F8640
G1 X126.219 Y106.642 E-0.12171
G1 X126.219 Y106.107 E-0.12361
G1 X126.977 Y106.865 E-0.24763
G1 X127.542 Y106.895 E-0.13063
G1 X127.124 Y106.477 E-0.13642
G1 E-0.04000 F2100.00000
G1 Z0.800 F10800.000
G1 X126.708 Y114.091
G1 Z0.200
G1 E0.80000 F2100.00000
G1 F1200
G1 X126.219 Y113.602 E0.02179
G1 X126.219 Y113.066 E0.01685
G1 X127.090 Y113.938 E0.03880
G1 X127.650 Y113.962 E0.01764
G1 X126.396 Y112.708 E0.05583
G1 X126.905 Y112.681 E0.01603
G1 X128.210 Y113.987 E0.05811
G1 X128.770 Y114.011 E0.01764
G1 X127.413 Y112.655 E0.06038
G1 X127.922 Y112.628 E0.01603
G1 X129.329 Y114.036 E0.06266
G1 X129.889 Y114.060 E0.01764
G1 X128.431 Y112.601 E0.06493
G1 X128.939 Y112.575 E0.01603
G1 X135.663 Y119.298 E0.29929
G1 X135.957 Y119.298 E0.00927
G1 X135.921 Y119.021 E0.00880
G1 X129.448 Y112.548 E0.28813
G1 X129.957 Y112.521 E0.01603
G1 X135.840 Y118.404 E0.26187
G1 X135.758 Y117.788 E0.01957
G1 X130.419 Y112.448 E0.23769
G1 X130.419 Y111.913 E0.01685
G1 X135.677 Y117.171 E0.23407
G1 X135.596 Y116.555 E0.01957
G1 X130.419 Y111.378 E0.23046
G1 X130.419 Y110.842 E0.01685
G1 X135.515 Y115.938 E0.22685
G1 X135.434 Y115.322 E0.01957
G1 X130.419 Y110.307 E0.22324
G1 X130.419 Y109.772 E0.01685
G1 X135.353 Y114.705 E0.21962
G1 X135.271 Y114.089 E0.01957
G1 X130.419 Y109.236 E0.21601
G1 X130.419 Y108.701 E0.01685
G1 X135.190 Y113.472 E0.21240
G1 X135.109 Y112.856 E0.01957
G1 X130.419 Y108.166 E0.20878
G1 X130.419 Y107.630 E0.01685
G1 X135.225 Y112.436 E0.21394
G1 F8640
G1 X132.898 Y110.109 E-0.76000
G1 E-0.04000 F2100.00000
G1 Z0.800 F10800.000
G1 X135.297 Y119.468
G1 Z0.200
G1 E0.80000 F2100.00000
G1 F1200
G1 X130.419 Y114.590 E0.21715
G1 X130.419 Y115.125 E0.01685
G1 X134.592 Y119.298 E0.18577
G1 X134.057 Y119.298 E0.01685
G1 X130.419 Y115.660 E0.16194
G1 X130.419 Y116.196 E0.01685
G1 X133.521 Y119.298 E0.13811
G1 X132.986 Y119.298 E0.01685
G1 X130.419 Y116.731 E0.11428
G1 X130.419 Y117.266 E0.01685
G1 X132.451 Y119.298 E0.09045
G1 X131.915 Y119.298 E0.01685
G1 X130.419 Y117.802 E0.06662
G1 X130.419 Y118.337 E0.01685
G1 X131.380 Y119.298 E0.04279
G1 X130.845 Y119.298 E0.01685
G1 X130.249 Y118.703 E0.02651
G1 F8640
G1 X130.845 Y119.298 E-0.19448
G1 X131.380 Y119.298 E-0.12361
G1 X130.419 Y118.337 E-0.31388
G1 X130.419 Y117.802 E-0.12361
G1 X130.432 Y117.815 E-0.00442
G1 E-0.04000 F2100.00000
G1 Z0.800 F10800.000
G1 X129.435 Y119.745
G1 Z0.200
G1 E0.80000 F2100.00000
G1 F1200
G1 X128.397 Y119.722 E0.00818
G1 X104.162 Y118.664 E0.19119
G1 X104.124 Y118.655 E0.00031
G1 X104.117 Y118.617 E0.00031
G1 X104.124 Y93.798 E0.19562
G1 X128.497 Y92.726 E0.19228
G1 X128.980 Y92.683 E0.00541
G1 X129.464 Y92.641 E0.00699
G1 X129.947 Y92.599 E0.00858
G1 F8640
G1 X129.464 Y92.641 E-0.11208
G1 E-0.68792 F2100.00000
G1 Z0.800 F10800.000
G1 X132.859 Y92.151
G1 Z0.200
G1 E0.80000 F2100.00000
G1 F1200
G1 X145.747 Y90.455 E0.10227
G1 F8640
G1 X142.484 Y90.884 E-0.76000
G1 E-0.04000 F2100.00000
G1 Z0.800 F10800.000
G1 X129.843 Y100.095
G1 Z0.200
G1 E0.80000 F2100.00000
G1 F1200
G1 X128.213 Y98.465 E0.07253
G1 X127.701 Y98.488 E0.01616
G1 X129.099 Y99.886 E0.06224
G1 X128.534 Y99.856 E0.01781
G1 X127.188 Y98.510 E0.05992
G1 X126.675 Y98.533 E0.01616
G1 X127.969 Y99.827 E0.05761
G1 X127.404 Y99.797 E0.01781
G1 X126.219 Y98.612 E0.05275
G1 X126.219 Y99.147 E0.01685
G1 X126.839 Y99.768 E0.02760
G1 X126.274 Y99.738 E0.01781
G1 X126.049 Y99.513 E0.01001
M106 S255
;BEFORE_LAYER_CHANGE
G92 E0.0
;0.4


G1 F8640
G1 X126.274 Y99.738 E-0.07343
G1 X126.839 Y99.768 E-0.13063
G1 X126.219 Y99.147 E-0.20250
G1 X126.219 Y98.612 E-0.12361
G1 X126.923 Y99.316 E-0.22983
G1 E-0.04000 F2100.00000
G1 Z0.800 F10800.000
;AFTER_LAYER_CHANGE
;0.4
G1 X101.571 Y122.021
G1 Z0.400
G1 E0.80000 F2100.00000
G1 F3000
G1 X100.870 Y121.417 E0.02900
G1 X100.547 Y120.810 E0.02157
G1 X100.428 Y120.133 E0.02157
G1 X100.428 Y92.325 E0.87189
G1 X100.492 Y91.830 E0.01567
G1 X100.665 Y91.365 E0.01555
G1 X100.938 Y90.951 E0.01555
G1 X101.297 Y90.609 E0.01555
G1 X101.832 Y90.311 E0.01919
G1 X102.424 Y90.174 E0.01908
G1 X146.995 Y86.589 E1.40199
G1 X147.615 Y86.680 E0.01964
G1 X148.181 Y86.940 E0.01953
G1 X148.650 Y87.350 E0.01953
G1 X148.987 Y87.878 E0.01964
G1 X149.154 Y88.436 E0.01828
G1 X149.555 Y91.481 E0.09628
G1 X149.526 Y92.197 E0.02247
G1 X140.232 Y121.901 E0.97587
G1 X139.931 Y122.495 E0.02089
G1 X139.469 Y122.970 E0.02078
G1 X138.889 Y123.283 E0.02066
G1 X138.238 Y123.409 E0.02078
G1 X128.276 Y123.409 E0.31235
G1 X102.459 Y122.281 E0.81025
G1 X101.629 Y122.038 E0.02712
G1 F8640
G1 X100.870 Y121.417 E-0.22626
G1 X100.547 Y120.810 E-0.15884
G1 X100.428 Y120.133 E-0.15884
G1 X100.428 Y119.197 E-0.21606
G1 E-0.04000 F2100.00000
G1 Z1.000 F10800.000
G1 X104.477 Y118.317
G1 Z0.400
G1 E0.80000 F2100.00000
M204 S800
G1 F3600
G1 X104.477 Y94.136 E0.81850
G1 X129.634 Y93.037 E0.85233
G1 X129.634 Y97.618 E0.15504
G1 X125.434 Y97.801 E0.14230
G1 X125.434 Y100.480 E0.09067
G1 X129.634 Y100.700 E0.14236
G1 X129.634 Y104.662 E0.13411
G1 X125.434 Y104.882 E0.14236
G1 X125.434 Y107.570 E0.09099
G1 X129.634 Y107.790 E0.14236
G1 X129.634 Y111.752 E0.13411
G1 X125.434 Y111.973 E0.14236
G1 X125.434 Y114.651 E0.09067
G1 X129.634 Y114.835 E0.14230
G1 X129.634 Y119.415 E0.15504
G1 X104.537 Y118.319 E0.85030
M204 S1000
G1 X104.884 Y117.927 F10800.000
M204 S800
G1 F3600
G1 X104.884 Y94.525 E0.79212
G1 X129.227 Y93.463 E0.82474
G1 X129.227 Y97.228 E0.12746
G1 X125.027 Y97.412 E0.14230
G1 X125.027 Y100.866 E0.11694
G1 X129.227 Y101.086 E0.14236
G1 X129.227 Y104.276 E0.10796
G1 X125.027 Y104.496 E0.14236
G1 X125.027 Y107.957 E0.11714
G1 X129.227 Y108.177 E0.14236
G1 X129.227 Y111.366 E0.10796
G1 X125.027 Y111.586 E0.14236
G1 X125.027 Y115.041 E0.11694
G1 X129.227 Y115.224 E0.14230
G1 X129.227 Y118.990 E0.12746
G1 X104.944 Y117.930 E0.82271
M204 S1000
G1 X105.292 Y117.537 F10800.000
M204 S800
G1 F2100
G1 X105.292 Y94.915 E0.76574
G1 X128.820 Y93.888 E0.79716
G1 X128.820 Y96.838 E0.09987
G1 X124.620 Y97.022 E0.14230
G1 X124.620 Y101.252 E0.14320
G1 X128.820 Y101.473 E0.14236
G1 X128.820 Y103.889 E0.08181
G1 X124.620 Y104.110 E0.14236
G1 X124.620 Y108.343 E0.14329
G1 X128.820 Y108.563 E0.14236
G1 X128.820 Y110.980 E0.08181
G1 X124.620 Y111.200 E0.14236
G1 X124.620 Y115.431 E0.14320
G1 X128.820 Y115.614 E0.14230
G1 X128.820 Y118.565 E0.09987
G1 X105.351 Y117.540 E0.79513
M204 S1000
G1 X104.892 Y117.548 F10800.000
G1 F8640
G1 X105.343 Y114.249 E-0.76000
G1 E-0.04000 F2100.00000
G1 Z1.000 F10800.000
G1 X125.841 Y114.262
G1 Z0.400
G1 E0.80000 F2100.00000
M204 S800
G1 F3600
G1 X125.841 Y112.359 E0.06440
G1 X130.041 Y112.139 E0.14236
G1 X130.041 Y107.404 E0.16026
G1 X125.841 Y107.184 E0.14236
G1 X125.841 Y105.268 E0.06484
G1 X130.041 Y105.048 E0.14236
G1 X130.041 Y100.314 E0.16026
G1 X125.841 Y100.094 E0.14236
G1 X125.841 Y98.191 E0.06440
G1 X130.041 Y98.008 E0.14230
G1 X130.041 Y92.612 E0.18263
G1 X129.551 Y92.634 E0.01661
G1 X132.772 Y92.209 E0.10998
G1 X136.388 Y119.676 E0.93773
G1 X130.041 Y119.676 E0.21484
G1 X130.041 Y114.445 E0.17707
G1 X125.901 Y114.264 E0.14027
M204 S1000
G1 F8640
G1 X125.841 Y112.359 E-0.44015
G1 X127.224 Y112.286 E-0.31985
G1 E-0.04000 F2100.00000
G1 Z1.000 F10800.000
G1 X133.217 Y92.468
G1 Z0.400
G1 E0.80000 F2100.00000
M204 S800
G1 F3600
G1 X136.852 Y120.083 E0.94280
G1 X128.389 Y120.083 E0.28648
G1 X103.756 Y119.008 E0.83459
G1 X103.756 Y93.445 E0.86527
G1 X128.463 Y92.366 E0.83712
G1 X146.011 Y90.056 E0.59910
G1 X146.105 Y90.771 E0.02443
G1 X133.276 Y92.460 E0.43800
M204 S1000
G1 X133.673 Y92.819 F10800.000
M204 S800
G1 F3600
G1 X137.316 Y120.490 E0.94473
G1 X128.380 Y120.490 E0.30249
G1 X103.349 Y119.397 E0.84808
G1 X103.349 Y93.055 E0.89165
G1 X128.428 Y91.960 E0.84971
G1 X146.362 Y89.599 E0.61228
G1 X146.562 Y91.122 E0.05199
G1 X133.733 Y92.811 E0.43800
M204 S1000
G1 X134.130 Y93.169 F10800.000
M204 S800
G1 F2100
G1 X137.781 Y120.897 E0.94666
G1 X128.371 Y120.897 E0.31850
G1 X102.942 Y119.787 E0.86158
G1 X102.942 Y92.665 E0.91803
G1 X128.392 Y91.554 E0.86230
G1 X146.712 Y89.142 E0.62546
