; generated by SuperSlicer 2.3.55 on 2021-06-15 at 10:57:04 UTC

; 

; external perimeters extrusion width = 0.45mm
; perimeters extrusion width = 0.45mm
; infill extrusion width = 0.45mm
; solid infill extrusion width = 0.45mm
; top infill extrusion width = 0.40mm
; first layer extrusion width = 0.42mm

; object:{"name":"APmount","id":"APmount.STL id:0 copy 0","object_center":[125.000000,105.000000,0.000000],"boundingbox_center":[125.000000,105.000000,30.000000],"boundingbox_size":[54.000000,38.000000,60.000000]}
; Total objects to print: 1
M486 T1
; plater:{"center":[125.000000,105.000000,0.000000],"boundingbox_center":[125.000000,105.000000,30.000000],"boundingbox_size":[54.000000,38.000000,60.000000]}

M73 P0 R101
M73 Q0 S102
;TYPE:Custom
M862.3 P "MK3S" ; printer model check
M862.1 P0.4 ; nozzle diameter check
M115 U3.9.2 ; tell printer latest fw version
G90 ; use absolute coordinates
M83 ; extruder relative mode
M104 S215 ; set extruder temp
M140 S60 ; set bed temp
M190 S60 ; wait for bed temp
M109 S215 ; wait for extruder temp
G28 W ; home all without mesh bed level
G80 ; mesh bed leveling
G1 Y-3.0 F1000.0 ; go outside print area
G92 E0.0
G1 X60.0 E9.0 F1000.0 ; intro line
G1 X100.0 E12.5 F1000.0 ; intro line
G92 E0.0
M221 S95

; Don't change E values below. Excessive value can damage the printer.

M107
G21 ; set units to millimeters
G90 ; use absolute coordinates
M83 ; use relative distances for extrusion
M900 K0.05 ; Filament gcode LA 1.5
M900 K30 ; Filament gcode LA 1.0
;LAYER_CHANGE
;Z:0.2
;HEIGHT:0.2
;BEFORE_LAYER_CHANGE
;0.2


G1 E-0.80000 F2100.000
G1 Z0.400000 F10800.000
;AFTER_LAYER_CHANGE
;0.2
G1 X93.618 Y82.271
G1 Z0.200000
G1 E0.80000 F2100.000
;TYPE:Skirt
;WIDTH:0.42
G1 F1200.000
M204 P1000
G1 X94.387 Y81.515 E0.03382
G1 X95.287 Y80.808 E0.03589
G1 X96.198 Y80.243 E0.03360
G1 X97.320 Y79.714 E0.03891
G1 X98.390 Y79.358 E0.03535
G1 X99.478 Y79.128 E0.03486
G1 X100.823 Y79.015 E0.04231
G1 X125.153 Y79.015 E0.76287
G1 X127.017 Y79.217 E0.05878
G1 X128.775 Y79.753 E0.05762
G1 X130.480 Y80.649 E0.06039
G1 X131.998 Y81.878 E0.06125
G1 X157.753 Y112.171 E1.24669
G1 X158.272 Y113.071 E0.03258
G1 X158.657 Y114.043 E0.03279
G1 X158.898 Y115.061 E0.03279
G1 X158.988 Y116.103 E0.03279
G1 X158.959 Y124.448 E0.26167
G1 X158.632 Y126.034 E0.05078
G1 X157.959 Y127.507 E0.05078
G1 X157.456 Y128.237 E0.02781
G1 X156.861 Y128.905 E0.02802
G1 X156.189 Y129.493 E0.02802
G1 X155.454 Y129.990 E0.02781
G1 X154.664 Y130.393 E0.02781
G1 X153.830 Y130.696 E0.02781
G1 X152.959 Y130.895 E0.02802
G1 X152.076 Y130.983 E0.02781
G1 X98.074 Y130.987 E1.69320
G1 X97.131 Y130.909 E0.02968
G1 X96.213 Y130.708 E0.02947
G1 X95.328 Y130.390 E0.02947
G1 X94.493 Y129.959 E0.02947
G1 X93.768 Y129.460 E0.02760
G1 X93.109 Y128.875 E0.02760
G1 X92.523 Y128.210 E0.02781
G1 X92.026 Y127.483 E0.02760
G1 X91.620 Y126.694 E0.02781
G1 X91.315 Y125.868 E0.02760
G1 X91.114 Y125.011 E0.02760
G1 X91.019 Y124.136 E0.02760
G1 X91.015 Y88.764 E1.10905
G1 X91.132 Y87.454 E0.04123
G1 X91.416 Y86.194 E0.04051
G1 X91.897 Y84.899 E0.04333
G1 X92.347 Y84.021 E0.03092
G1 X92.918 Y83.130 E0.03318
G1 X93.580 Y82.318 E0.03285
;WIPE_START
G1 F8640.000
G1 X94.387 Y81.515 E-0.26282
G1 X95.287 Y80.808 E-0.26433
G1 X96.144 Y80.276 E-0.23285
;WIPE_END
G1 E-0.04000 F2100.000
G1 Z1.000000 F10800.000
G1 X95.800 Y82.579
G1 Z0.200000
G1 E0.80000 F2100.000
G1 F1200.000
G1 X95.313 Y83.001 E0.02019
G1 X94.353 Y84.084 E0.04538
G1 X93.765 Y85.005 E0.03426
G1 X93.284 Y86.049 E0.03605
;WIPE_START
G1 F8640.000
G1 X93.765 Y85.005 E-0.26548
G1 X94.353 Y84.084 E-0.25233
G1 X95.049 Y83.299 E-0.24219
;WIPE_END
G1 E-0.04000 F2100.000
G1 Z0.600000 F10800.000
G1 X93.187 Y87.927
G1 Z0.200000
G1 E0.80000 F2100.000
G1 F1200.000
G1 X93.277 Y87.404 E0.01664
G1 X93.614 Y86.236 E0.03811
G1 X94.092 Y85.191 E0.03603
G1 X94.656 Y84.309 E0.03284
G1 X95.595 Y83.253 E0.04429
G1 X96.261 Y82.692 E0.02730
G1 X96.900 Y82.260 E0.02418
G1 X97.627 Y81.877 E0.02576
;WIPE_START
G1 F8640.000
G1 X96.900 Y82.260 E-0.18968
G1 X96.261 Y82.692 E-0.17808
G1 X95.595 Y83.253 E-0.20107
G1 X95.045 Y83.872 E-0.19117
;WIPE_END
G1 E-0.04000 F2100.000
G1 Z0.600000 F10800.000
G1 X99.001 Y81.766
G1 Z0.200000
G1 E0.80000 F2100.000
G1 F1200.000
G1 X98.441 Y81.937 E0.01833
G1 X97.452 Y82.380 E0.03400
G1 X96.508 Y82.978 E0.03502
G1 X95.858 Y83.524 E0.02662
G1 X94.989 Y84.494 E0.04084
G1 X94.249 Y85.703 E0.04445
G1 X93.836 Y86.738 E0.03494
G1 X93.585 Y87.791 E0.03392
G1 X93.489 Y89.257 E0.04608
G1 X93.866 Y90.166 F10800.000
G1 F1200.000
G1 X93.916 Y88.164 E0.06281
G1 X94.196 Y86.850 E0.04211
G1 X94.590 Y85.866 E0.03325
G1 X95.290 Y84.720 E0.04210
G1 X96.146 Y83.769 E0.04013
G1 X96.759 Y83.261 E0.02494
G1 X97.388 Y82.845 E0.02366
G1 X98.267 Y82.410 E0.03074
G1 X98.966 Y82.161 E0.02328
G1 X100.174 Y81.921 E0.03860
G1 X100.967 Y82.245 F10800.000
G1 F1200.000
G1 X99.846 Y82.341 E0.03527
G1 X99.104 Y82.513 E0.02391
G1 X98.438 Y82.747 E0.02212
G1 X97.607 Y83.154 E0.02903
G1 X96.999 Y83.552 E0.02277
G1 X96.420 Y84.030 E0.02355
G1 X95.604 Y84.931 E0.03810
G1 X94.942 Y86.003 E0.03951
G1 X94.556 Y86.963 E0.03244
G1 X94.330 Y87.910 E0.03053
G1 X94.242 Y88.891 E0.03089
G1 X94.242 Y90.657 E0.05537
G1 X94.619 Y91.148 E0.01941
G1 X94.619 Y88.901 E0.07045
G1 X94.702 Y87.969 E0.02934
G1 X94.916 Y87.075 E0.02883
G1 X95.281 Y86.168 E0.03067
G1 X95.725 Y85.412 E0.02748
G1 X96.200 Y84.795 E0.02442
G1 X96.677 Y84.305 E0.02145
G1 X97.223 Y83.856 E0.02215
G1 X97.796 Y83.480 E0.02150
G1 X98.586 Y83.093 E0.02758
G1 X99.215 Y82.874 E0.02090
G1 X100.507 Y82.638 E0.04117
G1 X101.725 Y82.622 E0.03818
G1 X102.216 Y82.999 E0.01942
G1 X100.836 Y82.999 E0.04329
G1 X99.997 Y83.080 E0.02640
G1 X99.328 Y83.233 E0.02152
G1 X98.735 Y83.440 E0.01971
G1 X97.987 Y83.805 E0.02609
G1 X97.446 Y84.159 E0.02027
G1 X96.495 Y85.030 E0.04043
G1 X96.042 Y85.615 E0.02320
G1 X95.620 Y86.333 E0.02610
G1 X95.276 Y87.187 E0.02890
G1 X95.074 Y88.028 E0.02712
G1 X94.996 Y88.913 E0.02783
G1 X94.996 Y91.512 E0.08151
G1 X95.373 Y91.801 E0.01488
G1 X95.373 Y88.941 E0.08968
G1 X95.447 Y88.089 E0.02680
G1 X95.637 Y87.294 E0.02563
G1 X95.960 Y86.496 E0.02700
G1 X96.377 Y85.793 E0.02563
G1 X96.781 Y85.276 E0.02058
G1 X97.671 Y84.462 E0.03781
G1 X98.189 Y84.125 E0.01937
G1 X98.885 Y83.786 E0.02426
G1 X99.451 Y83.590 E0.01879
G1 X100.609 Y83.386 E0.03688
G1 X102.716 Y83.385 E0.06606
G1 X103.003 Y83.759 E0.01478
G1 X100.666 Y83.760 E0.07328
G1 X99.560 Y83.951 E0.03519
G1 X99.033 Y84.133 E0.01749
G1 X98.377 Y84.451 E0.02285
G1 X97.895 Y84.766 E0.01806
G1 X97.075 Y85.512 E0.03476
G1 X96.698 Y85.991 E0.01909
G1 X96.299 Y86.661 E0.02446
G1 X95.996 Y87.409 E0.02531
G1 X95.819 Y88.149 E0.02385
G1 X95.750 Y88.949 E0.02517
G1 X95.750 Y92.090 E0.09851
G1 X96.127 Y92.308 E0.01365
G1 X96.127 Y88.957 E0.10508
G1 X96.191 Y88.209 E0.02353
G1 X96.355 Y87.524 E0.02207
G1 X96.638 Y86.826 E0.02362
G1 X97.012 Y86.199 E0.02287
G1 X97.358 Y85.761 E0.01751
G1 X98.152 Y85.045 E0.03352
G1 X98.608 Y84.754 E0.01696
G1 X99.195 Y84.473 E0.02039
G1 X100.210 Y84.191 E0.03302
G1 X100.697 Y84.136 E0.01537
G1 X103.292 Y84.135 E0.08137
G1 X103.580 Y84.511 E0.01485
G1 X100.731 Y84.512 E0.08934
G1 X99.798 Y84.667 E0.02967
G1 X98.792 Y85.083 E0.03412
G1 X98.374 Y85.350 E0.01556
G1 X97.977 Y85.671 E0.01600
G1 X97.331 Y86.401 E0.03055
G1 X96.980 Y86.986 E0.02139
G1 X96.715 Y87.638 E0.02207
G1 X96.564 Y88.268 E0.02033
G1 X96.504 Y88.966 E0.02195
G1 X96.504 Y92.464 E0.10968
G1 X96.880 Y92.620 E0.01278
G1 X96.880 Y88.996 E0.11363
G1 X96.927 Y88.383 E0.01927
G1 X97.074 Y87.754 E0.02027
G1 X97.317 Y87.155 E0.02027
G1 X97.925 Y86.259 E0.03393
G1 X98.594 Y85.656 E0.02823
G1 X98.976 Y85.413 E0.01420
G1 X99.483 Y85.170 E0.01764
G1 X100.335 Y84.935 E0.02770
G1 X100.763 Y84.887 E0.01352
G1 X103.747 Y84.887 E0.09355
G1 X103.903 Y85.263 E0.01278
G1 X100.787 Y85.264 E0.09770
G1 X100.010 Y85.391 E0.02469
G1 X99.158 Y85.742 E0.02888
G1 X98.509 Y86.207 E0.02505
G1 X98.207 Y86.509 E0.01336
G1 X97.654 Y87.324 E0.03090
G1 X97.433 Y87.868 E0.01841
G1 X97.300 Y88.440 E0.01842
G1 X97.257 Y88.997 E0.01751
G1 X97.257 Y92.776 E0.11850
G1 X97.634 Y92.832 E0.01195
G1 X97.673 Y88.496 E0.13598
G1 X97.793 Y87.981 E0.01656
G1 X97.992 Y87.492 E0.01656
G1 X98.489 Y86.759 E0.02778
G1 X98.759 Y86.489 E0.01197
G1 X99.340 Y86.073 E0.02240
G1 X99.770 Y85.868 E0.01494
G1 X100.488 Y85.674 E0.02333
G1 X104.058 Y85.639 E0.11194
G1 X104.181 Y86.016 E0.01244
G1 X100.523 Y86.050 E0.11472
G1 X99.915 Y86.216 E0.01974
G1 X99.519 Y86.405 E0.01378
G1 X98.786 Y86.993 E0.02947
G1 X98.344 Y87.630 E0.02430
G1 X98.163 Y88.063 E0.01470
G1 X98.051 Y88.518 E0.01470
G1 X98.011 Y89.003 E0.01525
G1 X98.011 Y92.882 E0.12163
;WIPE_START
G1 F8640.000
G1 X98.011 Y89.590 E-0.76000
;WIPE_END
G1 E-0.04000 F2100.000
G1 Z0.600000 F10800.000
G1 X122.254 Y96.331
G1 Z0.200000
G1 E0.80000 F2100.000
G1 F1200.000
G1 X122.840 Y96.368 E0.01842
G1 X123.546 Y96.522 E0.02266
G1 X124.221 Y96.783 E0.02269
G1 X124.956 Y97.175 E0.02609
G1 X125.452 Y97.328 E0.01631
G1 X125.918 Y97.374 E0.01468
G1 X127.742 Y97.374 E0.05718
G1 X127.954 Y97.192 E0.00878
G1 X127.971 Y88.678 E0.26694
G1 X127.784 Y87.915 E0.02461
G1 X127.580 Y87.493 E0.01470
G1 X127.313 Y87.108 E0.01470
G1 X126.988 Y86.770 E0.01470
G1 X126.619 Y86.488 E0.01455
G1 X126.080 Y86.214 E0.01897
G1 X125.636 Y86.080 E0.01455
G1 X125.171 Y86.017 E0.01470
G1 X119.991 Y86.017 E0.16241
G1 X120.041 Y85.639 E0.01195
G1 X125.165 Y85.639 E0.16065
G1 X125.721 Y85.713 E0.01760
G1 X126.541 Y86.008 E0.02731
G1 X127.235 Y86.484 E0.02639
G1 X127.601 Y86.865 E0.01656
G1 X127.903 Y87.298 E0.01656
G1 X128.134 Y87.773 E0.01656
G1 X128.283 Y88.263 E0.01605
G1 X128.366 Y89.000 E0.02326
G1 X128.366 Y96.956 E0.24944
G1 X128.317 Y97.315 E0.01136
G1 X128.252 Y97.433 E0.00425
G1 X127.937 Y97.704 E0.01303
G1 X127.810 Y97.751 E0.00425
G1 X125.914 Y97.751 E0.05945
G1 X125.405 Y97.702 E0.01600
G1 X124.852 Y97.540 E0.01810
G1 X124.055 Y97.122 E0.02820
G1 X123.438 Y96.883 E0.02076
G1 X122.794 Y96.742 E0.02067
G1 X122.204 Y96.710 E0.01851
G1 X122.154 Y97.089 E0.01198
G1 X122.747 Y97.117 E0.01861
G1 X123.329 Y97.245 E0.01869
G1 X123.889 Y97.461 E0.01882
G1 X124.711 Y97.889 E0.02905
G1 X125.316 Y98.070 E0.01982
G1 X125.906 Y98.128 E0.01859
G1 X127.843 Y98.128 E0.06072
G1 X128.157 Y98.012 E0.01050
G1 X128.523 Y97.697 E0.01514
G1 X128.663 Y97.467 E0.00844
G1 X128.743 Y96.959 E0.01613
G1 X128.720 Y88.592 E0.26236
M73 Q0 S101
G1 X128.484 Y87.635 E0.03090
G1 X128.228 Y87.107 E0.01841
G1 X127.892 Y86.625 E0.01841
G1 X127.479 Y86.197 E0.01864
G1 X127.010 Y85.843 E0.01843
G1 X126.356 Y85.512 E0.02299
G1 X125.753 Y85.334 E0.01970
G1 X125.162 Y85.261 E0.01866
G1 X120.091 Y85.262 E0.15900
G1 X120.140 Y84.885 E0.01192
G1 X125.160 Y84.884 E0.15740
G1 X125.826 Y84.964 E0.02101
G1 X126.403 Y85.128 E0.01883
G1 X126.887 Y85.338 E0.01652
G1 X127.780 Y85.960 E0.03412
G1 X128.228 Y86.441 E0.02061
G1 X128.583 Y86.968 E0.01992
G1 X128.875 Y87.606 E0.02200
G1 X129.038 Y88.189 E0.01898
G1 X129.120 Y88.982 E0.02502
G1 X129.120 Y96.961 E0.25016
G1 X129.047 Y97.509 E0.01734
G1 X128.805 Y97.948 E0.01572
G1 X128.390 Y98.309 E0.01723
G1 X127.860 Y98.506 E0.01775
G1 X125.898 Y98.505 E0.06150
G1 X125.244 Y98.440 E0.02061
G1 X124.506 Y98.213 E0.02422
G1 X123.581 Y97.736 E0.03261
G1 X122.700 Y97.491 E0.02867
G1 X122.178 Y97.461 E0.01641
G1 X122.227 Y97.837 E0.01190
G1 X123.112 Y97.968 E0.02803
G1 X124.360 Y98.560 E0.04331
G1 X125.172 Y98.810 E0.02666
G1 X125.872 Y98.881 E0.02204
G1 X127.885 Y98.882 E0.06312
G1 X128.385 Y98.744 E0.01627
G1 X128.630 Y98.600 E0.00892
G1 X129.167 Y98.101 E0.02297
G1 X129.407 Y97.622 E0.01680
G1 X129.497 Y96.969 E0.02068
G1 X129.474 Y88.550 E0.26395
G1 X129.230 Y87.478 E0.03448
G1 X128.913 Y86.785 E0.02391
G1 X128.526 Y86.210 E0.02172
G1 X128.037 Y85.684 E0.02252
G1 X127.533 Y85.287 E0.02013
G1 X127.058 Y85.002 E0.01734
G1 X126.521 Y84.770 E0.01834
G1 X125.898 Y84.594 E0.02032
G1 X125.160 Y84.507 E0.02330
G1 X120.274 Y84.508 E0.15318
G1 X120.430 Y84.131 E0.01279
G1 X125.160 Y84.130 E0.14831
G1 X125.953 Y84.221 E0.02502
G1 X126.638 Y84.412 E0.02229
G1 X127.230 Y84.666 E0.02021
G1 X127.749 Y84.978 E0.01897
G1 X128.292 Y85.407 E0.02171
G1 X128.814 Y85.966 E0.02398
G1 X129.240 Y86.598 E0.02391
G1 X129.575 Y87.321 E0.02497
G1 X129.780 Y88.053 E0.02385
G1 X129.874 Y88.968 E0.02883
G1 X129.874 Y96.973 E0.25098
G1 X129.775 Y97.707 E0.02323
G1 X129.467 Y98.329 E0.02176
G1 X128.873 Y98.888 E0.02559
G1 X128.528 Y99.093 E0.01258
G1 X127.972 Y99.253 E0.01812
G1 X125.882 Y99.259 E0.06555
G1 X125.110 Y99.182 E0.02433
G1 X124.317 Y98.950 E0.02589
G1 X123.300 Y98.436 E0.03574
G1 X122.607 Y98.240 E0.02257
G1 X122.277 Y98.214 E0.01039
G1 X122.327 Y98.595 E0.01205
G1 X122.894 Y98.691 E0.01804
G1 X124.184 Y99.303 E0.04476
G1 X125.043 Y99.553 E0.02804
G1 X125.874 Y99.636 E0.02621
G1 X128.024 Y99.626 E0.06741
G1 X128.357 Y99.558 E0.01063
G1 X128.820 Y99.371 E0.01567
G1 X129.531 Y98.820 E0.02821
G1 X129.862 Y98.416 E0.01637
G1 X130.142 Y97.794 E0.02140
G1 X130.251 Y96.977 E0.02585
G1 X130.224 Y88.472 E0.26665
G1 X130.151 Y87.986 E0.01544
G1 X129.926 Y87.183 E0.02615
G1 X129.569 Y86.414 E0.02657
G1 X129.111 Y85.734 E0.02570
G1 X128.549 Y85.130 E0.02586
G1 X127.968 Y84.671 E0.02323
G1 X127.363 Y84.311 E0.02206
G1 X126.754 Y84.053 E0.02073
G1 X126.023 Y83.850 E0.02380
G1 X125.162 Y83.753 E0.02714
G1 X120.586 Y83.754 E0.14348
G1 X120.768 Y83.378 E0.01310
G1 X125.165 Y83.376 E0.13786
G1 X126.092 Y83.480 E0.02926
G1 X126.870 Y83.694 E0.02531
G1 X127.532 Y83.974 E0.02253
G1 X128.188 Y84.364 E0.02392
G1 X128.806 Y84.855 E0.02474
G1 X129.408 Y85.501 E0.02769
G1 X129.897 Y86.227 E0.02745
G1 X130.273 Y87.033 E0.02789
G1 X130.520 Y87.904 E0.02839
G1 X130.627 Y88.941 E0.03266
G1 X130.628 Y96.982 E0.25214
G1 X130.510 Y97.880 E0.02839
G1 X130.186 Y98.608 E0.02499
G1 X129.784 Y99.099 E0.01990
G1 X128.998 Y99.704 E0.03109
G1 X128.503 Y99.907 E0.01678
G1 X128.109 Y99.996 E0.01267
G1 X125.879 Y100.013 E0.06991
G1 X125.137 Y99.949 E0.02337
G1 X124.064 Y99.661 E0.03482
G1 X123.018 Y99.136 E0.03669
G1 X122.477 Y98.988 E0.01760
G1 X122.656 Y99.420 E0.01466
G1 X123.933 Y100.014 E0.04419
G1 X124.621 Y100.231 E0.02261
G1 X125.875 Y100.390 E0.03963
G1 X127.888 Y100.391 E0.06311
G1 X128.629 Y100.262 E0.02357
G1 X129.179 Y100.035 E0.01868
G1 X129.533 Y99.809 E0.01316
G1 X130.343 Y99.045 E0.03489
G1 X130.753 Y98.335 E0.02573
G1 X130.895 Y97.892 E0.01457
G1 X131.005 Y96.986 E0.02862
G1 X131.003 Y88.898 E0.25357
G1 X130.969 Y88.345 E0.01739
G1 X130.816 Y87.521 E0.02627
G1 X130.593 Y86.815 E0.02323
G1 X130.216 Y86.025 E0.02744
G1 X129.698 Y85.261 E0.02895
G1 X129.061 Y84.577 E0.02928
G1 X128.377 Y84.036 E0.02736
G1 X127.700 Y83.636 E0.02465
G1 X126.985 Y83.335 E0.02434
G1 X126.161 Y83.109 E0.02677
G1 X125.167 Y82.999 E0.03137
G1 X121.059 Y82.999 E0.12881
G1 X121.348 Y82.622 E0.01490
G1 X125.169 Y82.622 E0.11980
G1 X126.221 Y82.737 E0.03318
G1 X127.391 Y83.083 E0.03827
G1 X127.869 Y83.299 E0.01644
G1 X128.594 Y83.728 E0.02641
G1 X129.318 Y84.301 E0.02894
G1 X129.993 Y85.026 E0.03107
G1 X130.543 Y85.837 E0.03072
G1 X130.940 Y86.666 E0.02882
G1 X131.252 Y87.720 E0.03448
G1 X131.380 Y88.886 E0.03677
G1 X131.382 Y96.989 E0.25407
G1 X131.269 Y97.944 E0.03015
G1 X131.018 Y98.661 E0.02382
G1 X130.783 Y99.077 E0.01499
G1 X130.289 Y99.659 E0.02392
G1 X129.737 Y100.127 E0.02268
G1 X129.374 Y100.358 E0.01350
G1 X128.524 Y100.684 E0.02855
G1 X127.978 Y100.765 E0.01730
G1 X125.853 Y100.767 E0.06664
G1 X125.080 Y100.701 E0.02432
G1 X124.543 Y100.600 E0.01715
G1 X123.803 Y100.368 E0.02432
G1 X122.855 Y99.900 E0.03316
;WIPE_START
G1 F8640.000
G1 X123.803 Y100.368 E-0.24418
G1 X124.543 Y100.600 E-0.17909
G1 X125.080 Y100.701 E-0.12626
G1 X125.853 Y100.767 E-0.17909
G1 X125.989 Y100.767 E-0.03137
;WIPE_END
G1 E-0.04000 F2100.000
G1 Z0.600000 F10800.000
G1 X133.268 Y96.276
G1 Z0.200000
G1 E0.80000 F2100.000
G1 F1200.000
G1 X133.239 Y97.510 E0.03870
G1 X133.146 Y98.162 E0.02066
G1 X132.920 Y99.003 E0.02729
G1 X132.767 Y99.376 E0.01264
G1 X132.249 Y100.273 E0.03247
G1 X131.616 Y101.000 E0.03023
G1 X131.917 Y101.309 E0.01351
G1 X132.410 Y101.968 E0.02581
