; generated by Slic3r Prusa Edition 1.42.0-beta2+linux64 on 2019-06-18 at 12:12:34

; 

; external perimeters extrusion width = 0.45mm
; perimeters extrusion width = 0.45mm
; infill extrusion width = 0.45mm
; solid infill extrusion width = 0.45mm
; top infill extrusion width = 0.40mm
; support material extrusion width = 0.35mm
; first layer extrusion width = 0.42mm

M73 P0 R49
M73 Q0 S50
M201 X1000 Y1000 Z1000 E5000 ; sets maximum accelerations, mm/sec^2
M203 X200 Y200 Z12 E120 ; sets maximum feedrates, mm/sec
M204 P1250 R1250 T1250 ; sets acceleration (P, T) and retract acceleration (R), mm/sec^2
M205 X8.00 Y8.00 Z0.40 E1.50 ; sets the jerk limits, mm/sec
M205 S0 T0 ; sets the minimum extruding and travel feed rate, mm/sec
M107
M115 U3.6.0 ; tell printer latest fw version
M83  ; extruder relative mode
M104 S215 ; set extruder temp
M140 S60 ; set bed temp
M190 S60 ; wait for bed temp
M109 S215 ; wait for extruder temp
G28 W ; home all without mesh bed level
G80 ; mesh bed leveling
G1 Y-3.0 F1000.0 ; go outside print area
G92 E0.0
G1 X60.0 E9.0  F1000.0 ; intro line
M73 Q0 S50
M73 P0 R49
G1 X100.0 E12.5  F1000.0 ; intro line
G92 E0.0
M221 S95
M900 K30 ; Filament gcode
G21 ; set units to millimeters
G90 ; use absolute coordinates
M83 ; use relative distances for extrusion
;BEFORE_LAYER_CHANGE
G92 E0.0
;0.2


G1 E-0.80000 F2100.00000
G1 Z0.600 F10800.000
;AFTER_LAYER_CHANGE
;0.2
G1 X91.364 Y61.717
G1 Z0.200
G1 E0.80000 F2100.00000
M204 S1000
G1 F1200
G1 X91.965 Y61.229 E0.02428
G1 X95.374 Y59.708 E0.11706
G1 X96.099 Y59.549 E0.02326
G1 X153.822 Y59.547 E1.80986
G1 X154.655 Y59.713 E0.02664
G1 X157.940 Y61.171 E0.11268
G1 X158.353 Y61.419 E0.01510
G1 X158.786 Y61.862 E0.01942
G1 X159.079 Y62.407 E0.01942
G1 X159.207 Y63.013 E0.01942
G1 X159.160 Y63.631 E0.01942
G1 X134.849 Y144.961 E2.66156
G1 X134.502 Y145.576 E0.02213
G1 X133.977 Y146.048 E0.02213
G1 X129.315 Y148.622 E0.16696
G1 X128.854 Y148.806 E0.01555
G1 X128.302 Y148.883 E0.01749
G1 X121.723 Y148.883 E0.20626
G1 X120.983 Y148.748 E0.02360
G1 X116.022 Y146.037 E0.17727
G1 X115.497 Y145.554 E0.02236
G1 X115.154 Y144.924 E0.02247
G1 X90.923 Y63.760 E2.65584
G1 X90.836 Y63.070 E0.02179
G1 X90.969 Y62.388 E0.02179
G1 X91.333 Y61.769 E0.02251
G1 F8640
G1 X91.965 Y61.229 E-0.19185
G1 X94.212 Y60.227 E-0.56815
G1 E-0.04000 F2100.00000
G1 Z0.800 F10800.000
G1 X120.149 Y141.249
G1 Z0.200
G1 E0.80000 F2100.00000
G1 F1200
G1 X122.212 Y141.249 E0.06466
G1 X122.581 Y141.790 E0.02054
G1 X122.917 Y142.153 E0.01550
G1 X123.256 Y142.447 E0.01408
G1 X123.634 Y142.697 E0.01421
G1 X124.065 Y142.898 E0.01491
G1 X124.519 Y143.023 E0.01477
G1 X125.008 Y143.070 E0.01540
G1 X125.497 Y143.023 E0.01540
G1 X125.951 Y142.898 E0.01477
G1 X126.382 Y142.697 E0.01491
G1 X126.762 Y142.446 E0.01426
G1 X127.112 Y142.141 E0.01457
G1 X127.436 Y141.788 E0.01501
G1 X127.805 Y141.249 E0.02049
G1 X129.867 Y141.249 E0.06466
G1 X130.887 Y143.548 E0.07887
G1 X128.922 Y144.391 E0.06705
G1 X128.836 Y144.108 E0.00925
G1 X121.180 Y144.108 E0.24005
G1 X121.095 Y144.391 E0.00925
G1 X119.129 Y143.548 E0.06705
G1 X120.125 Y141.304 E0.07699
G1 X119.994 Y140.872 F10800.000
G1 F1200
G1 X122.411 Y140.872 E0.07577
G1 X122.877 Y141.554 E0.02592
G1 X123.179 Y141.882 E0.01398
G1 X123.484 Y142.146 E0.01265
G1 X123.819 Y142.367 E0.01257
G1 X124.196 Y142.543 E0.01305
G1 X124.588 Y142.651 E0.01274
G1 X125.008 Y142.691 E0.01325
G1 X125.429 Y142.651 E0.01325
G1 X125.820 Y142.543 E0.01274
G1 X126.197 Y142.367 E0.01305
G1 X126.533 Y142.145 E0.01261
G1 X126.849 Y141.870 E0.01312
G1 X127.140 Y141.553 E0.01350
G1 X127.606 Y140.872 E0.02588
G1 X130.022 Y140.872 E0.07577
G1 X130.022 Y140.669 E0.00635
G1 X131.387 Y143.744 E0.10549
G1 X128.683 Y144.903 E0.09224
G1 X128.556 Y144.485 E0.01369
G1 X121.460 Y144.485 E0.22251
G1 X121.333 Y144.903 E0.01369
G1 X118.629 Y143.744 E0.09224
G1 X119.994 Y140.669 E0.10549
G1 X119.994 Y140.812 E0.00447
G1 X120.371 Y140.495 F10800.000
G1 F1200
G1 X122.644 Y140.495 E0.07126
G1 X122.732 Y140.674 E0.00627
G1 X123.173 Y141.319 E0.02448
G1 X123.442 Y141.611 E0.01245
G1 X123.712 Y141.845 E0.01121
G1 X124.004 Y142.037 E0.01094
G1 X124.327 Y142.188 E0.01119
G1 X124.656 Y142.279 E0.01071
G1 X125.008 Y142.312 E0.01109
G1 X125.360 Y142.279 E0.01109
G1 X125.689 Y142.188 E0.01071
G1 X126.013 Y142.037 E0.01119
G1 X126.305 Y141.844 E0.01096
G1 X126.585 Y141.600 E0.01167
G1 X126.844 Y141.318 E0.01199
G1 X127.284 Y140.674 E0.02446
G1 X127.372 Y140.495 E0.00627
G1 X129.645 Y140.495 E0.07126
G1 X129.645 Y138.890 E0.05032
G1 X131.887 Y143.940 E0.17325
G1 X128.446 Y145.423 E0.11745
G1 X128.277 Y144.862 E0.01836
G1 X121.740 Y144.862 E0.20496
G1 X121.569 Y145.427 E0.01849
G1 X118.130 Y143.940 E0.11747
G1 X120.371 Y138.890 E0.17325
G1 X120.371 Y140.435 E0.04844
G1 X120.748 Y140.118 F10800.000
G1 F1200
G1 X122.878 Y140.118 E0.06679
G1 X123.059 Y140.484 E0.01279
G1 X123.468 Y141.083 E0.02278
G1 X123.705 Y141.339 E0.01093
G1 X123.941 Y141.544 E0.00978
G1 X124.188 Y141.707 E0.00930
G1 X124.458 Y141.833 E0.00933
G1 X124.725 Y141.906 E0.00868
G1 X125.008 Y141.933 E0.00893
G1 X125.292 Y141.906 E0.00893
G1 X125.559 Y141.833 E0.00868
G1 X125.828 Y141.707 E0.00933
G1 X126.076 Y141.543 E0.00931
G1 X126.322 Y141.329 E0.01022
G1 X126.548 Y141.083 E0.01048
G1 X126.958 Y140.484 E0.02277
G1 X127.138 Y140.118 E0.01279
G1 X129.268 Y140.118 E0.06679
G1 X129.268 Y137.733 E0.07478
G1 X129.609 Y137.878 E0.01160
G1 X132.386 Y144.137 E0.21470
G1 X128.693 Y145.719 E0.12597
G1 X128.526 Y145.807 E0.00593
G1 X128.286 Y146.004 E0.00972
G1 X128.228 Y146.004 E0.00183
G1 X127.997 Y145.239 E0.02504
G1 X122.020 Y145.239 E0.18741
G1 X121.788 Y146.004 E0.02504
G1 X121.730 Y146.004 E0.00184
G1 X121.645 Y145.918 E0.00379
G1 X121.330 Y145.722 E0.01162
G1 X117.630 Y144.137 E0.12622
G1 X120.408 Y137.878 E0.21470
G1 X120.748 Y137.733 E0.01160
G1 X120.748 Y140.058 E0.07289
G1 X120.768 Y140.517 F10800.000
G1 F8640
G1 X122.878 Y140.118 E-0.49209
G1 X123.059 Y140.484 E-0.09417
G1 X123.468 Y141.083 E-0.16774
G1 X123.486 Y141.102 E-0.00600
G1 E-0.04000 F2100.00000
G1 Z0.800 F10800.000
G1 X120.668 Y144.085
G1 Z0.200
G1 E0.80000 F2100.00000
G1 F1200
G1 X119.651 Y143.068 E0.04672
G1 X119.821 Y142.685 E0.01360
G1 X120.968 Y143.832 E0.05269
G1 X121.514 Y143.825 E0.01773
G1 X119.991 Y142.303 E0.06996
G1 X120.161 Y141.920 E0.01360
G1 X122.066 Y143.825 E0.08754
G1 X122.619 Y143.825 E0.01795
G1 X120.333 Y141.532 E0.10520
G1 X120.878 Y141.532 E0.01769
G1 X123.171 Y143.825 E0.10538
G1 X123.724 Y143.825 E0.01795
G1 X121.430 Y141.532 E0.10538
G1 X121.983 Y141.532 E0.01795
G1 X124.446 Y143.995 E0.11318
G1 F8640
G1 X122.119 Y141.668 E-0.76000
G1 E-0.04000 F2100.00000
G1 Z0.800 F10800.000
G1 X123.993 Y142.989
G1 Z0.200
G1 E0.80000 F2100.00000
G1 F1200
G1 X124.829 Y143.825 E0.03842
G1 X125.382 Y143.825 E0.01795
G1 X124.900 Y143.344 E0.02214
G1 X125.008 Y143.354 E0.00354
G1 X125.423 Y143.314 E0.01353
G1 X125.934 Y143.825 E0.02348
G1 X126.487 Y143.825 E0.01795
G1 X125.874 Y143.213 E0.02815
G1 X126.049 Y143.164 E0.00591
G1 X126.273 Y143.060 E0.00803
G1 X127.039 Y143.825 E0.03518
G1 X127.592 Y143.825 E0.01795
G1 X126.635 Y142.869 E0.04396
G1 X126.964 Y142.645 E0.01292
G1 X128.144 Y143.825 E0.05422
G1 X128.697 Y143.825 E0.01795
G1 X127.259 Y142.388 E0.06604
G1 X127.529 Y142.105 E0.01270
G1 X129.331 Y143.907 E0.08279
G1 X129.718 Y143.742 E0.01367
G1 X127.773 Y141.797 E0.08935
G1 X127.954 Y141.532 E0.01043
G1 X128.060 Y141.532 E0.00345
G1 X130.105 Y143.576 E0.09392
G1 X130.491 Y143.410 E0.01367
G1 X128.613 Y141.532 E0.08630
G1 X129.165 Y141.532 E0.01795
G1 X130.430 Y142.796 E0.05809
G1 F8640
G1 X129.165 Y141.532 E-0.41290
G1 X128.613 Y141.532 E-0.12758
G1 X129.285 Y142.204 E-0.21952
G1 E-0.04000 F2100.00000
G1 Z0.800 F10800.000
G1 X127.023 Y126.525
G1 Z0.200
G1 E0.80000 F2100.00000
G1 F1200
G1 X126.802 Y126.258 E0.01090
G1 X154.624 Y63.560 E2.15069
G1 X154.908 Y63.687 E0.00976
G1 X127.048 Y126.470 E2.15366
G1 X127.121 Y127.234 F10800.000
G1 F1200
G1 X126.362 Y126.318 E0.03730
G1 X154.432 Y63.063 E2.16984
G1 X155.406 Y63.495 E0.03340
G1 X127.146 Y127.180 E2.18456
G1 X127.219 Y127.944 F10800.000
G1 F1200
G1 X125.923 Y126.379 E0.06371
G1 X154.240 Y62.565 E2.18899
G1 X155.903 Y63.303 E0.05705
G1 X127.243 Y127.889 E2.21547
G1 X127.317 Y128.653 F10800.000
G1 F1200
G1 X125.483 Y126.440 E0.09012
G1 X154.049 Y62.068 E2.20814
G1 X156.401 Y63.111 E0.08070
G1 X127.341 Y128.598 E2.24637
G1 X127.186 Y128.275 F10800.000
G1 F8640
G1 X125.483 Y126.440 E-0.65759
G1 X125.663 Y126.034 E-0.10241
G1 E-0.04000 F2100.00000
G1 Z0.800 F10800.000
G1 X123.215 Y126.258
G1 Z0.200
G1 E0.80000 F2100.00000
G1 F1200
G1 X122.993 Y126.525 E0.01090
G1 X95.108 Y63.687 E2.15554
M73 Q2 S49
M73 P2 R48
G1 X95.393 Y63.560 E0.00976
G1 X123.190 Y126.203 E2.14881
G1 X123.654 Y126.318 F10800.000
G1 F1200
G1 X122.895 Y127.234 E0.03730
G1 X94.610 Y63.495 E2.18644
G1 X95.584 Y63.063 E0.03340
G1 X123.630 Y126.263 E2.16796
G1 X124.094 Y126.379 F10800.000
G1 F1200
G1 X122.797 Y127.944 E0.06371
G1 X94.113 Y63.303 E2.21735
G1 X95.776 Y62.565 E0.05705
G1 X124.069 Y126.324 E2.18711
G1 X124.533 Y126.440 F10800.000
G1 F1200
G1 X122.699 Y128.653 E0.09012
G1 X93.615 Y63.111 E2.24825
G1 X95.968 Y62.068 E0.08070
G1 X124.509 Y126.385 E2.20626
G1 X124.142 Y126.524 F10800.000
M106 S255
;BEFORE_LAYER_CHANGE
G92 E0.0
;0.4


G1 F8640
G1 X122.699 Y128.653 E-0.66992
G1 X122.541 Y128.296 E-0.09008
G1 E-0.04000 F2100.00000
G1 Z0.800 F10800.000
;AFTER_LAYER_CHANGE
;0.4
G1 X115.497 Y145.554
G1 Z0.400
G1 E0.80000 F2100.00000
G1 F3000
G1 X115.154 Y144.924 E0.02247
G1 X90.923 Y63.760 E2.65584
G1 X90.836 Y63.070 E0.02179
G1 X90.969 Y62.388 E0.02179
G1 X91.364 Y61.717 E0.02439
G1 X91.965 Y61.229 E0.02428
G1 X95.374 Y59.708 E0.11706
G1 X96.099 Y59.549 E0.02326
G1 X153.822 Y59.547 E1.80986
G1 X154.655 Y59.713 E0.02664
G1 X157.940 Y61.171 E0.11268
G1 X158.353 Y61.419 E0.01510
G1 X158.786 Y61.862 E0.01942
G1 X159.079 Y62.407 E0.01942
G1 X159.207 Y63.013 E0.01942
G1 X159.160 Y63.631 E0.01942
G1 X134.849 Y144.961 E2.66156
G1 X134.502 Y145.576 E0.02213
G1 X133.977 Y146.048 E0.02213
G1 X129.315 Y148.622 E0.16696
G1 X128.854 Y148.806 E0.01555
G1 X128.302 Y148.883 E0.01749
G1 X121.723 Y148.883 E0.20626
G1 X120.983 Y148.748 E0.02360
G1 X116.022 Y146.037 E0.17727
G1 X115.541 Y145.594 E0.02048
G1 F8640
G1 X115.154 Y144.924 E-0.17867
G1 X114.434 Y142.512 E-0.58133
G1 E-0.04000 F2100.00000
G1 Z1.000 F10800.000
G1 X119.203 Y143.474
G1 Z0.400
G1 E0.80000 F2100.00000
M204 S800
G1 F1500
G1 X120.192 Y141.245 E0.08254
G1 X121.877 Y141.245 E0.05703
G1 X121.984 Y141.469 E0.00839
G1 X122.498 Y142.221 E0.03085
G1 X122.819 Y142.571 E0.01606
G1 X123.193 Y142.900 E0.01687
G1 X123.614 Y143.171 E0.01695
G1 X124.031 Y143.365 E0.01558
G1 X124.483 Y143.489 E0.01586
G1 X125.008 Y143.544 E0.01787
G1 X125.533 Y143.489 E0.01787
G1 X125.992 Y143.363 E0.01612
G1 X126.448 Y143.146 E0.01709
G1 X126.829 Y142.895 E0.01542
G1 X127.198 Y142.571 E0.01664
G1 X127.519 Y142.221 E0.01606
G1 X128.033 Y141.469 E0.03085
G1 X128.140 Y141.245 E0.00839
G1 X129.824 Y141.245 E0.05703
G1 X130.813 Y143.474 E0.08254
G1 X128.229 Y144.581 E0.09517
G1 X127.912 Y144.746 E0.01209
G1 X127.582 Y145.008 E0.01427
G1 X122.436 Y145.008 E0.17417
G1 X122.102 Y144.745 E0.01438
G1 X121.787 Y144.581 E0.01202
G1 X119.258 Y143.497 E0.09314
M204 S1000
G1 X118.664 Y143.686 F10800.000
M204 S800
G1 F1500
G1 X119.927 Y140.838 E0.10546
G1 X122.133 Y140.838 E0.07467
G1 X122.337 Y141.265 E0.01602
G1 X122.817 Y141.967 E0.02880
G1 X123.104 Y142.279 E0.01433
G1 X123.439 Y142.574 E0.01512
G1 X123.811 Y142.814 E0.01496
G1 X124.172 Y142.981 E0.01348
G1 X124.559 Y143.088 E0.01358
G1 X125.008 Y143.134 E0.01530
G1 X125.458 Y143.088 E0.01530
G1 X125.850 Y142.980 E0.01376
G1 X126.248 Y142.791 E0.01492
G1 X126.581 Y142.571 E0.01350
G1 X126.913 Y142.279 E0.01495
G1 X127.199 Y141.967 E0.01433
G1 X127.679 Y141.265 E0.02880
G1 X127.883 Y140.838 E0.01602
G1 X130.089 Y140.838 E0.07467
G1 X131.353 Y143.686 E0.10546
G1 X128.404 Y144.950 E0.10861
G1 X128.135 Y145.089 E0.01026
G1 X127.739 Y145.415 E0.01733
G1 X122.276 Y145.415 E0.18494
G1 X121.881 Y145.089 E0.01734
G1 X121.613 Y144.950 E0.01021
G1 X118.719 Y143.709 E0.10658
M204 S1000
G1 F8640
G1 X119.927 Y140.838 E-0.71933
G1 X120.103 Y140.838 E-0.04067
G1 E-0.04000 F2100.00000
G1 Z1.000 F10800.000
G1 X120.326 Y140.431
G1 Z0.400
G1 E0.80000 F2100.00000
M204 S800
G1 F1500
G1 X122.390 Y140.431 E0.06985
G1 X122.691 Y141.061 E0.02365
G1 X123.137 Y141.714 E0.02675
G1 X123.389 Y141.988 E0.01261
G1 X123.685 Y142.249 E0.01336
G1 X124.007 Y142.457 E0.01298
G1 X124.312 Y142.598 E0.01137
G1 X124.634 Y142.686 E0.01130
G1 X125.008 Y142.725 E0.01273
G1 X125.382 Y142.686 E0.01273
G1 X125.707 Y142.597 E0.01141
G1 X126.047 Y142.435 E0.01275
G1 X126.333 Y142.247 E0.01159
G1 X126.627 Y141.988 E0.01326
G1 X126.879 Y141.714 E0.01261
G1 X127.325 Y141.061 E0.02675
G1 X127.627 Y140.431 E0.02365
G1 X129.690 Y140.431 E0.06985
G1 X129.690 Y138.936 E0.05061
G1 X131.892 Y143.897 E0.18374
G1 X128.578 Y145.318 E0.12205
G1 X128.357 Y145.433 E0.00844
G1 X128.056 Y145.670 E0.01297
G1 X127.935 Y145.822 E0.00656
G1 X127.745 Y145.822 E0.00645
G1
G1 X122.272 Y145.822 E0.27165
G1 X122.081 Y145.822 E0.00647
G1 X121.954 Y145.665 E0.00682
G1 X121.659 Y145.432 E0.01272
G1 X121.439 Y145.318 E0.00841
G1 X118.124 Y143.897 E0.12205
G1 X120.326 Y138.936 E0.18374
G1 X120.326 Y140.371 E0.04858
M204 S1000
G1 X120.733 Y140.024 F10800.000
M204 S800
G1 F2100
G1 X122.660 Y140.024 E0.06523
G1 X123.045 Y140.857 E0.03107
G1 X123.457 Y141.460 E0.02470
G1 X123.674 Y141.696 E0.01088
G1 X123.932 Y141.923 E0.01161
G1 X124.204 Y142.099 E0.01100
G1 X124.453 Y142.214 E0.00927
G1 X124.710 Y142.285 E0.00901
G1 X125.008 Y142.316 E0.01016
G1 X125.307 Y142.285 E0.01016
G1 X125.565 Y142.214 E0.00905
G1 X125.847 Y142.080 E0.01058
G1 X126.086 Y141.922 E0.00968
G1 X126.342 Y141.696 E0.01157
G1 X126.560 Y141.460 E0.01088
G1 X126.971 Y140.857 E0.02470
G1 X127.356 Y140.024 E0.03107
G1 X129.283 Y140.024 E0.06523
G1 X129.283 Y137.589 E0.08242
G1 X129.597 Y137.723 E0.01156
G1 X132.431 Y144.109 E0.23650
G1 X128.752 Y145.686 E0.13549
G1 X128.579 Y145.776 E0.00661
G1 X128.345 Y145.961 E0.01008
G1 X128.143 Y146.229 E0.01137
G1 X127.868 Y146.229 E0.00933
G1 F1800
G1 X122.148 Y146.229 E0.28388
G1 F2100
G1 X121.873 Y146.229 E0.00933
G1 X121.666 Y145.956 E0.01160
G1 X121.437 Y145.776 E0.00986
G1 X121.264 Y145.686 E0.00660
G1 X117.585 Y144.109 E0.13549
G1 X120.419 Y137.723 E0.23650
G1 X120.733 Y137.589 E0.01156
G1 X120.733 Y139.964 E0.08039
M204 S1000
G1 X120.751 Y140.423 F10800.000
G1 F8640
G1 X122.660 Y140.024 E-0.44517
G1 X123.045 Y140.857 E-0.21198
G1 X123.296 Y141.225 E-0.10285
G1 E-0.04000 F2100.00000
G1 Z1.000 F10800.000
G1 X121.130 Y141.367
G1 Z0.400
G1 E0.80000 F2100.00000
M204 S1250
G1 F10696.1
G1 X119.947 Y142.551 E0.05856
G1 X119.607 Y143.315 E0.02925
G1 X119.726 Y143.366 E0.00453
G1 X121.542 Y141.550 E0.08983
G1 X121.684 Y141.550 E0.00498
G1 X121.859 Y141.828 E0.01148
G1 X120.143 Y143.545 E0.08492
G1 X120.559 Y143.723 E0.01585
G1 X122.101 Y142.181 E0.07627
G1 X122.258 Y142.412 E0.00975
G1 X122.357 Y142.520 E0.00514
G1 X120.976 Y143.902 E0.06836
G1 X121.392 Y144.080 E0.01585
G1 X122.646 Y142.826 E0.06205
G1 X122.963 Y143.104 E0.01475
G1 X121.809 Y144.259 E0.05711
G1 X122.207 Y144.455 E0.01554
G1 X123.318 Y143.344 E0.05499
G1 X123.466 Y143.439 E0.00615
G1 X123.706 Y143.551 E0.00927
G1 X122.555 Y144.703 E0.05698
G1 X123.150 Y144.703 E0.02081
G1 X124.140 Y143.712 E0.04902
G1 X124.426 Y143.790 E0.01038
G1 X124.635 Y143.812 E0.00734
G1 X123.745 Y144.703 E0.04405
G1 X124.340 Y144.703 E0.02081
G1 X125.213 Y143.830 E0.04319
G1 X125.590 Y143.790 E0.01327
G1 X125.944 Y143.693 E0.01286
G1 X124.935 Y144.703 E0.04995
G1 X125.530 Y144.703 E0.02081
G1 X128.682 Y141.550 E0.15595
G1 X129.277 Y141.550 E0.02081
G1 X126.125 Y144.703 E0.15595
G1 X126.720 Y144.703 E0.02081
G1 X129.701 Y141.721 E0.14752
G1 X129.884 Y142.133 E0.01577
G1 X127.131 Y144.886 E0.13620
M204 S1000
G1 F8640
G1 X129.459 Y142.558 E-0.76000
G1 E-0.04000 F2100.00000
G1 Z1.000 F10800.000
G1 X128.102 Y144.510
G1 Z0.400
