; generated by SuperSlicer 2.3.55 on 2021-06-22 at 17:23:45 UTC

; 

; external perimeters extrusion width = 0.45mm
; perimeters extrusion width = 0.45mm
; infill extrusion width = 0.45mm
; solid infill extrusion width = 0.45mm
; top infill extrusion width = 0.40mm
; first layer extrusion width = 0.42mm

; object:{"name":"backlasertop","id":"backlasertop.STL id:0 copy 0","object_center":[125.000000,105.000000,0.000000],"boundingbox_center":[125.000000,105.000000,6.536299],"boundingbox_size":[65.970711,89.535843,13.072598]}
; Total objects to print: 1
M486 T1
; plater:{"center":[125.000000,105.000000,0.000000],"boundingbox_center":[125.000000,105.000000,6.536299],"boundingbox_size":[65.970711,89.535843,13.072598]}

M73 P0 R48
M73 Q0 S49
;TYPE:Custom
M862.3 P "MK3S" ; printer model check
M862.1 P0.4 ; nozzle diameter check
M115 U3.9.2 ; tell printer latest fw version
G90 ; use absolute coordinates
M83 ; extruder relative mode
M104 S215 ; set extruder temp
M140 S60 ; set bed temp
M190 S60 ; wait for bed temp
M109 S215 ; wait for extruder temp
G28 W ; home all without mesh bed level
G80 ; mesh bed leveling
G1 Y-3.0 F1000.0 ; go outside print area
G92 E0.0
G1 X60.0 E9.0 F1000.0 ; intro line
G1 X100.0 E12.5 F1000.0 ; intro line
G92 E0.0
M221 S95

; Don't change E values below. Excessive value can damage the printer.

M107
G21 ; set units to millimeters
G90 ; use absolute coordinates
M83 ; use relative distances for extrusion
M900 K0.05 ; Filament gcode LA 1.5
M900 K30 ; Filament gcode LA 1.0
M107
;LAYER_CHANGE
;Z:0.2
;HEIGHT:0.2
;BEFORE_LAYER_CHANGE
;0.2


G1 E-0.80000 F2100.000
G1 Z0.400000 F10800.000
;AFTER_LAYER_CHANGE
;0.2
G1 X87.654 Y58.603
G1 Z0.200000
G1 E0.80000 F2100.000
;TYPE:Skirt
;WIDTH:0.42
G1 F1200.000
M204 P1000
G1 X88.425 Y57.757 E0.03589
G1 X89.320 Y57.044 E0.03589
G1 X90.276 Y56.501 E0.03444
G1 X93.434 Y55.105 E0.10827
G1 X94.419 Y54.795 E0.03237
G1 X95.438 Y54.630 E0.03237
G1 X153.948 Y54.602 E1.83456
G1 X155.363 Y54.744 E0.04458
G1 X156.722 Y55.161 E0.04458
G1 X160.099 Y56.682 E0.11612
G1 X160.927 Y57.206 E0.03071
G1 X161.681 Y57.842 E0.03092
G1 X162.262 Y58.477 E0.02698
G1 X162.763 Y59.177 E0.02698
G1 X163.177 Y59.931 E0.02698
G1 X163.497 Y60.730 E0.02698
G1 X163.719 Y61.554 E0.02678
G1 X163.842 Y62.406 E0.02698
G1 X163.862 Y63.267 E0.02698
G1 X163.779 Y64.123 E0.02698
G1 X163.574 Y65.034 E0.02926
G1 X139.444 Y146.636 E2.66812
G1 X139.007 Y147.630 E0.03403
G1 X138.421 Y148.551 E0.03424
G1 X137.702 Y149.373 E0.03424
G1 X136.873 Y150.073 E0.03403
G1 X135.734 Y150.746 E0.04148
G1 X130.533 Y153.071 E0.17863
G1 X129.594 Y153.298 E0.03030
G1 X128.639 Y153.398 E0.03009
G1 X121.588 Y153.402 E0.22107
G1 X120.402 Y153.295 E0.03734
G1 X119.250 Y152.993 E0.03734
G1 X114.246 Y150.729 E0.17221
G1 X113.105 Y150.046 E0.04169
G1 X112.290 Y149.350 E0.03361
G1 X111.583 Y148.535 E0.03382
G1 X111.010 Y147.629 E0.03361
G1 X110.575 Y146.642 E0.03382
G1 X86.413 Y64.934 E2.67156
G1 X86.200 Y63.856 E0.03444
G1 X86.154 Y62.766 E0.03424
G1 X86.274 Y61.674 E0.03444
G1 X86.559 Y60.613 E0.03444
G1 X87.028 Y59.561 E0.03610
G1 X87.622 Y58.654 E0.03401
;WIPE_START
G1 F8640.000
G1 X88.425 Y57.757 E-0.27800
G1 X89.320 Y57.044 E-0.26432
G1 X90.140 Y56.578 E-0.21768
;WIPE_END
G1 E-0.04000 F2100.000
G1 Z1.000000 F10800.000
G1 X88.790 Y66.234
G1 Z0.200000
G1 E0.80000 F2100.000
G1 F1200.000
G1 X88.103 Y64.594 E0.05576
G1 X87.909 Y63.496 E0.03494
G1 X87.906 Y62.737 E0.02379
G1 X87.994 Y62.076 E0.02093
G1 X88.149 Y61.490 E0.01901
G1 X88.477 Y60.640 E0.02855
G1 X88.755 Y60.102 E0.01901
G1 X89.160 Y59.521 E0.02220
G1 X89.715 Y58.928 E0.02548
G1 X90.492 Y58.333 E0.03067
G1 X94.067 Y56.702 E0.12321
G1 X95.031 Y56.427 E0.03144
G1 X95.522 Y56.366 E0.01552
G1 X96.726 Y56.398 E0.03773
G1 X97.433 Y56.552 E0.02272
G1 X98.401 Y56.913 E0.03236
G1 X98.962 Y57.199 E0.01976
G1 X99.558 Y57.612 E0.02274
G1 X100.152 Y58.168 E0.02549
G1 X100.531 Y58.627 E0.01868
G1 X100.931 Y59.271 E0.02376
G1 X101.549 Y60.663 E0.04775
;WIPE_START
G1 F8640.000
G1 X100.931 Y59.271 E-0.35167
G1 X100.531 Y58.627 E-0.17501
G1 X100.152 Y58.168 E-0.13758
G1 X99.849 Y57.884 E-0.09574
;WIPE_END
G1 E-0.04000 F2100.000
G1 Z0.600000 F10800.000
G1 X95.426 Y68.174
G1 Z0.200000
G1 E0.80000 F2100.000
G1 F1200.000
G1 X93.179 Y63.111 E0.17369
G1 X93.291 Y62.819 E0.00979
G1 X95.968 Y61.631 E0.09184
G1 X96.260 Y61.743 E0.00979
G1 X98.511 Y66.815 E0.17398
G1 X98.859 Y66.671 E0.01183
G1 X96.574 Y61.522 E0.17663
G1 X96.465 Y61.419 E0.00470
G1 X96.034 Y61.252 E0.01450
G1 X95.884 Y61.256 E0.00470
G1 X93.070 Y62.505 E0.09654
G1 X92.966 Y62.614 E0.00470
G1 X92.800 Y63.045 E0.01450
G1 X92.804 Y63.195 E0.00470
G1 X95.077 Y68.318 E0.17574
G1 X94.721 Y68.445 E0.01186
G1 X92.444 Y63.314 E0.17602
G1 X92.435 Y62.944 E0.01160
G1 X92.628 Y62.443 E0.01683
G1 X92.883 Y62.175 E0.01160
G1 X95.765 Y60.896 E0.09887
G1 X96.135 Y60.887 E0.01160
G1 X96.636 Y61.080 E0.01683
G1 X96.904 Y61.335 E0.01160
G1 X99.170 Y66.442 E0.17518
G1 X99.478 Y66.206 E0.01216
G1 X97.241 Y61.165 E0.17291
G1 X96.945 Y60.834 E0.01393
G1 X96.789 Y60.735 E0.00580
G1 X96.217 Y60.519 E0.01915
G1 X95.664 Y60.533 E0.01735
G1 X92.713 Y61.838 E0.10119
G1 X92.562 Y61.945 E0.00580
G1 X92.283 Y62.291 E0.01393
G1 X92.047 Y62.971 E0.02258
G1 X92.092 Y63.450 E0.01508
G1 X94.331 Y68.497 E0.17312
G1 X93.942 Y68.548 E0.01233
G1 X91.743 Y63.595 E0.16992
G1 X91.676 Y63.307 E0.00927
G1 X91.721 Y62.699 E0.01911
G1 X91.942 Y62.129 E0.01915
G1 X92.090 Y61.895 E0.00870
G1 X92.535 Y61.506 E0.01854
G1 X95.485 Y60.196 E0.10119
G1 X95.699 Y60.138 E0.00696
G1 X96.291 Y60.149 E0.01856
G1 X96.950 Y60.394 E0.02204
G1 X97.401 Y60.747 E0.01797
G1 X97.574 Y60.987 E0.00927
G1 X99.785 Y65.970 E0.17093
G1 X100.085 Y65.721 E0.01224
G1 X97.904 Y60.805 E0.16862
G1 X97.455 Y60.278 E0.02172
G1 X97.107 Y60.051 E0.01303
G1 X96.360 Y59.778 E0.02493
G1 X95.630 Y59.767 E0.02289
G1 X95.336 Y59.849 E0.00957
G1 X92.353 Y61.175 E0.10235
G1 X91.826 Y61.624 E0.02172
G1 X91.599 Y61.973 E0.01303
M73 P1 R48
G1 X91.297 Y62.893 E0.03037
G1 X91.348 Y63.594 E0.02203
G1 X93.552 Y68.599 E0.17149
G1 X93.140 Y68.602 E0.01291
G1 X90.986 Y63.701 E0.16783
M73 Q1 S49
G1 X90.921 Y62.868 E0.02622
G1 X90.997 Y62.487 E0.01218
G1 X91.255 Y61.818 E0.02248
G1 X91.551 Y61.366 E0.01693
G1 X91.866 Y61.051 E0.01399
G1 X92.169 Y60.846 E0.01146
G1 X95.189 Y59.502 E0.10365
G1 X95.563 Y59.396 E0.01218
G1 X96.082 Y59.366 E0.01630
G1 X96.627 Y59.461 E0.01736
G1 X97.232 Y59.694 E0.02031
G1 X97.699 Y59.991 E0.01736
G1 X98.199 Y60.561 E0.02377
G1 X100.341 Y65.387 E0.16557
G1 X100.610 Y65.038 E0.01381
G1 X98.522 Y60.366 E0.16045
G1 X98.265 Y60.015 E0.01363
G1 X97.963 Y59.721 E0.01320
G1 X97.417 Y59.364 E0.02047
G1 X96.494 Y59.036 E0.03071
G1 X96.088 Y58.989 E0.01283
G1 X95.531 Y59.019 E0.01746
G1 X95.042 Y59.155 E0.01594
G1 X91.922 Y60.553 E0.10720
G1 X91.617 Y60.768 E0.01168
G1 X91.098 Y61.335 E0.02410
G1 X90.911 Y61.662 E0.01182
G1 X90.636 Y62.379 E0.02408
G1 X90.545 Y62.834 E0.01457
G1 X90.561 Y63.511 E0.02122
G1 X90.621 Y63.799 E0.00922
G1 X92.702 Y68.544 E0.16245
G1 X92.264 Y68.486 E0.01386
G1 X90.258 Y63.900 E0.15694
G1 X90.167 Y63.334 E0.01796
G1 X90.169 Y62.814 E0.01631
G1 X90.274 Y62.271 E0.01735
G1 X90.566 Y61.510 E0.02557
G1 X90.990 Y60.862 E0.02426
G1 X91.371 Y60.482 E0.01689
G1 X91.723 Y60.232 E0.01353
G1 X94.894 Y58.808 E0.10900
G1 X95.703 Y58.621 E0.02602
G1 X96.094 Y58.612 E0.01226
G1 X96.878 Y58.750 E0.02498
G1 X97.572 Y59.020 E0.02335
G1 X97.944 Y59.230 E0.01338
G1 X98.550 Y59.768 E0.02540
G1 X98.844 Y60.170 E0.01563
G1 X100.871 Y64.697 E0.15551
G1 X101.087 Y64.257 E0.01538
G1 X99.278 Y60.181 E0.13981
G1 X98.790 Y59.471 E0.02702
G1 X98.387 Y59.091 E0.01736
G1 X97.998 Y58.819 E0.01490
G1 X96.918 Y58.366 E0.03671
G1 X96.080 Y58.234 E0.02659
G1 X95.411 Y58.275 E0.02101
G1 X94.772 Y58.450 E0.02079
G1 X91.717 Y59.806 E0.10479
G1 X90.987 Y60.320 E0.02801
G1 X90.620 Y60.714 E0.01686
G1 X90.187 Y61.437 E0.02642
G1 X89.901 Y62.205 E0.02570
G1 X89.782 Y63.028 E0.02608
G1 X89.814 Y63.611 E0.01830
G1 X90.016 Y64.351 E0.02406
G1 X91.817 Y68.409 E0.13920
G1 X91.312 Y68.199 E0.01715
G1 X89.672 Y64.503 E0.12678
G1 X89.517 Y64.047 E0.01510
G1 X89.421 Y63.488 E0.01780
M73 P1 R47
G1 X89.410 Y62.848 E0.02007
G1 X89.605 Y61.897 E0.03042
G1 X89.980 Y60.998 E0.03055
G1 X90.263 Y60.558 E0.01639
G1 X91.031 Y59.790 E0.03407
G1 X91.506 Y59.491 E0.01758
G1 X94.937 Y57.995 E0.11737
G1 X95.643 Y57.869 E0.02249
G1 X96.512 Y57.891 E0.02726
G1 X97.028 Y58.005 E0.01655
G1 X98.195 Y58.497 E0.03971
G1 X98.626 Y58.799 E0.01651
G1 X99.064 Y59.213 E0.01891
G1 X99.617 Y60.015 E0.03053
G1 X101.286 Y63.776 E0.12903
G1 X101.485 Y63.296 E0.01628
G1 X99.949 Y59.836 E0.11871
G1 X99.706 Y59.421 E0.01507
G1 X99.340 Y58.956 E0.01857
G1 X98.865 Y58.507 E0.02047
G1 X98.389 Y58.174 E0.01822
G1 X97.961 Y57.955 E0.01508
G1 X97.114 Y57.637 E0.02838
G1 X96.560 Y57.517 E0.01777
G1 X96.083 Y57.480 E0.01500
G1 X95.231 Y57.540 E0.02678
G1 X94.424 Y57.779 E0.02637
G1 X91.276 Y59.186 E0.10812
G1 X90.691 Y59.576 E0.02206
G1 X90.178 Y60.073 E0.02238
G1 X89.861 Y60.471 E0.01596
G1 X89.564 Y60.982 E0.01852
G1 X89.230 Y61.826 E0.02846
G1 X89.102 Y62.301 E0.01544
G1 X89.031 Y62.878 E0.01821
G1 X89.048 Y63.556 E0.02127
G1 X89.158 Y64.164 E0.01936
G1 X89.327 Y64.656 E0.01632
G1 X90.806 Y67.990 E0.11437
G1 X90.247 Y67.660 E0.02036
G1 X88.977 Y64.797 E0.09821
G1 X88.691 Y63.749 E0.03405
G1 X88.683 Y62.524 E0.03841
G1 X88.884 Y61.674 E0.02740
G1 X89.362 Y60.558 E0.03806
G1 X89.793 Y59.940 E0.02363
G1 X90.587 Y59.181 E0.03443
G1 X91.313 Y58.747 E0.02653
G1 X94.338 Y57.405 E0.10377
G1 X95.330 Y57.143 E0.03216
G1 X96.173 Y57.105 E0.02647
G1 X97.221 Y57.276 E0.03328
G1 X98.070 Y57.592 E0.02843
G1 X98.885 Y58.047 E0.02924
G1 X99.637 Y58.721 E0.03167
G1 X100.034 Y59.232 E0.02029
G1 X100.332 Y59.765 E0.01914
G1 X101.591 Y62.601 E0.09728
G1 X101.684 Y61.890 E0.02247
G1 X100.618 Y59.487 E0.08244
G1 X100.112 Y58.697 E0.02940
G1 X99.344 Y57.924 E0.03417
G1 X98.781 Y57.529 E0.02156
G1 X98.254 Y57.261 E0.01853
G1 X97.327 Y56.914 E0.03106
G1 X96.670 Y56.771 E0.02106
G1 X95.565 Y56.741 E0.03468
G1 X94.629 Y56.906 E0.02978
G1 X94.209 Y57.051 E0.01393
G1 X90.990 Y58.484 E0.11048
G1 X90.525 Y58.763 E0.01702
G1 X89.985 Y59.191 E0.02160
G1 X89.258 Y60.017 E0.03448
G1 X88.823 Y60.791 E0.02785
G1 X88.507 Y61.610 E0.02753
G1 X88.364 Y62.147 E0.01741
G1 X88.282 Y62.763 E0.01948
G1 X88.286 Y63.477 E0.02239
G1 X88.469 Y64.500 E0.03260
G1 X89.622 Y67.180 E0.09146
;WIPE_START
G1 F8640.000
G1 X88.469 Y64.500 E-0.67355
G1 X88.403 Y64.132 E-0.08645
;WIPE_END
G1 E-0.04000 F2100.000
G1 Z0.600000 F10800.000
G1 X148.331 Y61.884
G1 Z0.200000
G1 E0.80000 F2100.000
G1 F1200.000
G1 X149.337 Y59.617 E0.07775
G1 X149.686 Y58.997 E0.02230
G1 X150.106 Y58.462 E0.02134
G1 X150.947 Y57.716 E0.03523
G1 X151.810 Y57.241 E0.03090
G1 X152.694 Y56.912 E0.02958
G1 X153.419 Y56.761 E0.02321
G1 X153.826 Y56.728 E0.01280
G1 X154.726 Y56.768 E0.02826
G1 X155.814 Y57.053 E0.03525
G1 X158.851 Y58.400 E0.10417
G1 X159.657 Y58.880 E0.02941
G1 X160.514 Y59.699 E0.03717
G1 X161.135 Y60.662 E0.03592
G1 X161.615 Y61.973 E0.04376
G1 X161.741 Y62.887 E0.02894
G1 X161.711 Y63.705 E0.02565
G1 X161.541 Y64.521 E0.02615
G1 X161.390 Y64.937 E0.01388
G1 X160.395 Y67.180 E0.07692
G1 X159.769 Y67.660 F10800.000
G1 F1200.000
G1 X161.037 Y64.803 E0.09800
G1 X161.322 Y63.775 E0.03343
G1 X161.365 Y63.067 E0.02224
G1 X161.334 Y62.531 E0.01683
G1 X161.230 Y61.989 E0.01731
G1 X160.686 Y60.614 E0.04636
G1 X160.346 Y60.093 E0.01952
G1 X159.872 Y59.563 E0.02231
G1 X159.434 Y59.184 E0.01814
G1 X158.861 Y58.823 E0.02126
G1 X155.697 Y57.413 E0.10860
G1 X155.291 Y57.271 E0.01348
G1 X154.432 Y57.117 E0.02736
G1 X153.422 Y57.141 E0.03167
G1 X152.801 Y57.274 E0.01989
G1 X151.913 Y57.606 E0.02974
G1 X151.435 Y57.849 E0.01681
G1 X150.927 Y58.203 E0.01941
G1 X150.406 Y58.693 E0.02242
G1 X150.004 Y59.200 E0.02031
G1 X149.732 Y59.663 E0.01681
G1 X148.426 Y62.606 E0.10094
G1 X148.530 Y63.294 E0.02183
G1 X150.026 Y59.924 E0.11560
G1 X150.262 Y59.493 E0.01541
G1 X150.629 Y59.007 E0.01908
G1 X151.468 Y58.275 E0.03492
G1 X152.024 Y57.969 E0.01990
G1 X152.848 Y57.654 E0.02765
G1 X153.425 Y57.522 E0.01856
G1 X154.393 Y57.493 E0.03037
G1 X155.176 Y57.631 E0.02494
G1 X155.553 Y57.762 E0.01250
G1 X158.554 Y59.093 E0.10295
G1 X159.213 Y59.489 E0.02409
G1 X159.896 Y60.137 E0.02951
G1 X160.365 Y60.812 E0.02578
G1 X160.863 Y62.077 E0.04261
G1 X160.984 Y62.845 E0.02439
G1 X160.979 Y63.404 E0.01752
G1 X160.835 Y64.251 E0.02694
G1 X159.210 Y67.990 E0.12782
G1 X158.705 Y68.199 E0.01716
G1 X160.350 Y64.492 E0.12717
G1 X160.569 Y63.713 E0.02538
G1 X160.606 Y62.844 E0.02726
G1 X160.547 Y62.390 E0.01436
G1 X160.138 Y61.202 E0.03940
G1 X159.871 Y60.725 E0.01715
G1 X159.604 Y60.376 E0.01378
G1 X159.135 Y59.908 E0.02075
G1 X158.702 Y59.598 E0.01672
G1 X155.408 Y58.110 E0.11332
G1 X155.036 Y57.983 E0.01232
G1 X154.357 Y57.868 E0.02161
G1 X153.477 Y57.896 E0.02760
G1 X152.955 Y58.016 E0.01679
G1 X152.138 Y58.331 E0.02746
G1 X151.662 Y58.598 E0.01710
G1 X150.897 Y59.274 E0.03202
G1 X150.552 Y59.740 E0.01817
G1 X148.730 Y63.775 E0.13882
G1 X148.929 Y64.256 E0.01632
G1 X150.715 Y60.231 E0.13807
G1 X151.182 Y59.521 E0.02665
G1 X151.867 Y58.914 E0.02869
G1 X152.292 Y58.675 E0.01530
G1 X153.018 Y58.392 E0.02441
G1 X153.916 Y58.235 E0.02859
G1 X154.592 Y58.272 E0.02123
G1 X155.263 Y58.458 E0.02184
G1 X158.239 Y59.778 E0.10206
G1 X158.890 Y60.195 E0.02425
G1 X159.555 Y60.930 E0.03107
G1 X159.794 Y61.356 E0.01534
G1 X160.113 Y62.197 E0.02818
G1 X160.229 Y62.862 E0.02118
G1 X160.197 Y63.649 E0.02470
G1 X160.003 Y64.343 E0.02259
G1 X158.199 Y68.409 E0.13946
G1 X157.752 Y68.486 E0.01422
G1 X159.732 Y63.990 E0.15403
G1 X159.829 Y63.557 E0.01392
G1 X159.833 Y62.687 E0.02727
G1 X159.749 Y62.293 E0.01262
G1 X159.480 Y61.579 E0.02393
G1 X159.098 Y60.945 E0.02319
G1 X158.738 Y60.563 E0.01646
G1 X158.123 Y60.140 E0.02340
G1 X154.837 Y58.711 E0.11236
G1 X153.955 Y58.612 E0.02784
G1 X153.208 Y58.727 E0.02369
G1 X152.218 Y59.139 E0.03364
G1 X151.504 Y59.727 E0.02900
G1 X151.239 Y60.066 E0.01349
G1 X149.146 Y64.698 E0.15936
G1 X149.407 Y65.038 E0.01346
G1 X151.550 Y60.280 E0.16362
G1 X152.109 Y59.672 E0.02589
G1 X152.413 Y59.461 E0.01161
G1 X153.318 Y59.087 E0.03071
G1 X153.678 Y59.009 E0.01153
G1 X154.476 Y59.018 E0.02503
G1 X154.958 Y59.148 E0.01565
G1 X157.956 Y60.478 E0.10286
G1 X158.474 Y60.833 E0.01968
G1 X159.020 Y61.497 E0.02696
G1 X159.389 Y62.408 E0.03079
G1 X159.471 Y62.834 E0.01363
G1 X159.441 Y63.593 E0.02381
G1 X159.351 Y63.940 E0.01124
G1 X157.308 Y68.545 E0.15794
G1 X156.872 Y68.602 E0.01380
G1 X158.993 Y63.821 E0.16401
G1 X159.081 Y63.466 E0.01146
G1 X159.087 Y62.799 E0.02091
G1 X158.782 Y61.864 E0.03082
G1 X158.505 Y61.411 E0.01664
G1 X157.970 Y60.920 E0.02278
G1 X154.814 Y59.496 E0.10856
G1 X154.417 Y59.390 E0.01290
G1 X153.736 Y59.382 E0.02134
G1 X152.802 Y59.687 E0.03082
G1 X152.349 Y59.963 E0.01664
G1 X152.052 Y60.245 E0.01283
G1 X151.750 Y60.687 E0.01679
G1 X149.668 Y65.378 E0.16092
G1 X149.930 Y65.719 E0.01346
G1 X152.169 Y60.710 E0.17205
G1 X152.346 Y60.484 E0.00899
G1 X152.811 Y60.102 E0.01887
G1 X153.540 Y59.808 E0.02464
G1 X153.950 Y59.743 E0.01303
G1 X154.350 Y59.761 E0.01254
G1 X154.672 Y59.846 E0.01044
G1 X157.622 Y61.154 E0.10119
G1 X157.909 Y61.341 E0.01072
G1 X158.367 Y61.874 E0.02203
G1 X158.661 Y62.603 E0.02464
G1 X158.726 Y63.013 E0.01303
G1 X158.707 Y63.413 E0.01254
G1 X158.636 Y63.700 E0.00928
G1 X156.462 Y68.599 E0.16805
M73 Q1 S48
G1 X156.074 Y68.548 E0.01229
G1 X158.280 Y63.577 E0.17051
G1 X158.349 Y63.008 E0.01797
G1 X158.301 Y62.717 E0.00927
G1 X158.041 Y62.064 E0.02204
G1 X157.666 Y61.629 E0.01799
G1 X157.465 Y61.497 E0.00754
G1 X154.532 Y60.196 E0.10061
G1 X153.927 Y60.120 E0.01911
G1 X153.707 Y60.153 E0.00697
G1 X153.067 Y60.394 E0.02146
G1 X152.615 Y60.747 E0.01797
G1 X152.434 Y61.004 E0.00985
G1 X150.231 Y65.970 E0.17035
G1 X150.539 Y66.206 E0.01216
G1 X152.775 Y61.165 E0.17291
G1 X152.882 Y61.014 E0.00580
G1 X153.228 Y60.735 E0.01393
G1 X153.799 Y60.519 E0.01915
G1 X154.387 Y60.544 E0.01847
G1 X157.427 Y61.921 E0.10461
G1 X157.717 Y62.257 E0.01395
