; generated by SuperSlicer 2.3.55 on 2021-06-22 at 17:23:21 UTC

; 

; external perimeters extrusion width = 0.45mm
; perimeters extrusion width = 0.45mm
; infill extrusion width = 0.45mm
; solid infill extrusion width = 0.45mm
; top infill extrusion width = 0.40mm
; first layer extrusion width = 0.42mm

; object:{"name":"backlaserbottom","id":"backlaserbottom.STL id:0 copy 0","object_center":[125.000000,105.000000,0.000000],"boundingbox_center":[125.000000,105.000000,5.290009],"boundingbox_size":[66.211639,61.005016,10.580019]}
; Total objects to print: 1
M486 T1
; plater:{"center":[125.000000,105.000000,0.000000],"boundingbox_center":[125.000000,105.000000,5.290009],"boundingbox_size":[66.211639,61.005016,10.580019]}

M73 P0 R40
M73 Q0 S41
;TYPE:Custom
M862.3 P "MK3S" ; printer model check
M862.1 P0.4 ; nozzle diameter check
M115 U3.9.2 ; tell printer latest fw version
G90 ; use absolute coordinates
M83 ; extruder relative mode
M104 S215 ; set extruder temp
M140 S60 ; set bed temp
M190 S60 ; wait for bed temp
M109 S215 ; wait for extruder temp
G28 W ; home all without mesh bed level
G80 ; mesh bed leveling
G1 Y-3.0 F1000.0 ; go outside print area
G92 E0.0
G1 X60.0 E9.0 F1000.0 ; intro line
G1 X100.0 E12.5 F1000.0 ; intro line
G92 E0.0
M221 S95

; Don't change E values below. Excessive value can damage the printer.

M107
G21 ; set units to millimeters
G90 ; use absolute coordinates
M83 ; use relative distances for extrusion
M900 K0.05 ; Filament gcode LA 1.5
M900 K30 ; Filament gcode LA 1.0
;LAYER_CHANGE
;Z:0.2
;HEIGHT:0.2
;BEFORE_LAYER_CHANGE
;0.2


G1 E-0.80000 F2100.000
G1 Z0.400000 F10800.000
;AFTER_LAYER_CHANGE
;0.2
G1 X85.374 Y76.379
G1 Z0.200000
G1 E0.80000 F2100.000
;TYPE:Skirt
;WIDTH:0.42
G1 F1200.000
G1 X86.019 Y74.829 E0.05263
G1 X86.519 Y74.057 E0.02885
G1 X87.119 Y73.351 E0.02906
G1 X87.805 Y72.727 E0.02906
G1 X88.565 Y72.197 E0.02906
G1 X94.795 Y68.742 E0.22339
G1 X95.953 Y68.305 E0.03879
G1 X97.168 Y68.074 E0.03879
G1 X152.106 Y68.036 E1.72253
G1 X153.702 Y68.217 E0.05036
G1 X155.212 Y68.745 E0.05016
G1 X161.349 Y72.146 E0.22000
G1 X162.601 Y73.077 E0.04892
G1 X163.234 Y73.745 E0.02885
G1 X163.773 Y74.482 E0.02864
G1 X164.217 Y75.288 E0.02885
G1 X164.552 Y76.138 E0.02864
G1 X164.777 Y77.023 E0.02864
G1 X164.888 Y77.936 E0.02885
G1 X164.882 Y78.856 E0.02885
G1 X164.758 Y79.768 E0.02885
G1 X164.527 Y80.631 E0.02802
G1 X164.188 Y81.465 E0.02823
G1 X138.935 Y133.366 E1.80972
G1 X138.310 Y134.302 E0.03527
G1 X137.547 Y135.128 E0.03527
G1 X136.659 Y135.829 E0.03548
G1 X135.677 Y136.379 E0.03527
G1 X134.166 Y136.883 E0.04995
G1 X129.577 Y137.682 E0.14605
G1 X120.589 Y137.699 E0.28182
G1 X115.868 Y136.997 E0.14964
G1 X114.847 Y136.694 E0.03341
G1 X113.881 Y136.244 E0.03341
G1 X113.003 Y135.663 E0.03299
G1 X112.219 Y134.961 E0.03299
G1 X111.546 Y134.153 E0.03299
G1 X110.996 Y133.248 E0.03320
G1 X85.742 Y81.316 E1.81061
G1 X85.232 Y79.717 E0.05263
G1 X85.107 Y78.036 E0.05284
G1 X85.365 Y76.439 E0.05075
;WIPE_START
G1 F8640.000
G1 X86.019 Y74.829 E-0.40109
G1 X86.519 Y74.057 E-0.21245
G1 X86.930 Y73.574 E-0.14646
;WIPE_END
G1 E-0.04000 F2100.000
G1 Z1.000000 F10800.000
G1 X87.850 Y81.719
G1 Z0.200000
G1 E0.80000 F2100.000
G1 F1200.000
G1 X87.282 Y80.551 E0.04071
G1 X87.074 Y79.996 E0.01860
G1 X86.920 Y79.339 E0.02117
G1 X86.850 Y78.608 E0.02301
G1 X86.927 Y77.521 E0.03418
G1 X87.333 Y76.158 E0.04457
G1 X87.656 Y75.502 E0.02294
G1 X88.423 Y74.492 E0.03976
G1 X89.335 Y73.741 E0.03704
G1 X90.768 Y72.942 E0.05144
;WIPE_START
G1 F8640.000
G1 X89.335 Y73.741 E-0.37879
G1 X88.423 Y74.492 E-0.27279
G1 X88.139 Y74.866 E-0.10842
;WIPE_END
G1 E-0.04000 F2100.000
G1 Z0.600000 F10800.000
G1 X91.824 Y72.784
G1 Z0.200000
G1 E0.80000 F2100.000
G1 F1200.000
G1 X89.538 Y74.058 E0.08205
G1 X88.696 Y74.752 E0.03421
G1 X87.983 Y75.689 E0.03693
G1 X87.677 Y76.311 E0.02173
G1 X87.410 Y77.127 E0.02691
G1 X87.235 Y78.085 E0.03053
G1 X87.229 Y78.620 E0.01679
G1 X87.305 Y79.357 E0.02323
G1 X87.637 Y80.421 E0.03493
G1 X88.710 Y82.627 E0.07693
;WIPE_START
G1 F8640.000
G1 X87.637 Y80.421 E-0.56653
G1 X87.388 Y79.621 E-0.19347
;WIPE_END
G1 E-0.04000 F2100.000
G1 Z0.600000 F10800.000
G1 X91.467 Y89.159
G1 Z0.200000
G1 E0.80000 F2100.000
G1 F1200.000
G1 X90.732 Y87.559 E0.05519
G1 X90.574 Y86.970 E0.01912
G1 X90.462 Y85.778 E0.03754
G1 X90.303 Y85.646 E0.00646
G1 X90.362 Y85.200 E0.01411
G1 X90.846 Y85.590 E0.01948
G1 X90.848 Y86.191 E0.01883
G1 X90.929 Y86.821 E0.01992
G1 X91.076 Y87.396 E0.01862
G1 X92.329 Y90.069 E0.09257
G1 X92.998 Y90.583 F10800.000
G1 F1200.000
G1 X91.606 Y87.721 E0.09977
G1 X91.428 Y87.258 E0.01555
G1 X91.286 Y86.677 E0.01876
G1 X91.217 Y86.031 E0.02036
G1 X91.241 Y85.399 E0.01984
G1 X90.846 Y85.123 E0.01509
G1 X90.424 Y84.732 E0.01806
G1 X90.501 Y84.273 E0.01459
G1 X90.890 Y84.667 E0.01736
G1 X91.653 Y85.200 E0.02918
G1 X91.596 Y85.689 E0.01545
G1 X91.615 Y86.292 E0.01891
G1 X91.829 Y87.270 E0.03138
G1 X93.544 Y90.843 E0.12429
;WIPE_START
G1 F8640.000
G1 X92.120 Y87.876 E-0.76000
;WIPE_END
G1 E-0.04000 F2100.000
G1 Z0.600000 F10800.000
G1 X98.175 Y90.883
G1 Z0.200000
G1 E0.80000 F2100.000
G1 F1200.000
G1 X95.745 Y85.885 E0.17427
G1 X95.791 Y85.639 E0.00784
G1 X96.221 Y85.244 E0.01828
G1 X97.004 Y84.382 E0.03654
G1 X95.335 Y81.380 E0.10769
M73 P1 R40
G1 X93.874 Y81.669 E0.04671
G1 X93.639 Y81.555 E0.00818
G1 X92.131 Y78.454 E0.10810
G1 X92.221 Y78.168 E0.00942
G1 X97.781 Y75.076 E0.19946
M73 Q1 S41
G1 X98.081 Y75.161 E0.00979
G1 X100.791 Y80.034 E0.17481
G1 X101.094 Y79.802 E0.01195
G1 X98.374 Y74.913 E0.17541
G1 X98.257 Y74.819 E0.00470
G1 X97.812 Y74.693 E0.01450
G1 X97.663 Y74.710 E0.00470
G1 X91.975 Y77.873 E0.20408
G1 X91.884 Y77.985 E0.00454
G1 X91.750 Y78.410 E0.01395
G1 X91.760 Y78.554 E0.00453
G1 X93.328 Y81.777 E0.11236
G1 X93.417 Y81.866 E0.00397
G1 X93.892 Y82.051 E0.01596
G1 X95.132 Y81.791 E0.03973
M73 P1 R39
G1 X96.548 Y84.337 E0.09136
G1 X95.491 Y85.403 E0.04705
G1 X95.363 Y85.874 E0.01532
G1 X95.379 Y85.995 E0.00382
G1 X97.826 Y91.028 E0.17547
G1 X97.477 Y91.172 E0.01184
G1 X95.027 Y86.132 E0.17571
G1 X94.987 Y85.834 E0.00946
G1 X95.067 Y85.409 E0.01355
G1 X95.176 Y85.193 E0.00759
G1 X96.090 Y84.289 E0.04029
G1 X94.934 Y82.210 E0.07455
G1 X93.941 Y82.426 E0.03186
G1 X93.690 Y82.406 E0.00790
G1 X93.224 Y82.192 E0.01607
G1 X93.002 Y81.970 E0.00984
G1 X91.406 Y78.687 E0.11447
G1 X91.371 Y78.402 E0.00900
G1 X91.569 Y77.775 E0.02061
G1 X91.760 Y77.561 E0.00900
G1 X97.512 Y74.362 E0.20637
G1 X97.880 Y74.320 E0.01160
G1 X98.396 Y74.467 E0.01683
G1 X98.686 Y74.697 E0.01160
G1 X101.396 Y79.570 E0.17483
G1 X101.696 Y79.340 E0.01185
G1 X98.985 Y74.467 E0.17483
G1 X98.517 Y74.109 E0.01847
G1 X97.929 Y73.945 E0.01914
G1 X97.379 Y74.009 E0.01735
G1 X91.562 Y77.240 E0.20866
G1 X91.245 Y77.580 E0.01455
G1 X91.007 Y78.269 E0.02287
G1 X91.046 Y78.802 E0.01675
G1 X92.686 Y82.176 E0.11762
G1 X93.018 Y82.508 E0.01473
G1 X93.598 Y82.772 E0.01999
G1 X93.974 Y82.802 E0.01182
G1 X94.740 Y82.638 E0.02456
G1 X95.625 Y84.229 E0.05708
G1 X94.927 Y84.900 E0.03035
G1 X94.751 Y85.182 E0.01042
G1 X94.610 Y85.808 E0.02012
G1 X94.637 Y86.139 E0.01042
G1 X97.098 Y91.254 E0.17797
G1 X96.704 Y91.306 E0.01246
G1 X94.339 Y86.442 E0.16960
G1 X94.267 Y86.212 E0.00756
G1 X94.242 Y85.715 E0.01558
G1 X94.418 Y85.005 E0.02293
G1 X94.636 Y84.661 E0.01278
G1 X95.161 Y84.170 E0.02253
G1 X94.547 Y83.066 E0.03961
G1 X93.890 Y83.183 E0.02092
G1 X93.394 Y83.105 E0.01574
G1 X92.806 Y82.820 E0.02050
G1 X92.489 Y82.538 E0.01330
G1 X92.366 Y82.375 E0.00639
G1 X90.684 Y78.909 E0.12080
G1 X90.633 Y78.217 E0.02175
G1 X90.927 Y77.378 E0.02787
G1 X91.370 Y76.915 E0.02009
G1 X97.238 Y73.659 E0.21039
G1 X97.747 Y73.561 E0.01626
G1 X98.060 Y73.587 E0.00985
G1 X98.630 Y73.749 E0.01857
G1 X98.831 Y73.843 E0.00696
G1 X99.279 Y74.230 E0.01856
G1 X101.974 Y79.074 E0.17381
G1 X102.230 Y78.741 E0.01316
G1 X99.659 Y74.119 E0.16584
G1 X99.373 Y73.780 E0.01389
G1 X99.008 Y73.509 E0.01427
G1 X98.746 Y73.391 E0.00899
G1 X98.004 Y73.195 E0.02406
G1 X97.718 Y73.185 E0.00899
G1 X97.126 Y73.298 E0.01887
G1 X91.176 Y76.592 E0.21326
G1 X90.878 Y76.835 E0.01202
G1 X90.606 Y77.179 E0.01377
G1 X90.468 Y77.459 E0.00980
G1 X90.259 Y78.169 E0.02318
G1 X90.262 Y78.741 E0.01794
G1 X90.375 Y79.153 E0.01341
G1 X91.997 Y82.489 E0.11631
G1 X92.193 Y82.773 E0.01081
G1 X92.617 Y83.146 E0.01771
G1 X93.276 Y83.464 E0.02296
G1 X93.864 Y83.560 E0.01868
G1 X94.353 Y83.494 E0.01546
G1 X94.687 Y84.094 E0.02151
G1 X94.254 Y84.538 E0.01944
G1 X93.983 Y85.084 E0.01913
G1 X93.869 Y85.656 E0.01828
G1 X93.898 Y86.287 E0.01982
G1 X93.995 Y86.597 E0.01016
G1 X96.310 Y91.358 E0.16601
G1 X95.916 Y91.410 E0.01246
G1 X93.651 Y86.753 E0.16237
G1 X93.529 Y86.365 E0.01275
G1 X93.492 Y85.629 E0.02312
G1 X93.591 Y85.096 E0.01698
G1 X93.874 Y84.432 E0.02264
G1 X94.213 Y84.017 E0.01679
G1 X94.158 Y83.919 E0.00353
G1 X93.481 Y83.900 E0.02124
G1 X93.040 Y83.777 E0.01436
G1 X92.389 Y83.448 E0.02284
G1 X92.165 Y83.277 E0.00886
G1 X91.755 Y82.818 E0.01931
G1 X90.033 Y79.312 E0.12246
G1 X89.894 Y78.833 E0.01565
G1 X89.869 Y78.261 E0.01796
G1 X90.106 Y77.352 E0.02943
G1 X90.284 Y76.983 E0.01287
G1 X90.609 Y76.571 E0.01643
G1 X90.983 Y76.268 E0.01509
G1 X96.810 Y73.027 E0.20906
G1 X97.316 Y72.854 E0.01679
G1 X97.723 Y72.807 E0.01283
G1 X98.260 Y72.860 E0.01693
G1 X98.896 Y73.043 E0.02074
G1 X99.198 Y73.184 E0.01045
G1 X99.617 Y73.492 E0.01630
G1 X99.858 Y73.747 E0.01102
G1 X102.480 Y78.415 E0.16786
G1 X102.730 Y78.089 E0.01288
G1 X100.316 Y73.749 E0.15571
G1 X99.838 Y73.185 E0.02319
G1 X99.357 Y72.841 E0.01854
G1 X99.018 Y72.687 E0.01168
G1 X98.072 Y72.444 E0.03064
G1 X97.699 Y72.431 E0.01168
G1 X96.892 Y72.581 E0.02574
G1 X90.584 Y76.088 E0.22630
G1 X90.339 Y76.307 E0.01029
G1 X89.962 Y76.787 E0.01915
G1 X89.748 Y77.236 E0.01559
G1 X89.551 Y77.868 E0.02075
G1 X89.487 Y78.477 E0.01920
G1 X89.597 Y79.221 E0.02359
G1 X91.324 Y82.829 E0.12539
G1 X91.564 Y83.196 E0.01376
G1 X91.926 Y83.570 E0.01633
G1 X92.310 Y83.841 E0.01474
G1 X92.987 Y84.161 E0.02346
G1 X93.524 Y84.285 E0.01729
G1 X93.263 Y84.861 E0.01981
G1 X93.107 Y85.685 E0.02630
G1 X93.104 Y86.024 E0.01064
G1 X93.230 Y86.706 E0.02175
G1 X95.469 Y91.353 E0.16174
G1 X95.021 Y91.294 E0.01417
G1 X92.879 Y86.845 E0.15485
G1 X92.722 Y85.897 E0.03012
G1 X92.758 Y85.443 E0.01426
G1 X92.971 Y84.553 E0.02870
G1 X91.964 Y84.071 E0.03502
G1 X91.384 Y83.565 E0.02413
G1 X90.986 Y82.998 E0.02171
G1 X89.349 Y79.631 E0.11737
G1 X89.150 Y78.961 E0.02193
G1 X89.116 Y78.211 E0.02354
G1 X89.184 Y77.783 E0.01358
G1 X89.485 Y76.879 E0.02986
G1 X89.771 Y76.400 E0.01751
G1 X90.346 Y75.795 E0.02618
G1 X96.446 Y72.367 E0.21937
G1 X97.178 Y72.113 E0.02430
G1 X97.680 Y72.054 E0.01584
G1 X98.430 Y72.125 E0.02362
G1 X99.144 Y72.331 E0.02332
G1 X99.765 Y72.651 E0.02190
G1 X100.330 Y73.138 E0.02338
G1 X100.645 Y73.565 E0.01667
G1 X102.925 Y77.664 E0.14704
G1 X103.109 Y77.219 E0.01510
G1 X100.806 Y73.124 E0.14730
G1 X100.308 Y72.596 E0.02277
G1 X99.983 Y72.343 E0.01290
G1 X99.280 Y71.979 E0.02483
G1 X98.184 Y71.697 E0.03546
G1 X97.717 Y71.675 E0.01468
G1 X96.817 Y71.813 E0.02855
G1 X96.269 Y72.034 E0.01852
G1 X90.385 Y75.307 E0.21111
G1 X89.796 Y75.784 E0.02375
G1 X89.472 Y76.170 E0.01581
G1 X89.028 Y77.010 E0.02978
G1 X88.817 Y77.694 E0.02246
G1 X88.734 Y78.515 E0.02587
G1 X88.779 Y79.024 E0.01601
G1 X89.006 Y79.787 E0.02496
M73 Q1 S40
G1 X90.831 Y83.471 E0.12892
G1 X91.112 Y83.825 E0.01417
G1 X91.540 Y84.230 E0.01848
G1 X91.925 Y84.489 E0.01454
G1 X92.504 Y84.776 E0.02028
G1 X92.368 Y85.505 E0.02323
G1 X92.351 Y86.064 E0.01754
G1 X92.537 Y87.011 E0.03026
G1 X94.573 Y91.235 E0.14705
G1 X94.069 Y91.061 E0.01673
G1 X92.184 Y87.143 E0.13633
G1 X91.980 Y86.157 E0.03156
G1 X91.979 Y85.593 E0.01768
G1 X92.077 Y84.988 E0.01922
G1 X91.251 Y84.480 E0.03040
G1 X90.803 Y84.047 E0.01954
G1 X90.488 Y83.635 E0.01627
G1 X88.664 Y79.945 E0.12904
G1 X88.407 Y79.086 E0.02811
G1 X88.364 Y78.154 E0.02926
G1 X88.449 Y77.612 E0.01722
G1 X88.668 Y76.897 E0.02345
G1 X88.969 Y76.244 E0.02254
G1 X89.525 Y75.522 E0.02857
G1 X90.186 Y74.987 E0.02666
G1 X96.088 Y71.703 E0.21176
G1 X96.718 Y71.449 E0.02131
G1 X97.714 Y71.298 E0.03158
G1 X98.667 Y71.407 E0.03009
G1 X99.413 Y71.626 E0.02437
G1 X99.922 Y71.860 E0.01756
G1 X100.641 Y72.384 E0.02788
G1 X101.110 Y72.900 E0.02187
G1 X101.303 Y73.196 E0.01106
G1 X103.293 Y76.775 E0.12840
G1 X103.397 Y76.186 E0.01874
G1 X101.407 Y72.668 E0.12675
G1 X101.128 Y72.334 E0.01363
G1 X100.537 Y71.815 E0.02468
G1 X100.103 Y71.529 E0.01629
G1 X99.542 Y71.272 E0.01934
G1 X98.270 Y70.948 E0.04115
G1 X97.707 Y70.921 E0.01768
G1 X97.076 Y70.983 E0.01987
G1 X96.618 Y71.085 E0.01472
G1 X95.920 Y71.365 E0.02359
G1 X89.952 Y74.689 E0.21417
G1 X89.243 Y75.271 E0.02879
G1 X88.643 Y76.054 E0.03091
G1 X88.309 Y76.783 E0.02515
G1 X88.082 Y77.525 E0.02432
G1 X87.980 Y78.552 E0.03237
G1 X88.035 Y79.150 E0.01883
G1 X88.321 Y80.103 E0.03119
G1 X89.925 Y83.401 E0.11499
G1 X89.379 Y83.140 E0.01898
G1 X87.979 Y80.262 E0.10036
G1 X87.805 Y79.808 E0.01524
G1 X87.677 Y79.292 E0.01668
G1 X87.611 Y78.113 E0.03702
G1 X87.770 Y77.238 E0.02787
G1 X88.028 Y76.451 E0.02597
G1 X88.309 Y75.878 E0.02002
G1 X88.567 Y75.492 E0.01456
G1 X88.970 Y75.011 E0.01966
G1 X89.751 Y74.370 E0.03168
G1 X95.742 Y71.033 E0.21502
G1 X96.535 Y70.717 E0.02678
G1 X97.698 Y70.544 E0.03687
G1 X98.312 Y70.573 E0.01927
G1 X99.670 Y70.917 E0.04390
G1 X100.259 Y71.185 E0.02031
G1 X101.103 Y71.786 E0.03247
G1 X101.698 Y72.427 E0.02741
G1 X101.960 Y72.825 E0.01495
G1 X103.480 Y75.559 E0.09807
G1 X103.461 Y74.749 F10800.000
G1 F1200.000
G1 X102.288 Y72.640 E0.07567
G1 X101.997 Y72.198 E0.01659
G1 X101.608 Y71.745 E0.01873
G1 X100.972 Y71.198 E0.02629
G1 X100.436 Y70.853 E0.02000
G1 X99.797 Y70.562 E0.02201
G1 X98.936 Y70.308 E0.02816
G1 X98.353 Y70.198 E0.01860
G1 X97.690 Y70.167 E0.02082
G1 X96.978 Y70.236 E0.02244
G1 X96.444 Y70.351 E0.01713
G1 X95.562 Y70.701 E0.02973
G1 X93.436 Y71.886 E0.07632
;WIPE_START
G1 F8640.000
G1 X95.562 Y70.701 E-0.56208
G1 X96.359 Y70.384 E-0.19792
;WIPE_END
G1 E-0.04000 F2100.000
G1 Z0.600000 F10800.000
G1 X94.243 Y71.004
G1 Z0.200000
G1 E0.80000 F2100.000
G1 F1200.000
G1 X95.383 Y70.369 E0.04091
G1 X96.340 Y69.988 E0.03230
G1 X96.956 Y69.858 E0.01974
G1 X97.769 Y69.789 E0.02559
G1 X98.420 Y69.827 E0.02043
G1 X99.031 Y69.943 E0.01952
G1 X100.234 Y70.332 E0.03964
G1 X101.161 Y70.869 E0.03359
G1 X101.566 Y71.189 E0.01618
G1 X102.288 Y71.957 E0.03304
G1 X103.287 Y73.660 E0.06190
;WIPE_START
G1 F8640.000
G1 X102.288 Y71.957 E-0.45587
G1 X101.566 Y71.189 E-0.24330
G1 X101.359 Y71.026 E-0.06083
;WIPE_END
G1 E-0.04000 F2100.000
G1 Z0.600000 F10800.000
G1 X146.537 Y74.763
G1 Z0.200000
G1 E0.80000 F2100.000
G1 F1200.000
G1 X147.803 Y72.488 E0.08164
G1 X148.111 Y72.061 E0.01651
G1 X148.545 Y71.595 E0.01995
G1 X149.098 Y71.146 E0.02236
G1 X149.586 Y70.840 E0.01805
G1 X150.209 Y70.560 E0.02143
G1 X151.099 Y70.299 E0.02907
G1 X151.616 Y70.202 E0.01647
G1 X152.623 Y70.188 E0.03159
G1 X153.332 Y70.294 E0.02249
G1 X153.845 Y70.442 E0.01673
G1 X154.298 Y70.630 E0.01537
G1 X156.566 Y71.889 E0.08134
;WIPE_START
G1 F8640.000
G1 X154.298 Y70.630 E-0.59905
G1 X153.845 Y70.442 E-0.11320
G1 X153.646 Y70.385 E-0.04775
;WIPE_END
G1 E-0.04000 F2100.000
G1 Z0.600000 F10800.000
G1 X155.776 Y71.020
G1 Z0.200000
G1 E0.80000 F2100.000
G1 F1200.000
G1 X154.462 Y70.290 E0.04712
M73 P2 R39
G1 X153.997 Y70.096 E0.01581
G1 X153.105 Y69.867 E0.02888
G1 X152.188 Y69.788 E0.02885
G1 X151.569 Y69.828 E0.01946
G1 X151.005 Y69.934 E0.01799
G1 X150.080 Y70.206 E0.03020
G1 X149.410 Y70.507 E0.02305
G1 X148.878 Y70.840 E0.01967
G1 X148.074 Y71.531 E0.03322
G1 X147.492 Y72.274 E0.02962
G1 X146.691 Y73.713 E0.05163
;WIPE_START
G1 F8640.000
G1 X147.492 Y72.274 E-0.38021
G1 X148.074 Y71.531 E-0.21814
G1 X148.605 Y71.074 E-0.16165
;WIPE_END
G1 E-0.04000 F2100.000
G1 Z0.600000 F10800.000
G1 X146.521 Y75.566
G1 Z0.200000
G1 E0.80000 F2100.000
G1 F1200.000
G1 X148.122 Y72.688 E0.10327
M73 Q2 S40
G1 X148.802 Y71.871 E0.03331
G1 X149.320 Y71.451 E0.02091
G1 X149.763 Y71.174 E0.01639
G1 X150.336 Y70.915 E0.01972
G1 X151.661 Y70.576 E0.04288
