; generated by Slic3r Prusa Edition 1.42.0-beta2+linux64 on 2019-06-18 at 12:12:12

; 

; external perimeters extrusion width = 0.45mm
; perimeters extrusion width = 0.45mm
; infill extrusion width = 0.45mm
; solid infill extrusion width = 0.45mm
; top infill extrusion width = 0.40mm
; support material extrusion width = 0.35mm
; first layer extrusion width = 0.42mm

M73 P0 R42
M73 Q0 S42
M201 X1000 Y1000 Z1000 E5000 ; sets maximum accelerations, mm/sec^2
M203 X200 Y200 Z12 E120 ; sets maximum feedrates, mm/sec
M204 P1250 R1250 T1250 ; sets acceleration (P, T) and retract acceleration (R), mm/sec^2
M205 X8.00 Y8.00 Z0.40 E1.50 ; sets the jerk limits, mm/sec
M205 S0 T0 ; sets the minimum extruding and travel feed rate, mm/sec
M107
M115 U3.6.0 ; tell printer latest fw version
M83  ; extruder relative mode
M104 S215 ; set extruder temp
M140 S60 ; set bed temp
M190 S60 ; wait for bed temp
M109 S215 ; wait for extruder temp
G28 W ; home all without mesh bed level
G80 ; mesh bed leveling
G1 Y-3.0 F1000.0 ; go outside print area
G92 E0.0
G1 X60.0 E9.0  F1000.0 ; intro line
M73 Q0 S42
M73 P0 R42
G1 X100.0 E12.5  F1000.0 ; intro line
G92 E0.0
M221 S95
M900 K30 ; Filament gcode
G21 ; set units to millimeters
G90 ; use absolute coordinates
M83 ; use relative distances for extrusion
;BEFORE_LAYER_CHANGE
G92 E0.0
;0.2


G1 E-0.80000 F2100.00000
G1 Z0.600 F10800.000
;AFTER_LAYER_CHANGE
;0.2
G1 X90.588 Y76.416
G1 Z0.200
G1 E0.80000 F2100.00000
M204 S1000
G1 F1200
G1 X91.031 Y76.084 E0.01737
G1 X96.650 Y72.960 E0.20158
G1 X97.513 Y72.718 E0.02810
G1 X152.344 Y72.713 E1.71919
G1 X152.859 Y72.775 E0.01623
G1 X153.344 Y72.956 E0.01623
G1 X159.228 Y76.256 E0.21153
G1 X159.682 Y76.734 E0.02066
G1 X159.973 Y77.325 E0.02066
G1 X160.075 Y77.976 E0.02066
G1 X159.979 Y78.628 E0.02066
G1 X134.424 Y131.217 E1.83326
G1 X133.900 Y131.807 E0.02473
G1 X133.202 Y132.173 E0.02473
G1 X128.907 Y132.929 E0.13672
G1 X121.047 Y132.927 E0.24646
G1 X117.109 Y132.350 E0.12479
G1 X116.371 Y132.070 E0.02473
G1 X115.892 Y131.678 E0.01942
G1 X115.542 Y131.167 E0.01942
G1 X90.136 Y78.923 E1.82149
G1 X89.966 Y78.411 E0.01692
G1 X89.927 Y77.876 E0.01680
G1 X90.021 Y77.345 E0.01692
G1 X90.241 Y76.853 E0.01692
G1 X90.551 Y76.463 E0.01560
G1 F8640
G1 X91.031 Y76.084 E-0.14138
G1 X93.373 Y74.782 E-0.61862
G1 E-0.04000 F2100.00000
G1 Z0.800 F10800.000
G1 X94.050 Y78.901
G1 Z0.200
G1 E0.80000 F2100.00000
G1 F1200
G1 X97.381 Y77.049 E0.11950
G1 X120.775 Y119.114 E1.50918
G1 X121.196 Y119.752 E0.02396
G1 X121.745 Y120.357 E0.02562
G1 X122.380 Y120.872 E0.02563
G1 X123.086 Y121.285 E0.02564
G1 X123.858 Y121.592 E0.02607
G1 X125.000 Y121.833 E0.03659
G1 X126.142 Y121.592 E0.03659
G1 X126.914 Y121.285 E0.02607
G1 X127.620 Y120.872 E0.02564
G1 X128.255 Y120.357 E0.02563
G1 X128.804 Y119.752 E0.02562
G1 X129.225 Y119.114 E0.02396
G1 X152.619 Y77.049 E1.50918
G1 X155.950 Y78.901 E0.11950
G1 X155.438 Y79.954 E0.03671
G1 X153.840 Y79.715 E0.05066
G1 X151.144 Y84.563 E0.17392
G1 X152.173 Y85.777 E0.04990
G1 X152.464 Y86.070 E0.01293
G1 X131.767 Y128.629 E1.48386
G1 X130.289 Y128.848 E0.04686
G1 X129.992 Y126.838 E0.06369
G1 X127.415 Y127.028 E0.08101
G1 X127.415 Y129.081 E0.06439
G1 X127.104 Y128.942 E0.01068
G1 X126.390 Y128.709 E0.02357
G1 X125.691 Y128.573 E0.02232
G1 X125.000 Y128.528 E0.02171
G1 X124.309 Y128.573 E0.02171
G1 X123.610 Y128.709 E0.02232
G1 X122.896 Y128.942 E0.02357
G1 X122.585 Y129.081 E0.01068
G1 X122.585 Y127.028 E0.06439
G1 X120.008 Y126.838 E0.08101
G1 X119.695 Y128.956 E0.06712
G1 X118.291 Y128.749 E0.04451
G1 X97.540 Y86.078 E1.48774
G1 X97.836 Y85.766 E0.01349
G1 X98.856 Y84.563 E0.04943
G1 X96.160 Y79.715 E0.17392
G1 X94.562 Y79.954 E0.05066
G1 X94.076 Y78.955 E0.03483
G1 F8640
G1 X96.927 Y77.311 E-0.76000
G1 E-0.04000 F2100.00000
G1 Z0.800 F10800.000
G1 X154.044 Y80.126
G1 Z0.200
G1 E0.80000 F2100.00000
G1 F1200
G1 X151.601 Y84.519 E0.15760
G1 X152.451 Y85.522 E0.04124
G1 X152.920 Y85.994 E0.02086
G1 X132.019 Y128.973 E1.49850
G1 X129.971 Y129.276 E0.06492
G1 X129.670 Y127.240 E0.06452
G1 X127.792 Y127.378 E0.05904
G1 X127.792 Y129.577 E0.06893
G1 X127.598 Y129.577 E0.00609
G1 X126.968 Y129.294 E0.02164
G1 X126.295 Y129.075 E0.02221
G1 X125.642 Y128.947 E0.02084
G1 X125.000 Y128.905 E0.02018
G1 X124.358 Y128.947 E0.02018
G1 X123.705 Y129.075 E0.02084
G1 X123.032 Y129.294 E0.02221
G1 X122.402 Y129.577 E0.02164
G1 X122.208 Y129.577 E0.00609
G1 X122.208 Y127.378 E0.06893
G1 X120.330 Y127.240 E0.05904
G1 X120.013 Y129.384 E0.06796
G1 X118.039 Y129.093 E0.06257
G1 X97.086 Y86.007 E1.50219
G1 X97.556 Y85.514 E0.02136
G1 X98.399 Y84.519 E0.04091
G1 X95.956 Y80.126 E0.15760
G1 X94.738 Y80.302 E0.03860
G1 X94.352 Y80.385 E0.01237
G1 X93.555 Y78.745 E0.05719
G1 X97.527 Y76.536 E0.14251
G1 X121.097 Y118.918 E1.52055
G1 X121.495 Y119.520 E0.02260
G1 X122.005 Y120.082 E0.02381
G1 X122.595 Y120.561 E0.02383
G1 X123.252 Y120.945 E0.02385
G1 X123.968 Y121.230 E0.02416
G1 X125.000 Y121.448 E0.03308
G1 X126.032 Y121.230 E0.03308
G1 X126.748 Y120.945 E0.02416
G1 X127.405 Y120.561 E0.02385
G1 X127.995 Y120.082 E0.02383
G1 X128.505 Y119.520 E0.02381
G1 X128.903 Y118.918 E0.02260
G1 X152.473 Y76.536 E1.52055
G1 X156.445 Y78.745 E0.14251
G1 X155.648 Y80.385 E0.05719
G1 X155.262 Y80.302 E0.01237
G1 X154.103 Y80.134 E0.03672
G1 X154.247 Y80.536 F10800.000
G1 F1200
G1 X152.057 Y84.474 E0.14127
G1 X152.729 Y85.267 E0.03259
G1 X153.377 Y85.917 E0.02879
G1 X132.271 Y129.317 E1.51314
G1 X129.653 Y129.704 E0.08299
G1 X129.348 Y127.642 E0.06536
G1 X128.169 Y127.729 E0.03706
G1 X128.169 Y129.954 E0.06977
G1 X127.503 Y129.954 E0.02089
G1 X126.832 Y129.646 E0.02313
G1 X126.200 Y129.440 E0.02086
G1 X125.594 Y129.322 E0.01936
G1 X125.000 Y129.283 E0.01865
G1 X124.406 Y129.322 E0.01865
G1 X123.800 Y129.440 E0.01936
G1 X123.168 Y129.646 E0.02086
G1 X122.497 Y129.954 E0.02313
G1 X121.831 Y129.954 E0.02089
G1 X121.831 Y127.729 E0.06977
G1 X120.652 Y127.642 E0.03706
G1 X120.331 Y129.813 E0.06880
G1 X117.787 Y129.437 E0.08064
G1 X96.627 Y85.925 E1.51706
G1 X97.275 Y85.262 E0.02908
G1 X97.943 Y84.474 E0.03238
G1 X95.753 Y80.536 E0.14127
G1 X94.805 Y80.673 E0.03004
G1 X94.143 Y80.817 E0.02124
G1 X93.059 Y78.589 E0.07766
G1 X97.673 Y76.023 E0.16553
G1 X121.420 Y118.723 E1.53191
G1 X121.793 Y119.288 E0.02125
G1 X122.265 Y119.807 E0.02200
G1 X122.811 Y120.250 E0.02203
G1 X123.417 Y120.605 E0.02205
G1 X124.077 Y120.868 E0.02225
G1 X125.000 Y121.062 E0.02958
G1 X125.923 Y120.868 E0.02958
G1 X126.583 Y120.605 E0.02226
G1 X127.189 Y120.250 E0.02205
G1 X127.735 Y119.807 E0.02203
G1 X128.207 Y119.288 E0.02200
G1 X128.580 Y118.723 E0.02125
G1 X152.327 Y76.023 E1.53191
G1 X156.941 Y78.589 E0.16553
G1 X155.857 Y80.817 E0.07766
G1 X155.195 Y80.673 E0.02124
G1 X154.306 Y80.545 E0.02816
G1 X154.450 Y80.947 F10800.000
G1 F1200
G1 X152.513 Y84.429 E0.12494
G1 X153.007 Y85.011 E0.02393
G1 X153.833 Y85.841 E0.03672
G1 X132.523 Y129.661 E1.52779
G1 X129.335 Y130.132 E0.10105
G1 X129.026 Y128.044 E0.06620
G1 X128.546 Y128.079 E0.01509
G1 X128.546 Y130.331 E0.07061
G1 X127.405 Y130.331 E0.03578
G1 X126.696 Y129.999 E0.02454
G1 X126.105 Y129.806 E0.01950
G1 X125.545 Y129.697 E0.01789
G1 X125.000 Y129.661 E0.01713
G1 X124.455 Y129.697 E0.01713
G1 X123.895 Y129.806 E0.01789
G1 X123.304 Y129.999 E0.01950
G1 X122.595 Y130.331 E0.02454
G1 X121.454 Y130.331 E0.03578
G1 X121.454 Y128.079 E0.07061
G1 X120.974 Y128.044 E0.01509
G1 X120.649 Y130.241 E0.06963
G1 X117.535 Y129.781 E0.09870
G1 X96.165 Y85.837 E1.53210
M73 Q2 S41
M73 P2 R41
G1 X96.500 Y85.529 E0.01428
G1 X96.995 Y85.010 E0.02248
G1 X97.487 Y84.429 E0.02386
G1 X95.550 Y80.947 E0.12494
G1 X94.872 Y81.044 E0.02148
G1 X93.933 Y81.248 E0.03012
G1 X92.564 Y78.433 E0.09814
G1 X97.819 Y75.510 E0.18854
G1 X121.742 Y118.527 E1.54328
G1 X122.092 Y119.056 E0.01989
G1 X122.525 Y119.533 E0.02020
G1 X123.026 Y119.939 E0.02023
G1 X123.583 Y120.266 E0.02026
G1 X124.186 Y120.506 E0.02035
G1 X125.000 Y120.677 E0.02607
G1 X125.814 Y120.506 E0.02607
G1 X126.417 Y120.266 E0.02035
G1 X126.974 Y119.939 E0.02026
G1 X127.475 Y119.533 E0.02023
G1 X127.908 Y119.056 E0.02020
G1 X128.258 Y118.527 E0.01989
G1 X152.181 Y75.510 E1.54328
G1 X157.436 Y78.433 E0.18854
G1 X156.067 Y81.248 E0.09814
G1 X155.128 Y81.044 E0.03012
G1 X154.510 Y80.955 E0.01960
G1 X154.082 Y80.791 F10800.000
G1 F8640
G1 X152.870 Y83.809 E-0.76000
G1 E-0.04000 F2100.00000
G1 Z0.800 F10800.000
G1 X155.375 Y79.826
G1 Z0.200
G1 E0.80000 F2100.00000
G1 F1200
G1 X153.299 Y77.751 E0.09231
G1 X152.729 Y77.433 E0.02052
G1 X152.628 Y77.615 E0.00652
G1 X154.549 Y79.535 E0.08544
G1 X153.920 Y79.442 E0.02000
G1 X152.437 Y77.958 E0.06597
G1 X152.246 Y78.302 E0.01237
G1 X153.568 Y79.624 E0.05879
G1 X153.377 Y79.968 E0.01237
G1 X152.055 Y78.646 E0.05879
G1 X151.864 Y78.990 E0.01237
G1 X153.185 Y80.311 E0.05879
G1 X152.994 Y80.655 E0.01237
G1 X151.672 Y79.333 E0.05879
G1 X151.481 Y79.677 E0.01237
G1 X152.803 Y80.999 E0.05879
G1 X152.612 Y81.343 E0.01237
G1 X151.290 Y80.021 E0.05879
G1 X151.099 Y80.365 E0.01237
G1 X152.421 Y81.686 E0.05879
G1 X152.230 Y82.030 E0.01237
G1 X150.908 Y80.708 E0.05879
G1 X150.717 Y81.052 E0.01237
G1 X152.038 Y82.374 E0.05879
G1 X151.847 Y82.718 E0.01237
G1 X150.525 Y81.396 E0.05879
G1 X150.334 Y81.740 E0.01237
G1 X151.656 Y83.061 E0.05879
G1 X151.465 Y83.405 E0.01237
G1 X150.143 Y82.083 E0.05879
G1 X149.952 Y82.427 E0.01237
G1 X151.274 Y83.749 E0.05879
G1 X151.082 Y84.093 E0.01237
G1 X149.761 Y82.771 E0.05879
G1 X149.570 Y83.115 E0.01237
G1 X151.016 Y84.561 E0.06434
G1 F8640
G1 X149.570 Y83.115 E-0.47234
G1 X149.761 Y82.771 E-0.09082
G1 X150.363 Y83.374 E-0.19683
G1 E-0.04000 F2100.00000
G1 Z0.800 F10800.000
G1 X152.224 Y86.304
G1 Z0.200
G1 E0.80000 F2100.00000
G1 F1200
G1 X149.378 Y83.459 E0.12659
G1 X149.187 Y83.802 E0.01237
G1 X151.922 Y86.537 E0.12166
G1 X151.747 Y86.897 E0.01259
G1 X148.996 Y84.146 E0.12238
G1 X148.805 Y84.490 E0.01237
G1 X151.572 Y87.257 E0.12309
G1 X151.397 Y87.617 E0.01259
G1 X148.614 Y84.834 E0.12381
G1 X148.422 Y85.177 E0.01237
G1 X151.222 Y87.977 E0.12453
G1 X151.047 Y88.337 E0.01259
G1 X148.231 Y85.521 E0.12525
G1 X148.040 Y85.865 E0.01237
G1 X150.872 Y88.697 E0.12597
G1 X150.697 Y89.057 E0.01259
G1 X147.849 Y86.209 E0.12669
G1 X147.658 Y86.552 E0.01237
G1 X150.522 Y89.417 E0.12740
G1 X150.347 Y89.777 E0.01259
G1 X147.467 Y86.896 E0.12812
G1 X147.275 Y87.240 E0.01237
G1 X150.172 Y90.136 E0.12884
G1 X149.997 Y90.496 E0.01259
G1 X147.084 Y87.584 E0.12956
G1 X146.893 Y87.927 E0.01237
G1 X149.822 Y90.856 E0.13028
G1 X149.647 Y91.216 E0.01259
G1 X146.702 Y88.271 E0.13100
G1 X146.511 Y88.615 E0.01237
G1 X149.472 Y91.576 E0.13172
G1 X149.297 Y91.936 E0.01259
G1 X146.320 Y88.959 E0.13243
G1 X146.128 Y89.302 E0.01237
G1 X149.122 Y92.296 E0.13315
G1 X148.947 Y92.656 E0.01259
G1 X145.937 Y89.646 E0.13387
G1 X145.746 Y89.990 E0.01237
G1 X148.772 Y93.016 E0.13459
G1 X148.597 Y93.376 E0.01259
G1 X145.555 Y90.334 E0.13531
G1 X145.364 Y90.677 E0.01237
G1 X148.422 Y93.736 E0.13603
G1 X148.247 Y94.095 E0.01259
G1 X145.172 Y91.021 E0.13674
G1 X144.981 Y91.365 E0.01237
G1 X148.072 Y94.455 E0.13746
G1 X147.897 Y94.815 E0.01259
G1 X144.790 Y91.709 E0.13818
G1 X144.599 Y92.053 E0.01237
G1 X147.722 Y95.175 E0.13890
G1 X147.547 Y95.535 E0.01259
G1 X144.408 Y92.396 E0.13962
G1 X144.217 Y92.740 E0.01237
G1 X147.372 Y95.895 E0.14034
G1 X147.197 Y96.255 E0.01259
G1 X144.025 Y93.084 E0.14105
G1 X143.834 Y93.428 E0.01237
G1 X147.022 Y96.615 E0.14177
G1 X146.847 Y96.975 E0.01259
G1 X143.643 Y93.771 E0.14249
G1 X143.452 Y94.115 E0.01237
G1 X146.671 Y97.335 E0.14321
G1 X146.496 Y97.695 E0.01259
G1 X143.261 Y94.459 E0.14393
G1 X143.070 Y94.803 E0.01237
G1 X146.321 Y98.055 E0.14465
G1 X146.146 Y98.414 E0.01259
G1 X142.878 Y95.146 E0.14536
G1 X142.687 Y95.490 E0.01237
G1 X145.971 Y98.774 E0.14608
G1 X145.796 Y99.134 E0.01259
G1 X142.496 Y95.834 E0.14680
G1 X142.305 Y96.178 E0.01237
G1 X145.621 Y99.494 E0.14752
G1 X145.446 Y99.854 E0.01259
G1 X142.114 Y96.521 E0.14824
G1 X141.922 Y96.865 E0.01237
G1 X145.271 Y100.214 E0.14896
G1 X145.096 Y100.574 E0.01259
G1 X141.731 Y97.209 E0.14967
G1 X141.540 Y97.553 E0.01237
G1 X144.921 Y100.934 E0.15039
G1 X144.746 Y101.294 E0.01259
G1 X141.349 Y97.896 E0.15111
G1 X141.158 Y98.240 E0.01237
G1 X144.571 Y101.654 E0.15183
G1 X144.396 Y102.014 E0.01259
G1 X140.967 Y98.584 E0.15255
G1 X140.775 Y98.928 E0.01237
G1 X144.221 Y102.373 E0.15327
G1 X144.046 Y102.733 E0.01259
G1 X140.584 Y99.271 E0.15398
G1 X140.393 Y99.615 E0.01237
G1 X143.871 Y103.093 E0.15470
G1 X143.696 Y103.453 E0.01259
G1 X140.202 Y99.959 E0.15542
G1 X140.011 Y100.303 E0.01237
G1 X143.521 Y103.813 E0.15614
G1 X143.346 Y104.173 E0.01259
G1 X139.819 Y100.647 E0.15686
G1 X139.628 Y100.990 E0.01237
G1 X143.171 Y104.533 E0.15758
G1 X142.996 Y104.893 E0.01259
G1 X139.437 Y101.334 E0.15829
G1 X139.246 Y101.678 E0.01237
G1 X142.821 Y105.253 E0.15901
G1 X142.646 Y105.613 E0.01259
G1 X139.055 Y102.022 E0.15973
G1 X138.864 Y102.365 E0.01237
G1 X142.471 Y105.973 E0.16045
G1 X142.296 Y106.332 E0.01259
G1 X138.672 Y102.709 E0.16117
G1 X138.481 Y103.053 E0.01237
G1 X142.121 Y106.692 E0.16189
G1 X141.946 Y107.052 E0.01259
G1 X138.290 Y103.397 E0.16260
G1 X138.099 Y103.740 E0.01237
G1 X141.771 Y107.412 E0.16332
G1 X141.596 Y107.772 E0.01259
G1 X137.908 Y104.084 E0.16404
G1 X137.717 Y104.428 E0.01237
G1 X141.421 Y108.132 E0.16476
G1 X141.246 Y108.492 E0.01259
G1 X137.525 Y104.772 E0.16548
G1 X137.334 Y105.115 E0.01237
G1 X141.071 Y108.852 E0.16620
G1 X140.896 Y109.212 E0.01259
G1 X137.143 Y105.459 E0.16691
G1 X136.952 Y105.803 E0.01237
G1 X140.721 Y109.572 E0.16763
G1 X140.546 Y109.932 E0.01259
G1 X136.761 Y106.147 E0.16835
G1 X136.569 Y106.490 E0.01237
G1 X140.370 Y110.291 E0.16907
G1 X140.195 Y110.651 E0.01259
G1 X136.378 Y106.834 E0.16979
G1 X136.187 Y107.178 E0.01237
G1 X140.020 Y111.011 E0.17051
G1 X139.845 Y111.371 E0.01259
G1 X135.996 Y107.522 E0.17123
G1 X135.805 Y107.865 E0.01237
G1 X139.670 Y111.731 E0.17194
G1 X139.495 Y112.091 E0.01259
G1 X135.614 Y108.209 E0.17266
G1 X135.422 Y108.553 E0.01237
G1 X139.320 Y112.451 E0.17338
G1 X139.145 Y112.811 E0.01259
G1 X135.231 Y108.897 E0.17410
G1 X135.040 Y109.241 E0.01237
G1 X138.970 Y113.171 E0.17482
G1 X138.795 Y113.531 E0.01259
G1 X134.849 Y109.584 E0.17554
G1 X134.658 Y109.928 E0.01237
G1 X138.620 Y113.891 E0.17625
G1 X138.445 Y114.250 E0.01259
G1 X134.467 Y110.272 E0.17697
G1 X134.275 Y110.616 E0.01237
G1 X138.270 Y114.610 E0.17769
G1 X138.095 Y114.970 E0.01259
G1 X134.084 Y110.959 E0.17841
G1 X133.893 Y111.303 E0.01237
G1 X137.920 Y115.330 E0.17913
G1 X137.745 Y115.690 E0.01259
G1 X133.702 Y111.647 E0.17985
G1 X133.511 Y111.991 E0.01237
G1 X137.570 Y116.050 E0.18056
G1 X137.395 Y116.410 E0.01259
G1 X133.319 Y112.334 E0.18128
G1 X133.128 Y112.678 E0.01237
G1 X137.220 Y116.770 E0.18200
G1 X137.045 Y117.130 E0.01259
G1 X132.937 Y113.022 E0.18272
G1 X132.746 Y113.366 E0.01237
G1 X136.870 Y117.490 E0.18344
G1 X136.695 Y117.850 E0.01259
G1 X132.555 Y113.709 E0.18416
G1 X132.364 Y114.053 E0.01237
G1 X136.520 Y118.209 E0.18487
G1 X136.345 Y118.569 E0.01259
G1 X132.172 Y114.397 E0.18559
G1 X131.981 Y114.741 E0.01237
G1 X136.170 Y118.929 E0.18631
G1 X135.995 Y119.289 E0.01259
G1 X131.790 Y115.084 E0.18703
G1 X131.599 Y115.428 E0.01237
G1 X135.820 Y119.649 E0.18775
G1 X135.645 Y120.009 E0.01259
G1 X131.408 Y115.772 E0.18847
G1 X131.217 Y116.116 E0.01237
G1 X135.470 Y120.369 E0.18918
G1 X135.295 Y120.729 E0.01259
G1 X131.025 Y116.459 E0.18990
G1 X130.834 Y116.803 E0.01237
G1 X135.120 Y121.089 E0.19062
G1 X134.945 Y121.449 E0.01259
G1 X130.643 Y117.147 E0.19134
G1 X130.452 Y117.491 E0.01237
G1 X134.770 Y121.809 E0.19206
G1 X134.595 Y122.169 E0.01259
G1 X130.261 Y117.835 E0.19278
G1 X130.069 Y118.178 E0.01237
G1 X134.420 Y122.528 E0.19349
G1 X134.245 Y122.888 E0.01259
G1 X129.878 Y118.522 E0.19421
G1 X129.687 Y118.866 E0.01237
G1 X134.070 Y123.248 E0.19493
G1 X133.894 Y123.608 E0.01259
G1 X129.496 Y119.210 E0.19565
G1 X129.286 Y119.535 E0.01217
G1 X133.719 Y123.968 E0.19719
G1 X133.544 Y124.328 E0.01259
G1 X129.073 Y119.857 E0.19888
G1 X128.828 Y120.146 E0.01194
