; generated by SuperSlicer 2.3.55 on 2021-06-17 at 09:07:28 UTC

; 

; external perimeters extrusion width = 0.45mm
; perimeters extrusion width = 0.45mm
; infill extrusion width = 0.45mm
; solid infill extrusion width = 0.45mm
; top infill extrusion width = 0.40mm
; support material extrusion width = 0.35mm
; first layer extrusion width = 0.42mm

; object:{"name":"frontlasermounting","id":"frontlasermounting.STL id:0 copy 0","object_center":[125.000000,105.000000,0.000000],"boundingbox_center":[125.000000,105.000000,5.000000],"boundingbox_size":[79.000000,78.996075,10.000000]}
; Total objects to print: 1
M486 T1
; plater:{"center":[125.000000,105.000000,0.000000],"boundingbox_center":[125.000000,105.000000,5.000000],"boundingbox_size":[79.000000,78.996075,10.000000]}

M73 P0 R51
M73 Q0 S59
;TYPE:Custom
M862.3 P "MK3S" ; printer model check
M862.1 P0.4 ; nozzle diameter check
M115 U3.9.2 ; tell printer latest fw version
G90 ; use absolute coordinates
M83 ; extruder relative mode
M104 S215 ; set extruder temp
M140 S60 ; set bed temp
M190 S60 ; wait for bed temp
M109 S215 ; wait for extruder temp
G28 W ; home all without mesh bed level
G80 ; mesh bed leveling
G1 Y-3.0 F1000.0 ; go outside print area
G92 E0.0
G1 X60.0 E9.0 F1000.0 ; intro line
G1 X100.0 E12.5 F1000.0 ; intro line
G92 E0.0
M221 S95

; Don't change E values below. Excessive value can damage the printer.

M107
G21 ; set units to millimeters
G90 ; use absolute coordinates
M83 ; use relative distances for extrusion
M900 K0.05 ; Filament gcode LA 1.5
M900 K30 ; Filament gcode LA 1.0
M107
;LAYER_CHANGE
;Z:0.2
;HEIGHT:0.2
;BEFORE_LAYER_CHANGE
;0.2


G1 E-0.80000 F2100.000
G1 Z0.400000 F10800.000
;AFTER_LAYER_CHANGE
;0.2
G1 X84.863 Y90.974
G1 Z0.200000
G1 E0.80000 F2100.000
;TYPE:Skirt
;WIDTH:0.42
G1 F1200.000
M204 P1000
G1 X116.844 Y61.141 E1.37130
G1 X118.461 Y60.049 E0.06118
G1 X119.484 Y59.520 E0.03610
G1 X120.644 Y59.052 E0.03922
G1 X121.894 Y58.683 E0.04088
G1 X122.992 Y58.469 E0.03506
G1 X124.851 Y58.313 E0.05848
G1 X126.028 Y58.352 E0.03694
G1 X127.230 Y58.502 E0.03797
G1 X129.348 Y59.049 E0.06859
G1 X130.527 Y59.526 E0.03989
G1 X131.596 Y60.081 E0.03776
G1 X133.378 Y61.315 E0.06797
G1 X167.945 Y93.594 E1.48291
M73 Q0 S58
G1 X168.557 Y94.264 E0.02843
G1 X169.075 Y95.000 E0.02823
G1 X172.955 Y101.754 E0.24424
G1 X173.302 Y102.614 E0.02906
G1 X173.538 Y103.517 E0.02926
G1 X173.651 Y104.396 E0.02781
G1 X173.667 Y105.465 E0.03350
G1 X173.615 Y106.330 E0.02719
G1 X173.459 Y107.183 E0.02719
G1 X173.199 Y108.018 E0.02740
G1 X172.842 Y108.808 E0.02719
G1 X170.252 Y113.289 E0.16227
G1 X168.717 Y115.528 E0.08513
G1 X167.891 Y116.458 E0.03900
G1 X133.380 Y148.684 E1.48048
G1 X132.372 Y149.436 E0.03942
G1 X131.395 Y150.032 E0.03589
G1 X129.635 Y150.844 E0.06077
G1 X128.580 Y151.193 E0.03485
G1 X127.316 Y151.484 E0.04067
G1 X126.049 Y151.647 E0.04005
G1 X124.845 Y151.687 E0.03776
G1 X122.576 Y151.464 E0.07149
G1 X121.370 Y151.179 E0.03885
G1 X120.272 Y150.810 E0.03631
G1 X118.566 Y150.009 E0.05911
G1 X117.612 Y149.425 E0.03507
G1 X116.585 Y148.655 E0.04025
G1 X82.302 Y116.411 E1.47564
G1 X80.583 Y114.378 E0.08349
G1 X77.137 Y108.769 E0.20640
G1 X76.745 Y107.864 E0.03092
G1 X76.482 Y106.921 E0.03071
G1 X76.352 Y105.990 E0.02947
G1 X76.333 Y104.875 E0.03497
G1 X76.530 Y103.201 E0.05284
G1 X77.112 Y101.619 E0.05284
G1 X80.933 Y94.987 E0.23998
G1 X81.457 Y94.247 E0.02843
G1 X82.075 Y93.575 E0.02864
G1 X84.819 Y91.015 E0.11766
;WIPE_START
G1 F8640.000
G1 X87.226 Y88.770 E-0.76000
;WIPE_END
G1 E-0.04000 F2100.000
G1 Z1.000000 F10800.000
G1 X82.929 Y100.031
G1 Z0.200000
G1 E0.80000 F2100.000
G1 F1200.000
G1 X81.289 Y102.876 E0.10297
G1 X80.929 Y103.885 E0.03360
G1 X80.843 Y104.371 E0.01548
G1 X80.822 Y105.395 E0.03209
G1 X80.886 Y105.915 E0.01644
G1 X81.037 Y106.509 E0.01923
G1 X81.248 Y107.040 E0.01790
G1 X82.933 Y109.971 E0.10599
G1 X83.503 Y110.207 E0.01936
G1 X81.588 Y106.876 E0.12048
G1 X81.256 Y105.844 E0.03397
G1 X81.193 Y104.798 E0.03286
G1 X81.301 Y103.951 E0.02679
G1 X81.637 Y103.025 E0.03089
G1 X83.500 Y99.794 E0.11692
G1 X84.066 Y99.566 E0.01915
G1 X81.973 Y103.196 E0.13138
G1 X81.796 Y103.602 E0.01392
G1 X81.592 Y104.462 E0.02771
G1 X81.574 Y105.333 E0.02730
G1 X81.755 Y106.279 E0.03020
G1 X81.933 Y106.724 E0.01502
G1 X84.068 Y110.434 E0.13423
G1 X84.539 Y110.496 E0.01488
G1 X82.272 Y106.559 E0.14246
G1 X81.997 Y105.702 E0.02822
G1 X81.947 Y104.799 E0.02833
G1 X82.033 Y104.133 E0.02107
G1 X82.313 Y103.358 E0.02583
G1 X84.537 Y99.504 E0.13953
G1 X85.008 Y99.442 E0.01490
G1 X82.647 Y103.534 E0.14812
G1 X82.398 Y104.225 E0.02303
G1 X82.340 Y104.555 E0.01053
G1 X82.327 Y105.288 E0.02298
G1 X82.478 Y106.063 E0.02476
G1 X82.633 Y106.438 E0.01270
G1 X85.009 Y110.558 E0.14913
G1 X85.480 Y110.620 E0.01489
G1 X82.971 Y106.270 E0.15745
G1 X82.738 Y105.561 E0.02340
G1 X82.701 Y104.801 E0.02387
G1 X82.764 Y104.317 E0.01530
G1 X82.982 Y103.708 E0.02028
G1 X85.479 Y99.380 E0.15667
G1 X85.887 Y99.428 E0.01286
G1 X83.325 Y103.866 E0.16066
G1 X83.130 Y104.408 E0.01806
G1 X83.079 Y105.239 E0.02611
G1 X83.195 Y105.828 E0.01883
G1 X83.309 Y106.104 E0.00938
G1 X85.887 Y110.572 E0.16173
G1 X86.292 Y110.519 E0.01279
G1 X83.645 Y105.933 E0.16599
G1 X83.478 Y105.418 E0.01699
G1 X83.455 Y104.803 E0.01929
G1 X83.495 Y104.504 E0.00947
G1 X83.657 Y104.045 E0.01526
G1 X86.291 Y99.481 E0.16522
G1 X86.697 Y99.535 E0.01282
G1 X83.988 Y104.225 E0.16983
G1 X83.832 Y104.806 E0.01885
G1 X83.848 Y105.341 E0.01678
G1 X83.982 Y105.764 E0.01391
G1 X86.694 Y110.461 E0.17005
G1 X87.096 Y110.373 E0.01290
G1 X84.318 Y105.592 E0.17339
G1 X84.221 Y105.286 E0.01006
G1 X84.209 Y104.812 E0.01485
G1 X84.318 Y104.408 E0.01311
G1 X87.096 Y99.627 E0.17339
G1 X87.454 Y99.775 E0.01215
G1 X84.650 Y104.586 E0.17459
G1 X84.586 Y104.825 E0.00774
G1 X84.586 Y105.175 E0.01100
G1 X84.650 Y105.414 E0.00774
G1 X87.344 Y110.080 E0.16894
G1 X87.453 Y110.225 E0.00569
G1 X87.828 Y110.070 E0.01270
G1 X87.668 Y109.886 E0.00763
G1 X84.989 Y105.247 E0.16798
G1 X84.964 Y104.849 E0.01248
G1 X87.668 Y100.114 E0.17099
G1 X87.828 Y99.930 E0.00763
G1 X88.203 Y100.086 E0.01275
G1 X88.018 Y100.275 E0.00831
G1 X85.341 Y104.899 E0.16754
G1 X85.341 Y105.101 E0.00634
G1 X88.018 Y109.725 E0.16754
G1 X88.203 Y109.914 E0.00831
;WIPE_START
G1 F8640.000
G1 X88.018 Y109.725 E-0.06118
G1 X86.501 Y107.106 E-0.69882
;WIPE_END
G1 E-0.04000 F2100.000
G1 Z0.600000 F10800.000
G1 X82.244 Y109.529
G1 Z0.200000
G1 E0.80000 F2100.000
G1 F1200.000
G1 X80.908 Y107.203 E0.08412
G1 X80.687 Y106.653 E0.01857
G1 X80.519 Y106.006 E0.02095
G1 X80.439 Y104.797 E0.03800
G1 X80.562 Y103.797 E0.03161
G1 X80.730 Y103.223 E0.01875
G1 X80.952 Y102.708 E0.01757
G1 X82.238 Y100.476 E0.08076
;WIPE_START
G1 F8640.000
G1 X80.952 Y102.708 E-0.59473
G1 X80.730 Y103.223 E-0.12938
M73 P1 R51
G1 X80.686 Y103.372 E-0.03589
;WIPE_END
G1 E-0.04000 F2100.000
G1 Z0.600000 F10800.000
G1 X81.377 Y101.215
G1 Z0.200000
G1 E0.80000 F2100.000
G1 F1200.000
G1 X80.615 Y102.539 E0.04790
G1 X80.375 Y103.096 E0.01902
G1 X80.195 Y103.708 E0.02001
G1 X80.062 Y104.797 E0.03438
G1 X80.074 Y105.509 E0.02235
G1 X80.149 Y106.080 E0.01803
G1 X80.319 Y106.740 E0.02139
G1 X80.554 Y107.337 E0.02011
G1 X81.355 Y108.756 E0.05108
;WIPE_START
G1 F8640.000
G1 X80.554 Y107.337 E-0.37619
G1 X80.319 Y106.740 E-0.14806
G1 X80.149 Y106.080 E-0.15752
G1 X80.105 Y105.744 E-0.07823
;WIPE_END
G1 E-0.04000 F2100.000
G1 Z0.600000 F10800.000
G1 X119.822 Y142.061
G1 Z0.200000
G1 E0.80000 F2100.000
G1 F1200.000
G1 X121.047 Y143.262 E0.05380
G1 X122.099 Y143.966 E0.03967
G1 X123.271 Y144.442 E0.03967
G1 X123.887 Y144.587 E0.01986
G1 X124.851 Y144.687 E0.03038
G1 X126.113 Y144.587 E0.03967
G1 X126.729 Y144.442 E0.01986
G1 X127.901 Y143.966 E0.03967
G1 X128.953 Y143.262 E0.03967
G1 X129.962 Y142.280 E0.04414
G1 X130.119 Y142.659 E0.01284
G1 X129.197 Y143.549 E0.04018
G1 X128.082 Y144.297 E0.04209
G1 X126.839 Y144.803 E0.04209
G1 X126.185 Y144.958 E0.02107
G1 X124.846 Y145.064 E0.04209
G1 X123.812 Y144.957 E0.03261
G1 X123.161 Y144.803 E0.02096
G1 X121.918 Y144.297 E0.04209
G1 X120.803 Y143.549 E0.04209
G1 X119.665 Y142.439 E0.04985
G1 X119.508 Y142.817 E0.01284
G1 X120.561 Y143.838 E0.04597
G1 X121.130 Y144.264 E0.02228
G1 X121.740 Y144.629 E0.02228
G1 X122.379 Y144.929 E0.02213
G1 X123.054 Y145.164 E0.02243
G1 X124.142 Y145.389 E0.03482
G1 X124.844 Y145.441 E0.02207
G1 X125.550 Y145.421 E0.02213
G1 X126.254 Y145.328 E0.02228
G1 X126.946 Y145.164 E0.02228
G1 X127.617 Y144.930 E0.02228
G1 X128.260 Y144.629 E0.02228
G1 X128.870 Y144.264 E0.02228
G1 X129.439 Y143.838 E0.02228
G1 X130.275 Y143.037 E0.03631
G1 X130.339 Y143.510 E0.01496
G1 X129.680 Y144.128 E0.02832
G1 X129.080 Y144.577 E0.02349
G1 X128.438 Y144.962 E0.02349
G1 X127.759 Y145.280 E0.02349
G1 X127.052 Y145.526 E0.02349
G1 X126.323 Y145.699 E0.02349
G1 X125.580 Y145.797 E0.02349
G1 X124.843 Y145.818 E0.02311
G1 X124.103 Y145.764 E0.02325
G1 X122.948 Y145.526 E0.03697
G1 X122.230 Y145.275 E0.02387
G1 X121.562 Y144.962 E0.02311
G1 X120.920 Y144.577 E0.02349
G1 X120.320 Y144.128 E0.02349
G1 X119.390 Y143.235 E0.04043
M73 Q1 S58
G1 X119.327 Y143.709 E0.01500
G1 X120.079 Y144.418 E0.03239
G1 X120.710 Y144.890 E0.02470
G1 X121.384 Y145.294 E0.02466
G1 X122.080 Y145.621 E0.02410
G1 X122.842 Y145.888 E0.02531
G1 X124.066 Y146.139 E0.03920
G1 X124.842 Y146.195 E0.02438
G1 X125.610 Y146.172 E0.02410
G1 X126.392 Y146.070 E0.02470
G1 X127.157 Y145.888 E0.02466
G1 X127.901 Y145.629 E0.02470
G1 X128.615 Y145.295 E0.02470
G1 X129.290 Y144.890 E0.02470
G1 X129.921 Y144.418 E0.02470
G1 X130.401 Y143.978 E0.02041
G1 X130.461 Y144.433 E0.01440
G1 X129.468 Y145.225 E0.03980
G1 X128.793 Y145.627 E0.02467
G1 X128.044 Y145.978 E0.02591
G1 X127.264 Y146.250 E0.02592
G1 X126.461 Y146.440 E0.02587
G1 X125.641 Y146.548 E0.02591
G1 X124.842 Y146.572 E0.02509
G1 X124.030 Y146.515 E0.02552
G1 X122.731 Y146.248 E0.04157
G1 X121.933 Y145.968 E0.02652
G1 X121.208 Y145.628 E0.02512
G1 X120.500 Y145.203 E0.02588
G1 X119.838 Y144.708 E0.02591
G1 X119.265 Y144.182 E0.02439
G1 X119.247 Y144.677 E0.01552
G1 X120.290 Y145.517 E0.04199
G1 X121.031 Y145.961 E0.02709
G1 X121.785 Y146.315 E0.02611
G1 X122.624 Y146.610 E0.02788
G1 X123.993 Y146.890 E0.04383
G1 X124.841 Y146.949 E0.02665
G1 X125.673 Y146.924 E0.02607
G1 X126.530 Y146.811 E0.02712
G1 X127.370 Y146.612 E0.02708
G1 X128.187 Y146.327 E0.02713
G1 X128.933 Y145.980 E0.02580
G1 X129.677 Y145.538 E0.02713
G1 X130.404 Y144.994 E0.02846
G1 X130.335 Y145.520 E0.01662
G1 X129.887 Y145.852 E0.01749
G1 X129.109 Y146.313 E0.02834
G1 X128.331 Y146.675 E0.02693
G1 X127.477 Y146.973 E0.02834
G1 X126.600 Y147.182 E0.02828
G1 X125.704 Y147.300 E0.02833
G1 X124.841 Y147.326 E0.02706
G1 X123.349 Y147.171 E0.04704
G1 X122.517 Y146.971 E0.02683
G1 X121.637 Y146.662 E0.02924
G1 X120.855 Y146.294 E0.02710
G1 X120.080 Y145.829 E0.02833
G1 X119.324 Y145.258 E0.02971
G1 X119.393 Y145.786 E0.01670
G1 X119.870 Y146.143 E0.01867
G1 X120.667 Y146.621 E0.02915
G1 X121.489 Y147.009 E0.02848
G1 X122.408 Y147.333 E0.03056
G1 X123.900 Y147.639 E0.04776
G1 X124.841 Y147.703 E0.02956
G1 X125.735 Y147.676 E0.02805
G1 X126.669 Y147.552 E0.02954
G1 X127.584 Y147.335 E0.02949
G1 X128.474 Y147.024 E0.02955
G1 X129.285 Y146.647 E0.02805
G1 X130.231 Y146.065 E0.03481
G1 X129.980 Y146.672 E0.02060
G1 X129.461 Y146.980 E0.01890
G1 X128.618 Y147.373 E0.02918
G1 X127.691 Y147.696 E0.03076
G1 X126.739 Y147.923 E0.03070
G1 X125.766 Y148.051 E0.03075
G1 X124.841 Y148.080 E0.02904
G1 X123.861 Y148.014 E0.03078
G1 X122.301 Y147.694 E0.04993
G1 X121.341 Y147.355 E0.03193
G1 X120.489 Y146.954 E0.02954
G1 X119.607 Y146.416 E0.03238
G1 X119.853 Y147.011 E0.02020
G1 X121.193 Y147.702 E0.04726
G1 X122.194 Y148.056 E0.03329
G1 X123.822 Y148.389 E0.05211
G1 X124.841 Y148.457 E0.03200
G1 X125.798 Y148.427 E0.03003
G1 X126.808 Y148.294 E0.03196
G1 X127.799 Y148.058 E0.03191
G1 X128.761 Y147.721 E0.03198
G1 X129.739 Y147.253 E0.03400
G1 X129.259 Y147.905 F10800.000
G1 F1200.000
G1 X127.906 Y148.419 E0.04538
G1 X126.878 Y148.664 E0.03312
G1 X125.829 Y148.803 E0.03317
G1 X124.841 Y148.834 E0.03102
G1 X123.784 Y148.764 E0.03322
G1 X123.041 Y148.648 E0.02356
G1 X122.087 Y148.417 E0.03077
G1 X121.045 Y148.049 E0.03465
G1 X120.260 Y147.679 E0.02723
G1 X120.761 Y148.332 F10800.000
G1 F1200.000
G1 X121.980 Y148.779 E0.04071
G1 X122.965 Y149.017 E0.03175
G1 X123.745 Y149.139 E0.02476
G1 X124.841 Y149.211 E0.03443
G1 X125.861 Y149.179 E0.03201
G1 X126.948 Y149.035 E0.03439
G1 X128.013 Y148.781 E0.03433
G1 X128.765 Y148.518 E0.02499
;WIPE_START
G1 F8640.000
G1 X128.013 Y148.781 E-0.18400
G1 X126.948 Y149.035 E-0.25282
G1 X125.861 Y149.179 E-0.25322
G1 X125.558 Y149.188 E-0.06996
;WIPE_END
G1 E-0.04000 F2100.000
G1 Z0.600000 F10800.000
G1 X127.875 Y149.201
G1 Z0.200000
G1 E0.80000 F2100.000
G1 F1200.000
G1 X127.018 Y149.405 E0.02764
G1 X125.892 Y149.554 E0.03560
G1 X124.841 Y149.589 E0.03300
G1 X123.706 Y149.514 E0.03565
G1 X122.888 Y149.387 E0.02596
G1 X121.624 Y149.052 E0.04099
;WIPE_START
G1 F8640.000
G1 X122.888 Y149.387 E-0.30188
G1 X123.706 Y149.514 E-0.19120
G1 X124.841 Y149.589 E-0.26256
G1 X124.860 Y149.588 E-0.00437
;WIPE_END
G1 E-0.04000 F2100.000
G1 Z0.600000 F10800.000
G1 X123.069 Y149.796
G1 Z0.200000
G1 E0.80000 F2100.000
G1 F1200.000
G1 X123.667 Y149.889 E0.01900
G1 X124.841 Y149.966 E0.03687
G1 X125.924 Y149.930 E0.03398
G1 X126.477 Y149.857 E0.01749
;WIPE_START
G1 F8640.000
G1 X125.924 Y149.930 E-0.12877
G1 X124.841 Y149.966 E-0.25027
G1 X123.667 Y149.889 E-0.27153
G1 X123.199 Y149.816 E-0.10944
;WIPE_END
G1 E-0.04000 F2100.000
G1 Z0.600000 F10800.000
G1 X167.071 Y109.969
G1 Z0.200000
G1 E0.80000 F2100.000
G1 F1200.000
G1 X168.710 Y107.124 E0.10295
G1 X169.071 Y106.115 E0.03361
G1 X169.157 Y105.629 E0.01548
G1 X169.178 Y104.605 E0.03209
G1 X169.114 Y104.085 E0.01644
G1 X168.963 Y103.491 E0.01923
G1 X168.752 Y102.960 E0.01791
G1 X167.067 Y100.029 E0.10599
G1 X166.497 Y99.793 E0.01936
G1 X168.412 Y103.124 E0.12048
G1 X168.744 Y104.156 E0.03398
G1 X168.807 Y105.202 E0.03286
G1 X168.699 Y106.049 E0.02679
G1 X168.363 Y106.976 E0.03090
G1 X166.500 Y110.206 E0.11691
G1 X165.934 Y110.434 E0.01915
G1 X168.027 Y106.805 E0.13138
G1 X168.204 Y106.398 E0.01392
G1 X168.408 Y105.538 E0.02771
G1 X168.426 Y104.667 E0.02730
G1 X168.245 Y103.721 E0.03020
G1 X168.067 Y103.276 E0.01503
G1 X165.932 Y99.566 E0.13423
G1 X165.461 Y99.504 E0.01488
G1 X167.728 Y103.441 E0.14246
G1 X168.003 Y104.298 E0.02823
G1 X168.053 Y105.201 E0.02833
G1 X167.967 Y105.867 E0.02107
G1 X167.687 Y106.642 E0.02583
G1 X165.463 Y110.496 E0.13953
G1 X164.992 Y110.558 E0.01490
G1 X167.353 Y106.466 E0.14812
G1 X167.602 Y105.775 E0.02303
G1 X167.660 Y105.445 E0.01053
G1 X167.673 Y104.712 E0.02298
G1 X167.522 Y103.937 E0.02476
G1 X167.367 Y103.562 E0.01271
G1 X164.991 Y99.442 E0.14913
G1 X164.520 Y99.380 E0.01489
G1 X167.029 Y103.730 E0.15745
G1 X167.262 Y104.439 E0.02341
G1 X167.299 Y105.199 E0.02387
G1 X167.236 Y105.683 E0.01530
G1 X167.018 Y106.292 E0.02028
G1 X164.521 Y110.620 E0.15667
G1 X164.113 Y110.572 E0.01286
G1 X166.675 Y106.134 E0.16066
G1 X166.870 Y105.592 E0.01806
G1 X166.921 Y104.761 E0.02611
G1 X166.805 Y104.172 E0.01883
G1 X166.691 Y103.896 E0.00938
G1 X164.113 Y99.428 E0.16172
G1 X163.708 Y99.481 E0.01279
G1 X166.355 Y104.067 E0.16599
G1 X166.522 Y104.582 E0.01700
G1 X166.545 Y105.197 E0.01929
G1 X166.505 Y105.496 E0.00947
G1 X166.343 Y105.955 E0.01526
G1 X163.709 Y110.519 E0.16522
G1 X163.303 Y110.465 E0.01282
G1 X166.012 Y105.775 E0.16983
G1 X166.150 Y105.353 E0.01391
G1 X166.152 Y104.659 E0.02178
G1 X166.018 Y104.236 E0.01391
G1 X163.306 Y99.539 E0.17005
G1 X162.904 Y99.627 E0.01290
G1 X165.682 Y104.408 E0.17339
G1 X165.779 Y104.714 E0.01006
G1 X165.791 Y105.188 E0.01485
G1 X165.682 Y105.592 E0.01311
G1 X162.904 Y110.373 E0.17339
G1 X162.546 Y110.225 E0.01215
G1 X165.350 Y105.414 E0.17459
G1 X165.414 Y105.175 E0.00774
G1 X165.414 Y104.825 E0.01100
G1 X165.350 Y104.586 E0.00774
G1 X162.656 Y99.920 E0.16894
G1 X162.547 Y99.775 E0.00569
G1 X162.172 Y99.930 E0.01270
G1 X162.332 Y100.114 E0.00763
