; generated by Slic3r Prusa Edition 1.42.0-beta2+linux64 on 2019-06-18 at 12:12:51

; 

; external perimeters extrusion width = 0.45mm
; perimeters extrusion width = 0.45mm
; infill extrusion width = 0.45mm
; solid infill extrusion width = 0.45mm
; top infill extrusion width = 0.40mm
; support material extrusion width = 0.35mm
; first layer extrusion width = 0.42mm

M73 P0 R60
M73 Q0 S62
M201 X1000 Y1000 Z1000 E5000 ; sets maximum accelerations, mm/sec^2
M203 X200 Y200 Z12 E120 ; sets maximum feedrates, mm/sec
M204 P1250 R1250 T1250 ; sets acceleration (P, T) and retract acceleration (R), mm/sec^2
M205 X8.00 Y8.00 Z0.40 E1.50 ; sets the jerk limits, mm/sec
M205 S0 T0 ; sets the minimum extruding and travel feed rate, mm/sec
M107
M115 U3.6.0 ; tell printer latest fw version
M83  ; extruder relative mode
M104 S215 ; set extruder temp
M140 S60 ; set bed temp
M190 S60 ; wait for bed temp
M109 S215 ; wait for extruder temp
G28 W ; home all without mesh bed level
G80 ; mesh bed leveling
G1 Y-3.0 F1000.0 ; go outside print area
G92 E0.0
G1 X60.0 E9.0  F1000.0 ; intro line
M73 Q0 S62
M73 P0 R60
G1 X100.0 E12.5  F1000.0 ; intro line
G92 E0.0
M221 S95
M900 K30 ; Filament gcode
G21 ; set units to millimeters
G90 ; use absolute coordinates
M83 ; use relative distances for extrusion
;BEFORE_LAYER_CHANGE
G92 E0.0
;0.2


G1 E-0.80000 F2100.00000
G1 Z0.600 F10800.000
;AFTER_LAYER_CHANGE
;0.2
G1 X86.537 Y98.930
G1 Z0.200
G1 E0.80000 F2100.00000
M204 S1000
G1 F1200
G1 X119.175 Y65.745 E1.45941
G1 X120.271 Y64.820 E0.04498
G1 X121.245 Y64.223 E0.03579
G1 X122.285 Y63.780 E0.03545
G1 X123.679 Y63.419 E0.04515
G1 X125.005 Y63.311 E0.04174
G1 X126.321 Y63.419 E0.04140
G1 X127.719 Y63.781 E0.04527
G1 X128.755 Y64.223 E0.03533
G1 X129.729 Y64.820 E0.03579
G1 X130.826 Y65.746 E0.04504
G1 X163.464 Y98.930 E1.45937
G1 X166.433 Y103.973 E0.18347
G1 X166.623 Y104.470 E0.01669
G1 X166.689 Y105.002 E0.01680
G1 X166.623 Y105.530 E0.01669
G1 X166.433 Y106.027 E0.01669
G1 X163.463 Y111.070 E0.18350
G1 X130.825 Y144.255 E1.45941
G1 X129.729 Y145.180 E0.04498
G1 X128.755 Y145.777 E0.03579
G1 X127.716 Y146.220 E0.03545
G1 X126.321 Y146.581 E0.04515
G1 X124.998 Y146.689 E0.04162
G1 X123.679 Y146.581 E0.04151
G1 X122.281 Y146.219 E0.04527
G1 X121.245 Y145.777 E0.03533
G1 X120.271 Y145.180 E0.03579
G1 X119.174 Y144.254 E0.04504
G1 X86.536 Y111.070 E1.45937
G1 X83.567 Y106.027 E0.18347
G1 X83.377 Y105.530 E0.01669
G1 X83.311 Y104.998 E0.01680
G1 X83.377 Y104.470 E0.01669
G1 X83.567 Y103.973 E0.01669
G1 X86.506 Y98.982 E0.18162
G1 F8640
G1 X88.814 Y96.634 E-0.76000
G1 E-0.04000 F2100.00000
G1 Z0.800 F10800.000
G1 X122.353 Y135.346
G1 Z0.200
G1 E0.80000 F2100.00000
G1 F1200
G1 X122.941 Y134.934 E0.02251
G1 X123.592 Y134.630 E0.02251
G1 X124.285 Y134.445 E0.02251
G1 X125.000 Y134.382 E0.02251
G1 X125.715 Y134.445 E0.02251
G1 X126.408 Y134.630 E0.02251
G1 X127.059 Y134.934 E0.02251
G1 X127.647 Y135.346 E0.02251
G1 X128.154 Y135.853 E0.02251
G1 X128.566 Y136.441 E0.02251
G1 X128.869 Y137.092 E0.02251
G1 X129.055 Y137.785 E0.02251
G1 X129.118 Y138.500 E0.02251
G1 X129.055 Y139.215 E0.02251
G1 X128.869 Y139.908 E0.02251
G1 X128.566 Y140.559 E0.02251
G1 X128.154 Y141.147 E0.02251
G1 X127.647 Y141.654 E0.02251
G1 X127.059 Y142.066 E0.02251
G1 X126.408 Y142.370 E0.02251
G1 X125.715 Y142.555 E0.02251
G1 X125.000 Y142.618 E0.02251
G1 X124.285 Y142.555 E0.02251
G1 X123.592 Y142.370 E0.02251
G1 X122.941 Y142.066 E0.02251
G1 X122.353 Y141.654 E0.02251
G1 X121.846 Y141.147 E0.02251
G1 X121.434 Y140.559 E0.02251
G1 X121.130 Y139.908 E0.02251
G1 X120.945 Y139.215 E0.02251
G1 X120.882 Y138.500 E0.02251
G1 X120.945 Y137.785 E0.02251
G1 X121.130 Y137.092 E0.02251
G1 X121.434 Y136.441 E0.02251
G1 X121.846 Y135.853 E0.02251
G1 X122.311 Y135.388 E0.02062
G1 X122.577 Y135.655 F10800.000
G1 F1200
G1 X123.130 Y135.262 E0.02127
G1 X123.721 Y134.986 E0.02044
G1 X124.351 Y134.817 E0.02044
G1 X125.000 Y134.761 E0.02044
G1 X125.649 Y134.817 E0.02044
G1 X126.279 Y134.986 E0.02044
G1 X126.870 Y135.262 E0.02044
G1 X127.404 Y135.636 E0.02044
G1 X127.864 Y136.096 E0.02044
G1 X128.238 Y136.630 E0.02044
G1 X128.514 Y137.221 E0.02044
G1 X128.683 Y137.851 E0.02044
G1 X128.739 Y138.500 E0.02044
G1 X128.683 Y139.149 E0.02044
G1 X128.514 Y139.779 E0.02044
G1 X128.238 Y140.370 E0.02044
G1 X127.864 Y140.904 E0.02044
G1 X127.404 Y141.364 E0.02044
G1 X126.870 Y141.738 E0.02044
G1 X126.279 Y142.014 E0.02044
G1 X125.649 Y142.183 E0.02044
G1 X125.000 Y142.239 E0.02044
G1 X124.351 Y142.183 E0.02044
G1 X123.721 Y142.014 E0.02044
G1 X123.130 Y141.738 E0.02044
G1 X122.596 Y141.364 E0.02044
G1 X122.136 Y140.904 E0.02044
G1 X121.762 Y140.370 E0.02044
G1 X121.486 Y139.779 E0.02044
G1 X121.317 Y139.149 E0.02044
G1 X121.261 Y138.500 E0.02044
G1 X121.317 Y137.851 E0.02044
G1 X121.486 Y137.221 E0.02044
G1 X121.762 Y136.630 E0.02044
G1 X122.136 Y136.096 E0.02044
G1 X122.535 Y135.697 E0.01771
G1 X122.802 Y135.964 F10800.000
G1 F1200
G1 X123.320 Y135.589 E0.02004
G1 X123.851 Y135.342 E0.01837
G1 X124.416 Y135.190 E0.01837
G1 X125.000 Y135.139 E0.01837
G1 X125.584 Y135.190 E0.01837
G1 X126.149 Y135.342 E0.01837
G1 X126.680 Y135.589 E0.01837
G1 X127.160 Y135.925 E0.01837
G1 X127.575 Y136.340 E0.01837
G1 X127.911 Y136.820 E0.01837
G1 X128.158 Y137.351 E0.01837
G1 X128.310 Y137.916 E0.01837
G1 X128.361 Y138.500 E0.01837
G1 X128.310 Y139.084 E0.01837
G1 X128.158 Y139.649 E0.01837
G1 X127.911 Y140.180 E0.01837
G1 X127.575 Y140.660 E0.01837
G1 X127.160 Y141.075 E0.01837
G1 X126.680 Y141.411 E0.01837
G1 X126.149 Y141.658 E0.01837
G1 X125.584 Y141.810 E0.01837
G1 X125.000 Y141.861 E0.01837
G1 X124.416 Y141.810 E0.01837
G1 X123.851 Y141.658 E0.01837
G1 X123.320 Y141.411 E0.01837
G1 X122.840 Y141.075 E0.01837
G1 X122.425 Y140.660 E0.01837
G1 X122.089 Y140.180 E0.01837
G1 X121.842 Y139.649 E0.01837
G1 X121.690 Y139.084 E0.01837
G1 X121.639 Y138.500 E0.01837
G1 X121.690 Y137.916 E0.01837
G1 X121.842 Y137.351 E0.01837
G1 X122.089 Y136.820 E0.01837
G1 X122.425 Y136.340 E0.01837
G1 X122.759 Y136.006 E0.01479
G1 X122.728 Y135.571 F10800.000
G1 F8640
G1 X123.320 Y135.589 E-0.16126
G1 X123.851 Y135.342 E-0.13527
G1 X124.416 Y135.190 E-0.13527
G1 X125.000 Y135.139 E-0.13527
G1 X125.584 Y135.190 E-0.13527
G1 X125.825 Y135.255 E-0.05766
G1 E-0.04000 F2100.00000
G1 Z0.800 F10800.000
G1 X156.237 Y99.609
G1 Z0.200
G1 E0.80000 F2100.00000
G1 F1200
G1 X153.125 Y105.000 E0.19519
G1 X156.237 Y110.391 E0.19519
G1 X158.621 Y110.391 E0.07473
G1 X129.013 Y140.494 E1.32388
G1 X129.225 Y140.038 E0.01577
G1 X129.428 Y139.281 E0.02457
G1 X129.496 Y138.500 E0.02457
G1 X129.428 Y137.719 E0.02457
G1 X129.225 Y136.962 E0.02457
G1 X128.894 Y136.252 E0.02457
G1 X128.444 Y135.610 E0.02457
G1 X127.890 Y135.056 E0.02457
G1 X127.248 Y134.606 E0.02457
G1 X126.538 Y134.275 E0.02457
G1 X125.781 Y134.072 E0.02457
G1 X125.000 Y134.004 E0.02457
G1 X124.219 Y134.072 E0.02457
G1 X123.462 Y134.275 E0.02457
G1 X122.752 Y134.606 E0.02457
G1 X122.110 Y135.056 E0.02457
G1 X121.556 Y135.610 E0.02457
G1 X121.106 Y136.252 E0.02457
G1 X120.775 Y136.962 E0.02457
G1 X120.572 Y137.719 E0.02457
G1 X120.504 Y138.500 E0.02457
G1 X120.572 Y139.281 E0.02457
G1 X120.775 Y140.038 E0.02457
G1 X120.987 Y140.494 E0.01577
G1 X91.379 Y110.391 E1.32388
G1 X93.763 Y110.391 E0.07473
G1 X96.875 Y105.000 E0.19519
G1 X93.763 Y99.609 E0.19519
G1 X91.379 Y99.609 E0.07473
G1 X120.987 Y69.506 E1.32388
G1 X120.775 Y69.962 E0.01577
G1 X120.572 Y70.719 E0.02457
G1 X120.504 Y71.500 E0.02457
G1 X120.572 Y72.281 E0.02457
G1 X120.775 Y73.038 E0.02457
G1 X121.106 Y73.748 E0.02457
G1 X121.556 Y74.390 E0.02457
G1 X122.110 Y74.944 E0.02457
G1 X122.752 Y75.394 E0.02457
G1 X123.462 Y75.725 E0.02457
G1 X124.219 Y75.928 E0.02457
G1 X125.000 Y75.996 E0.02457
G1 X125.781 Y75.928 E0.02457
G1 X126.538 Y75.725 E0.02457
G1 X127.248 Y75.394 E0.02457
G1 X127.890 Y74.944 E0.02457
G1 X128.444 Y74.390 E0.02457
G1 X128.894 Y73.748 E0.02457
G1 X129.225 Y73.038 E0.02457
G1 X129.428 Y72.281 E0.02457
G1 X129.496 Y71.500 E0.02457
G1 X129.428 Y70.719 E0.02457
G1 X129.225 Y69.962 E0.02457
G1 X129.013 Y69.506 E0.01577
G1 X158.621 Y99.609 E1.32388
G1 X156.297 Y99.609 E0.07285
G1 F8640
G1 X154.628 Y102.445 E-0.76000
G1 E-0.04000 F2100.00000
G1 Z0.800 F10800.000
G1 X128.154 Y74.147
G1 Z0.200
G1 E0.80000 F2100.00000
G1 F1200
G1 X127.647 Y74.654 E0.02251
G1 X127.059 Y75.066 E0.02251
G1 X126.408 Y75.370 E0.02251
G1 X125.715 Y75.555 E0.02251
G1 X125.000 Y75.618 E0.02251
G1 X124.285 Y75.555 E0.02251
G1 X123.592 Y75.370 E0.02251
G1 X122.941 Y75.066 E0.02251
G1 X122.353 Y74.654 E0.02251
G1 X121.846 Y74.147 E0.02251
G1 X121.434 Y73.559 E0.02251
G1 X121.130 Y72.908 E0.02251
G1 X120.945 Y72.215 E0.02251
G1 X120.882 Y71.500 E0.02251
G1 X120.945 Y70.785 E0.02251
G1 X121.130 Y70.092 E0.02251
G1 X121.434 Y69.441 E0.02251
G1 X121.846 Y68.853 E0.02251
G1 X122.353 Y68.346 E0.02251
G1 X122.941 Y67.934 E0.02251
G1 X123.592 Y67.630 E0.02251
G1 X124.285 Y67.445 E0.02251
G1 X125.000 Y67.382 E0.02251
G1 X125.715 Y67.445 E0.02251
G1 X126.408 Y67.630 E0.02251
G1 X127.059 Y67.934 E0.02251
G1 X127.647 Y68.346 E0.02251
G1 X128.154 Y68.853 E0.02251
G1 X128.566 Y69.441 E0.02251
G1 X128.869 Y70.092 E0.02251
G1 X129.055 Y70.785 E0.02251
G1 X129.118 Y71.500 E0.02251
G1 X129.055 Y72.215 E0.02251
G1 X128.869 Y72.908 E0.02251
G1 X128.566 Y73.559 E0.02251
G1 X128.189 Y74.098 E0.02062
G1 X127.880 Y73.881 F10800.000
G1 F1200
G1 X127.404 Y74.364 E0.02127
G1 X126.870 Y74.738 E0.02044
G1 X126.279 Y75.014 E0.02044
G1 X125.649 Y75.183 E0.02044
G1 X125.000 Y75.239 E0.02044
G1 X124.351 Y75.183 E0.02044
G1 X123.721 Y75.014 E0.02044
G1 X123.130 Y74.738 E0.02044
G1 X122.596 Y74.364 E0.02044
G1 X122.136 Y73.904 E0.02044
G1 X121.762 Y73.370 E0.02044
G1 X121.486 Y72.779 E0.02044
G1 X121.317 Y72.149 E0.02044
G1 X121.261 Y71.500 E0.02044
G1 X121.317 Y70.851 E0.02044
G1 X121.486 Y70.221 E0.02044
G1 X121.762 Y69.630 E0.02044
G1 X122.136 Y69.096 E0.02044
G1 X122.596 Y68.636 E0.02044
G1 X123.130 Y68.262 E0.02044
G1 X123.721 Y67.986 E0.02044
G1 X124.351 Y67.817 E0.02044
G1 X125.000 Y67.761 E0.02044
G1 X125.649 Y67.817 E0.02044
G1 X126.279 Y67.986 E0.02044
G1 X126.870 Y68.262 E0.02044
G1 X127.404 Y68.636 E0.02044
G1 X127.864 Y69.096 E0.02044
G1 X128.238 Y69.630 E0.02044
G1 X128.514 Y70.221 E0.02044
G1 X128.683 Y70.851 E0.02044
G1 X128.739 Y71.500 E0.02044
G1 X128.683 Y72.149 E0.02044
G1 X128.514 Y72.779 E0.02044
G1 X128.238 Y73.370 E0.02044
G1 X127.914 Y73.832 E0.01771
G1 X127.606 Y73.616 F10800.000
G1 F1200
G1 X127.160 Y74.075 E0.02004
G1 X126.680 Y74.411 E0.01837
G1 X126.149 Y74.658 E0.01837
G1 X125.584 Y74.810 E0.01837
G1 X125.000 Y74.861 E0.01837
G1 X124.416 Y74.810 E0.01837
G1 X123.851 Y74.658 E0.01837
G1 X123.320 Y74.411 E0.01837
G1 X122.840 Y74.075 E0.01837
G1 X122.425 Y73.660 E0.01837
G1 X122.089 Y73.180 E0.01837
G1 X121.842 Y72.649 E0.01837
G1 X121.690 Y72.084 E0.01837
G1 X121.639 Y71.500 E0.01837
G1 X121.690 Y70.916 E0.01837
G1 X121.842 Y70.351 E0.01837
G1 X122.089 Y69.820 E0.01837
G1 X122.425 Y69.340 E0.01837
G1 X122.840 Y68.925 E0.01837
G1 X123.320 Y68.589 E0.01837
G1 X123.851 Y68.342 E0.01837
G1 X124.416 Y68.190 E0.01837
G1 X125.000 Y68.139 E0.01837
G1 X125.584 Y68.190 E0.01837
G1 X126.149 Y68.342 E0.01837
G1 X126.680 Y68.589 E0.01837
G1 X127.160 Y68.925 E0.01837
G1 X127.575 Y69.340 E0.01837
G1 X127.911 Y69.820 E0.01837
G1 X128.158 Y70.351 E0.01837
G1 X128.310 Y70.916 E0.01837
G1 X128.361 Y71.500 E0.01837
G1 X128.310 Y72.084 E0.01837
G1 X128.158 Y72.649 E0.01837
G1 X127.911 Y73.180 E0.01837
G1 X127.640 Y73.567 E0.01479
G1 X127.747 Y73.990 F10800.000
G1 F8640
G1 X127.160 Y74.075 E-0.16126
G1 X126.680 Y74.411 E-0.13527
G1 X126.149 Y74.658 E-0.13527
G1 X125.584 Y74.810 E-0.13527
G1 X125.000 Y74.861 E-0.13527
G1 X124.751 Y74.839 E-0.05766
G1 E-0.04000 F2100.00000
G1 Z0.800 F10800.000
G1 X156.455 Y99.986
G1 Z0.200
G1 E0.80000 F2100.00000
G1 F1200
G1 X153.560 Y105.000 E0.18154
G1 X156.455 Y110.014 E0.18154
G1 X159.521 Y110.014 E0.09612
G1 X128.332 Y141.724 E1.39455
G1 X127.748 Y142.230 E0.02424
G1 X127.124 Y142.617 E0.02303
G1 X126.446 Y142.901 E0.02303
G1 X125.732 Y143.075 E0.02303
G1 X125.000 Y143.133 E0.02303
G1 X124.268 Y143.075 E0.02303
G1 X123.554 Y142.901 E0.02303
G1 X122.876 Y142.617 E0.02303
G1 X122.252 Y142.230 E0.02303
G1 X121.668 Y141.724 E0.02424
G1 X90.479 Y110.014 E1.39455
G1 X93.545 Y110.014 E0.09612
G1 X96.440 Y105.000 E0.18154
G1 X93.545 Y99.986 E0.18154
G1 X90.479 Y99.986 E0.09612
G1 X121.668 Y68.276 E1.39455
G1 X122.252 Y67.770 E0.02424
G1 X122.876 Y67.383 E0.02303
G1 X123.554 Y67.099 E0.02303
G1 X124.268 Y66.925 E0.02303
G1 X125.000 Y66.867 E0.02303
G1 X125.619 Y66.916 E0.01947
G1 X125.732 Y66.925 E0.00356
G1 X126.446 Y67.099 E0.02303
G1 X127.124 Y67.383 E0.02303
G1 X127.748 Y67.770 E0.02303
G1 X128.332 Y68.276 E0.02424
G1 X159.521 Y99.986 E1.39455
G1 X156.515 Y99.986 E0.09424
G1 X156.673 Y100.363 F10800.000
G1 F1200
G1 X153.996 Y105.000 E0.16788
G1 X156.673 Y109.637 E0.16788
G1 X160.420 Y109.637 E0.11750
G1 X128.590 Y141.999 E1.42323
G1 X127.972 Y142.534 E0.02565
G1 X127.297 Y142.954 E0.02491
G1 X126.564 Y143.261 E0.02491
G1 X125.792 Y143.448 E0.02491
G1 X125.000 Y143.511 E0.02491
G1 X124.208 Y143.448 E0.02491
G1 X123.436 Y143.261 E0.02491
G1 X122.703 Y142.954 E0.02491
G1 X122.028 Y142.534 E0.02491
G1 X121.410 Y141.999 E0.02565
G1 X89.580 Y109.637 E1.42323
G1 X93.327 Y109.637 E0.11750
G1 X96.004 Y105.000 E0.16788
G1 X93.327 Y100.363 E0.16788
G1 X89.580 Y100.363 E0.11750
G1 X121.410 Y68.001 E1.42323
G1 X122.028 Y67.466 E0.02565
G1 X122.703 Y67.046 E0.02491
G1 X123.436 Y66.739 E0.02491
G1 X124.208 Y66.552 E0.02491
G1 X125.000 Y66.489 E0.02491
G1 X125.649 Y66.541 E0.02041
G1 X125.792 Y66.552 E0.00450
G1 X126.564 Y66.739 E0.02491
G1 X127.297 Y67.046 E0.02491
G1 X127.972 Y67.466 E0.02491
G1 X128.590 Y68.001 E0.02565
G1 X160.420 Y100.363 E1.42323
M73 Q1 S61
M73 P1 R59
G1 X156.733 Y100.363 E0.11562
G1 X156.890 Y100.740 F10800.000
G1 F1200
G1 X154.431 Y105.000 E0.15423
G1 X156.890 Y109.260 E0.15423
G1 X161.320 Y109.260 E0.13889
G1 X128.849 Y142.274 E1.45191
G1 X128.197 Y142.839 E0.02706
G1 X127.471 Y143.290 E0.02679
G1 X126.682 Y143.620 E0.02679
G1 X125.852 Y143.822 E0.02679
G1 X125.000 Y143.889 E0.02679
G1 X124.148 Y143.822 E0.02679
G1 X123.318 Y143.620 E0.02679
G1 X122.529 Y143.290 E0.02679
G1 X121.803 Y142.839 E0.02679
G1 X121.151 Y142.274 E0.02706
G1 X88.680 Y109.260 E1.45191
G1 X93.110 Y109.260 E0.13889
G1 X95.569 Y105.000 E0.15423
G1 X93.110 Y100.740 E0.15423
G1 X88.680 Y100.740 E0.13889
G1 X121.151 Y67.726 E1.45191
G1 X121.803 Y67.161 E0.02706
G1 X122.529 Y66.710 E0.02679
G1 X123.318 Y66.380 E0.02679
G1 X124.148 Y66.178 E0.02679
G1 X125.000 Y66.111 E0.02679
G1 X125.679 Y66.165 E0.02135
G1 X125.852 Y66.178 E0.00544
G1 X126.682 Y66.380 E0.02679
G1 X127.471 Y66.710 E0.02679
G1 X128.197 Y67.161 E0.02679
G1 X128.849 Y67.726 E0.02706
G1 X161.320 Y100.740 E1.45191
G1 X156.950 Y100.740 E0.13701
G1 X156.524 Y100.899 F10800.000
G1 F8640
G1 X155.275 Y103.573 E-0.76000
G1 E-0.04000 F2100.00000
G1 Z0.800 F10800.000
G1 X158.055 Y99.496
G1 Z0.200
G1 E0.80000 F2100.00000
G1 F1200
G1 X129.753 Y71.194 E1.26029
G1 X129.780 Y71.500 E0.00967
G1 X129.760 Y71.736 E0.00745
G1 X157.350 Y99.326 E1.22862
G1 X156.814 Y99.326 E0.01686
G1 X129.717 Y72.228 E1.20669
G1 X129.708 Y72.330 E0.00322
G1 X129.618 Y72.665 E0.01092
G1 X156.279 Y99.326 E1.18723
G1 X156.074 Y99.326 E0.00644
G1 X155.953 Y99.536 E0.00763
G1 X129.505 Y73.087 E1.17777
G1 X129.341 Y73.459 E0.01279
G1 X155.757 Y99.875 E1.17634
G1 X155.561 Y100.215 E0.01234
G1 X129.170 Y73.824 E1.17519
G1 X128.959 Y74.148 E0.01218
G1 X155.365 Y100.554 E1.17588
G1 X155.169 Y100.894 E0.01234
G1 X128.738 Y74.463 E1.17697
G1 X128.662 Y74.573 E0.00420
G1 X128.487 Y74.748 E0.00779
G1 X154.973 Y101.233 E1.17944
G1 X154.777 Y101.573 E0.01234
G1 X128.219 Y75.015 E1.18263
G1 X128.073 Y75.162 E0.00653
G1 X127.930 Y75.262 E0.00548
G1 X154.581 Y101.912 E1.18678
G1 X154.385 Y102.252 E0.01234
G1 X127.615 Y75.482 E1.19208
G1 X127.390 Y75.640 E0.00865
G1 X127.286 Y75.688 E0.00363
G1 X154.189 Y102.592 E1.19802
G1 X153.993 Y102.931 E0.01234
