; generated by Slic3r Prusa Edition 1.42.0-beta2+linux64 on 2019-06-18 at 12:13:27

; 

; external perimeters extrusion width = 0.45mm
; perimeters extrusion width = 0.45mm
; infill extrusion width = 0.45mm
; solid infill extrusion width = 0.45mm
; top infill extrusion width = 0.40mm
; support material extrusion width = 0.35mm
; first layer extrusion width = 0.42mm

M73 P0 R106
M73 Q0 S107
M201 X1000 Y1000 Z1000 E5000 ; sets maximum accelerations, mm/sec^2
M203 X200 Y200 Z12 E120 ; sets maximum feedrates, mm/sec
M204 P1250 R1250 T1250 ; sets acceleration (P, T) and retract acceleration (R), mm/sec^2
M205 X8.00 Y8.00 Z0.40 E1.50 ; sets the jerk limits, mm/sec
M205 S0 T0 ; sets the minimum extruding and travel feed rate, mm/sec
M107
M115 U3.6.0 ; tell printer latest fw version
M83  ; extruder relative mode
M104 S215 ; set extruder temp
M140 S60 ; set bed temp
M190 S60 ; wait for bed temp
M109 S215 ; wait for extruder temp
G28 W ; home all without mesh bed level
G80 ; mesh bed leveling
G1 Y-3.0 F1000.0 ; go outside print area
G92 E0.0
G1 X60.0 E9.0  F1000.0 ; intro line
M73 Q0 S107
M73 P0 R106
G1 X100.0 E12.5  F1000.0 ; intro line
G92 E0.0
M221 S95
M900 K30 ; Filament gcode
G21 ; set units to millimeters
G90 ; use absolute coordinates
M83 ; use relative distances for extrusion
;BEFORE_LAYER_CHANGE
G92 E0.0
;0.2


G1 E-0.80000 F2100.00000
G1 Z0.600 F10800.000
;AFTER_LAYER_CHANGE
;0.2
G1 X89.071 Y63.019
G1 Z0.200
G1 E0.80000 F2100.00000
M204 S1000
G1 F1200
G1 X89.976 Y62.812 E0.02911
G1 X160.004 Y62.811 E2.19567
G1 X160.830 Y62.975 E0.02642
G1 X161.534 Y63.439 E0.02642
G1 X162.010 Y64.134 E0.02642
G1 X162.188 Y64.958 E0.02642
G1 X162.188 Y145.015 E2.51013
G1 X162.052 Y145.762 E0.02383
G1 X161.667 Y146.418 E0.02383
G1 X161.326 Y146.741 E0.01475
G1 X160.919 Y146.986 E0.01487
G1 X160.474 Y147.137 E0.01475
G1 X160.006 Y147.189 E0.01475
G1 X89.985 Y147.188 E2.19544
G1 X89.238 Y147.052 E0.02383
G1 X88.582 Y146.667 E0.02383
G1 X88.259 Y146.326 E0.01475
G1 X88.014 Y145.919 E0.01487
G1 X87.863 Y145.474 E0.01475
G1 X87.811 Y145.006 E0.01475
G1 X87.812 Y64.985 E2.50899
G1 X87.948 Y64.238 E0.02383
G1 X88.333 Y63.582 E0.02383
G1 X89.023 Y63.055 E0.02723
G1 F8640
G1 X89.976 Y62.812 E-0.22708
G1 X92.284 Y62.812 E-0.53292
G1 E-0.04000 F2100.00000
G1 Z0.800 F10800.000
G1 X91.341 Y66.341
G1 Z0.200
G1 E0.80000 F2100.00000
G1 F1200
G1 X158.659 Y66.341 E2.11069
G1 X158.659 Y143.659 E2.42424
G1 X91.341 Y143.659 E2.11069
G1 X91.341 Y66.401 E2.42236
G1 X90.964 Y65.964 F10800.000
G1 F1200
G1 X159.036 Y65.964 E2.13434
G1 X159.036 Y144.036 E2.44788
G1 X90.964 Y144.036 E2.13434
G1 X90.964 Y66.024 E2.44600
G1 X90.587 Y65.587 F10800.000
G1 F1200
G1 X159.413 Y65.587 E2.15799
G1 X159.413 Y144.413 E2.47153
G1 X90.587 Y144.413 E2.15799
G1 X90.587 Y65.647 E2.46965
M73 Q1 S106
M73 P1 R105
G1 X90.210 Y65.210 F10800.000
G1 F1200
G1 X159.790 Y65.210 E2.18163
G1 X159.790 Y144.790 E2.49518
G1 X90.210 Y144.790 E2.18163
G1 X90.210 Y65.270 E2.49329
G1 X90.594 Y65.322 F10800.000
G1 F8640
G1 X93.501 Y65.267 E-0.76000
G1 E-0.04000 F2100.00000
G1 Z0.800 F10800.000
G1 X158.546 Y67.218
G1 Z0.200
G1 E0.80000 F2100.00000
G1 F1200
G1 X157.952 Y66.624 E0.02639
G1 X157.417 Y66.624 E0.01678
G1 X158.376 Y67.583 E0.04259
G1 X158.376 Y68.117 E0.01678
G1 X156.883 Y66.624 E0.06633
G1 X156.349 Y66.624 E0.01678
G1 X158.376 Y68.651 E0.09007
G1 X158.376 Y69.186 E0.01678
G1 X155.814 Y66.624 E0.11380
G1 X155.280 Y66.624 E0.01678
G1 X158.376 Y69.720 E0.13754
G1 X158.376 Y70.254 E0.01678
G1 X154.746 Y66.624 E0.16127
G1 X154.212 Y66.624 E0.01678
G1 X158.376 Y70.788 E0.18501
G1 X158.376 Y71.323 E0.01678
G1 X153.677 Y66.624 E0.20875
G1 X153.143 Y66.624 E0.01678
G1 X158.376 Y71.857 E0.23248
G1 X158.376 Y72.391 E0.01678
G1 X152.609 Y66.624 E0.25622
G1 X152.074 Y66.624 E0.01678
G1 X158.376 Y72.926 E0.27996
G1 X158.376 Y73.460 E0.01678
G1 X151.540 Y66.624 E0.30369
G1 X151.006 Y66.624 E0.01678
G1 X158.376 Y73.994 E0.32743
G1 X158.376 Y74.528 E0.01678
G1 X150.472 Y66.624 E0.35117
G1 X149.937 Y66.624 E0.01678
G1 X158.376 Y75.063 E0.37490
G1 X158.376 Y75.597 E0.01678
G1 X149.403 Y66.624 E0.39864
G1 X148.869 Y66.624 E0.01678
G1 X158.376 Y76.131 E0.42238
G1 X158.376 Y76.666 E0.01678
G1 X148.334 Y66.624 E0.44611
G1 X147.800 Y66.624 E0.01678
G1 X158.376 Y77.200 E0.46985
G1 X158.376 Y77.734 E0.01678
G1 X147.266 Y66.624 E0.49358
G1 X146.731 Y66.624 E0.01678
G1 X158.376 Y78.269 E0.51732
G1 X158.376 Y78.803 E0.01678
G1 X146.197 Y66.624 E0.54106
G1 X145.663 Y66.624 E0.01678
G1 X158.376 Y79.337 E0.56479
G1 X158.376 Y79.871 E0.01678
G1 X145.129 Y66.624 E0.58853
G1 X144.594 Y66.624 E0.01678
G1 X158.376 Y80.406 E0.61227
G1 X158.376 Y80.940 E0.01678
G1 X144.060 Y66.624 E0.63600
G1 X143.526 Y66.624 E0.01678
G1 X158.376 Y81.474 E0.65974
G1 X158.376 Y82.009 E0.01678
G1 X142.991 Y66.624 E0.68348
G1 X142.457 Y66.624 E0.01678
G1 X158.376 Y82.543 E0.70721
G1 X158.376 Y83.077 E0.01678
G1 X141.923 Y66.624 E0.73095
G1 X141.389 Y66.624 E0.01678
G1 X158.376 Y83.611 E0.75469
G1 X158.376 Y84.146 E0.01678
G1 X140.854 Y66.624 E0.77842
G1 X140.320 Y66.624 E0.01678
G1 X158.376 Y84.680 E0.80216
G1 X158.376 Y85.214 E0.01678
G1 X139.786 Y66.624 E0.82589
G1 X139.251 Y66.624 E0.01678
G1 X158.376 Y85.749 E0.84963
G1 X158.376 Y86.283 E0.01678
G1 X138.717 Y66.624 E0.87337
G1 X138.183 Y66.624 E0.01678
G1 X158.376 Y86.817 E0.89710
G1 X158.376 Y87.351 E0.01678
G1 X137.649 Y66.624 E0.92084
G1 X137.114 Y66.624 E0.01678
G1 X158.376 Y87.886 E0.94458
G1 X158.376 Y88.420 E0.01678
G1 X136.580 Y66.624 E0.96831
G1 X136.046 Y66.624 E0.01678
G1 X158.376 Y88.954 E0.99205
G1 X158.376 Y89.489 E0.01678
G1 X135.511 Y66.624 E1.01579
G1 X134.977 Y66.624 E0.01678
G1 X158.376 Y90.023 E1.03952
G1 X158.376 Y90.557 E0.01678
G1 X134.443 Y66.624 E1.06326
G1 X133.909 Y66.624 E0.01678
G1 X158.376 Y91.091 E1.08700
G1 X158.376 Y91.626 E0.01678
G1 X133.374 Y66.624 E1.11073
M73 Q1 S105
G1 X132.840 Y66.624 E0.01678
G1 X158.376 Y92.160 E1.13447
M73 P2 R104
G1 X158.376 Y92.694 E0.01678
G1 X132.306 Y66.624 E1.15820
G1 X131.771 Y66.624 E0.01678
G1 X158.376 Y93.229 E1.18194
G1 X158.376 Y93.763 E0.01678
G1 X131.237 Y66.624 E1.20568
G1 X130.703 Y66.624 E0.01678
G1 X158.376 Y94.297 E1.22941
G1 X158.376 Y94.831 E0.01678
G1 X130.169 Y66.624 E1.25315
G1 X129.634 Y66.624 E0.01678
G1 X158.376 Y95.366 E1.27689
G1 X158.376 Y95.900 E0.01678
G1 X129.100 Y66.624 E1.30062
G1 X128.566 Y66.624 E0.01678
G1 X158.376 Y96.434 E1.32436
G1 X158.376 Y96.969 E0.01678
G1 X128.031 Y66.624 E1.34810
G1 X127.497 Y66.624 E0.01678
G1 X158.376 Y97.503 E1.37183
G1 X158.376 Y98.037 E0.01678
G1 X126.963 Y66.624 E1.39557
G1 X126.429 Y66.624 E0.01678
G1 X158.376 Y98.571 E1.41931
G1 X158.376 Y99.106 E0.01678
G1 X125.894 Y66.624 E1.44304
G1 X125.360 Y66.624 E0.01678
G1 X158.376 Y99.640 E1.46678
G1 X158.376 Y100.174 E0.01678
G1 X124.826 Y66.624 E1.49052
G1 X124.291 Y66.624 E0.01678
G1 X158.376 Y100.709 E1.51425
G1 X158.376 Y101.243 E0.01678
G1 X123.757 Y66.624 E1.53799
G1 X123.223 Y66.624 E0.01678
G1 X158.376 Y101.777 E1.56172
G1 X158.376 Y102.311 E0.01678
G1 X122.689 Y66.624 E1.58546
G1 X122.154 Y66.624 E0.01678
G1 X158.376 Y102.846 E1.60920
G1 X158.376 Y103.380 E0.01678
G1 X121.620 Y66.624 E1.63293
G1 X121.086 Y66.624 E0.01678
G1 X158.376 Y103.914 E1.65667
G1 X158.376 Y104.449 E0.01678
G1 X120.551 Y66.624 E1.68041
G1 X120.017 Y66.624 E0.01678
G1 X158.376 Y104.983 E1.70414
G1 X158.376 Y105.517 E0.01678
G1 X119.483 Y66.624 E1.72788
M73 Q2 S104
G1 X118.948 Y66.624 E0.01678
G1 X158.376 Y106.052 E1.75162
M73 P2 R103
G1 X158.376 Y106.586 E0.01678
G1 X118.414 Y66.624 E1.77535
G1 X117.880 Y66.624 E0.01678
G1 X158.376 Y107.120 E1.79909
G1 X158.376 Y107.654 E0.01678
G1 X117.346 Y66.624 E1.82283
G1 X116.811 Y66.624 E0.01678
G1 X158.376 Y108.189 E1.84656
G1 X158.376 Y108.723 E0.01678
G1 X116.277 Y66.624 E1.87030
G1 X115.743 Y66.624 E0.01678
G1 X158.376 Y109.257 E1.89403
G1 X158.376 Y109.792 E0.01678
G1 X115.208 Y66.624 E1.91777
G1 X114.674 Y66.624 E0.01678
G1 X158.376 Y110.326 E1.94151
G1 X158.376 Y110.860 E0.01678
G1 X114.140 Y66.624 E1.96524
G1 X113.606 Y66.624 E0.01678
G1 X158.376 Y111.394 E1.98898
G1 X158.376 Y111.929 E0.01678
G1 X113.071 Y66.624 E2.01272
G1 X112.537 Y66.624 E0.01678
G1 X158.376 Y112.463 E2.03645
G1 X158.376 Y112.997 E0.01678
G1 X112.003 Y66.624 E2.06019
G1 X111.468 Y66.624 E0.01678
G1 X158.376 Y113.532 E2.08393
G1 X158.376 Y114.066 E0.01678
G1 X110.934 Y66.624 E2.10766
G1 X110.400 Y66.624 E0.01678
G1 X158.376 Y114.600 E2.13140
G1 X158.376 Y115.134 E0.01678
G1 X109.866 Y66.624 E2.15514
G1 X109.331 Y66.624 E0.01678
G1 X158.376 Y115.669 E2.17887
M73 Q3 S103
G1 X158.376 Y116.203 E0.01678
G1 X108.797 Y66.624 E2.20261
M73 P3 R102
G1 X108.263 Y66.624 E0.01678
G1 X158.376 Y116.737 E2.22634
G1 X158.376 Y117.272 E0.01678
G1 X107.728 Y66.624 E2.25008
G1 X107.194 Y66.624 E0.01678
G1 X158.376 Y117.806 E2.27382
G1 X158.376 Y118.340 E0.01678
G1 X106.660 Y66.624 E2.29755
G1 X106.126 Y66.624 E0.01678
G1 X158.376 Y118.874 E2.32129
G1 X158.376 Y119.409 E0.01678
G1 X105.591 Y66.624 E2.34503
G1 X105.057 Y66.624 E0.01678
G1 X158.376 Y119.943 E2.36876
G1 X158.376 Y120.477 E0.01678
G1 X104.523 Y66.624 E2.39250
G1 X103.988 Y66.624 E0.01678
G1 X158.376 Y121.012 E2.41624
G1 X158.376 Y121.546 E0.01678
G1 X103.454 Y66.624 E2.43997
G1 X102.920 Y66.624 E0.01678
G1 X158.376 Y122.080 E2.46371
G1 X158.376 Y122.614 E0.01678
G1 X102.386 Y66.624 E2.48745
G1 X101.851 Y66.624 E0.01678
G1 X158.376 Y123.149 E2.51118
G1 X158.376 Y123.683 E0.01678
G1 X101.317 Y66.624 E2.53492
G1 X100.783 Y66.624 E0.01678
G1 X158.376 Y124.217 E2.55866
M73 Q4 S102
G1 X158.376 Y124.752 E0.01678
G1 X100.248 Y66.624 E2.58239
M73 P4 R101
G1 X99.714 Y66.624 E0.01678
G1 X158.376 Y125.286 E2.60613
G1 X158.376 Y125.820 E0.01678
G1 X99.180 Y66.624 E2.62986
G1 X98.646 Y66.624 E0.01678
G1 X158.376 Y126.354 E2.65360
G1 X158.376 Y126.889 E0.01678
G1 X98.111 Y66.624 E2.67734
G1 X97.577 Y66.624 E0.01678
G1 X158.376 Y127.423 E2.70107
G1 X158.376 Y127.957 E0.01678
G1 X97.043 Y66.624 E2.72481
G1 X96.508 Y66.624 E0.01678
G1 X158.376 Y128.492 E2.74855
G1 X158.376 Y129.026 E0.01678
G1 X95.974 Y66.624 E2.77228
G1 X95.440 Y66.624 E0.01678
G1 X158.376 Y129.560 E2.79602
G1 X158.376 Y130.094 E0.01678
G1 X94.906 Y66.624 E2.81976
G1 X94.371 Y66.624 E0.01678
G1 X158.376 Y130.629 E2.84349
G1 X158.376 Y131.163 E0.01678
G1 X93.837 Y66.624 E2.86723
G1 X93.303 Y66.624 E0.01678
G1 X158.376 Y131.697 E2.89097
M73 Q5 S101
G1 X158.376 Y132.232 E0.01678
G1 X92.768 Y66.624 E2.91470
M73 P5 R100
G1 X92.234 Y66.624 E0.01678
G1 X158.376 Y132.766 E2.93844
G1 X158.376 Y133.300 E0.01678
G1 X91.700 Y66.624 E2.96217
G1 X91.624 Y66.624 E0.00238
G1 X91.624 Y67.083 E0.01440
G1 X158.376 Y133.835 E2.96554
G1 X158.376 Y134.369 E0.01678
G1 X91.624 Y67.617 E2.96554
G1 X91.624 Y68.151 E0.01678
G1 X158.376 Y134.903 E2.96554
G1 X158.376 Y135.437 E0.01678
G1 X91.624 Y68.685 E2.96554
G1 X91.624 Y69.220 E0.01678
G1 X158.376 Y135.972 E2.96554
G1 X158.376 Y136.506 E0.01678
G1 X91.624 Y69.754 E2.96554
G1 X91.624 Y70.288 E0.01678
G1 X158.376 Y137.040 E2.96554
G1 X158.376 Y137.575 E0.01678
G1 X91.624 Y70.823 E2.96554
G1 X91.624 Y71.357 E0.01678
G1 X158.376 Y138.109 E2.96554
G1 X158.376 Y138.643 E0.01678
G1 X91.624 Y71.891 E2.96554
M73 Q6 S100
G1 X91.624 Y72.425 E0.01678
G1 X158.376 Y139.177 E2.96554
M73 P6 R99
G1 X158.376 Y139.712 E0.01678
G1 X91.624 Y72.960 E2.96554
G1 X91.624 Y73.494 E0.01678
G1 X158.376 Y140.246 E2.96554
G1 X158.376 Y140.780 E0.01678
G1 X91.624 Y74.028 E2.96554
G1 X91.624 Y74.563 E0.01678
G1 X158.376 Y141.315 E2.96554
G1 X158.376 Y141.849 E0.01678
G1 X91.624 Y75.097 E2.96554
G1 X91.624 Y75.631 E0.01678
G1 X158.376 Y142.383 E2.96554
G1 X158.376 Y142.917 E0.01678
G1 X91.624 Y76.165 E2.96554
G1 X91.624 Y76.700 E0.01678
G1 X158.300 Y143.376 E2.96218
G1 X157.766 Y143.376 E0.01678
G1 X91.624 Y77.234 E2.93844
G1 X91.624 Y77.768 E0.01678
G1 X157.232 Y143.376 E2.91470
G1 X156.697 Y143.376 E0.01678
G1 X91.624 Y78.303 E2.89097
G1 X91.624 Y78.837 E0.01678
G1 X156.163 Y143.376 E2.86723
M73 Q7 S99
G1 X155.629 Y143.376 E0.01678
G1 X91.624 Y79.371 E2.84349
M73 P7 R98
G1 X91.624 Y79.905 E0.01678
G1 X155.095 Y143.376 E2.81976
G1 X154.560 Y143.376 E0.01678
G1 X91.624 Y80.440 E2.79602
G1 X91.624 Y80.974 E0.01678
G1 X154.026 Y143.376 E2.77228
G1 X153.492 Y143.376 E0.01678
G1 X91.624 Y81.508 E2.74855
G1 X91.624 Y82.043 E0.01678
G1 X152.957 Y143.376 E2.72481
G1 X152.423 Y143.376 E0.01678
G1 X91.624 Y82.577 E2.70108
G1 X91.624 Y83.111 E0.01678
G1 X151.889 Y143.376 E2.67734
G1 X151.355 Y143.376 E0.01678
G1 X91.624 Y83.645 E2.65360
G1 X91.624 Y84.180 E0.01678
G1 X150.820 Y143.376 E2.62987
G1 X150.286 Y143.376 E0.01678
G1 X91.624 Y84.714 E2.60613
G1 X91.624 Y85.248 E0.01678
G1 X149.752 Y143.376 E2.58239
G1 X149.217 Y143.376 E0.01678
G1 X91.624 Y85.783 E2.55866
G1 X91.624 Y86.317 E0.01678
G1 X148.683 Y143.376 E2.53492
M73 Q8 S98
G1 X148.149 Y143.376 E0.01678
G1 X91.624 Y86.851 E2.51118
G1 X91.624 Y87.386 E0.01678
G1 X147.614 Y143.376 E2.48745
M73 P8 R97
G1 X147.080 Y143.376 E0.01678
G1 X91.624 Y87.920 E2.46371
G1 X91.624 Y88.454 E0.01678
G1 X146.546 Y143.376 E2.43997
G1 X146.012 Y143.376 E0.01678
G1 X91.624 Y88.988 E2.41624
G1 X91.624 Y89.523 E0.01678
G1 X145.477 Y143.376 E2.39250
G1 X144.943 Y143.376 E0.01678
G1 X91.624 Y90.057 E2.36876
G1 X91.624 Y90.591 E0.01678
G1 X144.409 Y143.376 E2.34503
G1 X143.874 Y143.376 E0.01678
G1 X91.624 Y91.126 E2.32129
G1 X91.624 Y91.660 E0.01678
G1 X143.340 Y143.376 E2.29756
G1 X142.806 Y143.376 E0.01678
G1 X91.624 Y92.194 E2.27382
G1 X91.624 Y92.728 E0.01678
G1 X142.272 Y143.376 E2.25008
G1 X141.737 Y143.376 E0.01678
G1 X91.624 Y93.263 E2.22635
G1 X91.624 Y93.797 E0.01678
G1 X141.203 Y143.376 E2.20261
G1 X140.669 Y143.376 E0.01678
G1 X91.624 Y94.331 E2.17887
G1 X91.624 Y94.866 E0.01678
G1 X140.134 Y143.376 E2.15514
M73 Q9 S97
G1 X139.600 Y143.376 E0.01678
G1 X91.624 Y95.400 E2.13140
G1 X91.624 Y95.934 E0.01678
G1 X139.066 Y143.376 E2.10766
G1 X138.532 Y143.376 E0.01678
G1 X91.624 Y96.468 E2.08393
M73 P9 R95
G1 X91.624 Y97.003 E0.01678
G1 X137.997 Y143.376 E2.06019
G1 X137.463 Y143.376 E0.01678
G1 X91.624 Y97.537 E2.03645
G1 X91.624 Y98.071 E0.01678
G1 X136.929 Y143.376 E2.01272
G1 X136.394 Y143.376 E0.01678
G1 X91.624 Y98.606 E1.98898
G1 X91.624 Y99.140 E0.01678
G1 X135.860 Y143.376 E1.96525
G1 X135.326 Y143.376 E0.01678
G1 X91.624 Y99.674 E1.94151
G1 X91.624 Y100.208 E0.01678
G1 X134.792 Y143.376 E1.91777
G1 X134.257 Y143.376 E0.01678
G1 X91.624 Y100.743 E1.89404
G1 X91.624 Y101.277 E0.01678
G1 X133.723 Y143.376 E1.87030
G1 X133.189 Y143.376 E0.01678
G1 X91.624 Y101.811 E1.84656
G1 X91.624 Y102.346 E0.01678
G1 X132.654 Y143.376 E1.82283
G1 X132.120 Y143.376 E0.01678
G1 X91.624 Y102.880 E1.79909
G1 X91.624 Y103.414 E0.01678
G1 X131.586 Y143.376 E1.77535
G1 X131.052 Y143.376 E0.01678
G1 X91.624 Y103.948 E1.75162
G1 X91.624 Y104.483 E0.01678
G1 X130.517 Y143.376 E1.72788
G1 X129.983 Y143.376 E0.01678
G1 X91.624 Y105.017 E1.70414
G1 X91.624 Y105.551 E0.01678
G1 X129.449 Y143.376 E1.68041
M73 Q10 S96
G1 X128.914 Y143.376 E0.01678
G1 X91.624 Y106.086 E1.65667
G1 X91.624 Y106.620 E0.01678
G1 X128.380 Y143.376 E1.63294
G1 X127.846 Y143.376 E0.01678
G1 X91.624 Y107.154 E1.60920
G1 X91.624 Y107.688 E0.01678
G1 X127.312 Y143.376 E1.58546
M73 P10 R94
G1 X126.777 Y143.376 E0.01678
G1 X91.624 Y108.223 E1.56173
G1 X91.624 Y108.757 E0.01678
G1 X126.243 Y143.376 E1.53799
G1 X125.709 Y143.376 E0.01678
G1 X91.624 Y109.291 E1.51425
G1 X91.624 Y109.826 E0.01678
G1 X125.174 Y143.376 E1.49052
G1 X124.640 Y143.376 E0.01678
G1 X91.624 Y110.360 E1.46678
G1 X91.624 Y110.894 E0.01678
G1 X124.106 Y143.376 E1.44304
G1 X123.572 Y143.376 E0.01678
G1 X91.624 Y111.428 E1.41931
G1 X91.624 Y111.963 E0.01678
G1 X123.037 Y143.376 E1.39557
G1 X122.503 Y143.376 E0.01678
G1 X91.624 Y112.497 E1.37183
G1 X91.624 Y113.031 E0.01678
G1 X121.969 Y143.376 E1.34810
G1 X121.434 Y143.376 E0.01678
G1 X91.624 Y113.566 E1.32436
G1 X91.624 Y114.100 E0.01678
G1 X120.900 Y143.376 E1.30063
G1 X120.366 Y143.376 E0.01678
G1 X91.624 Y114.634 E1.27689
G1 X91.624 Y115.169 E0.01678
G1 X119.831 Y143.376 E1.25315
G1 X119.297 Y143.376 E0.01678
