; generated by SuperSlicer 2.3.55 on 2021-06-22 at 17:24:13 UTC

; 

; external perimeters extrusion width = 0.45mm
; perimeters extrusion width = 0.45mm
; infill extrusion width = 0.45mm
; solid infill extrusion width = 0.45mm
; top infill extrusion width = 0.40mm
; first layer extrusion width = 0.42mm

; object:{"name":"pcmountbot","id":"pcmountbot.STL id:0 copy 0","object_center":[125.000000,105.000000,0.000000],"boundingbox_center":[125.000000,105.000000,5.000000],"boundingbox_size":[80.000000,51.584213,10.000000]}
; Total objects to print: 1
M486 T1
; plater:{"center":[125.000000,105.000000,0.000000],"boundingbox_center":[125.000000,105.000000,5.000000],"boundingbox_size":[80.000000,51.584213,10.000000]}

M73 P0 R47
M73 Q0 S54
;TYPE:Custom
M862.3 P "MK3S" ; printer model check
M862.1 P0.4 ; nozzle diameter check
M115 U3.9.2 ; tell printer latest fw version
G90 ; use absolute coordinates
M83 ; extruder relative mode
M104 S215 ; set extruder temp
M140 S60 ; set bed temp
M190 S60 ; wait for bed temp
M109 S215 ; wait for extruder temp
G28 W ; home all without mesh bed level
G80 ; mesh bed leveling
G1 Y-3.0 F1000.0 ; go outside print area
G92 E0.0
G1 X60.0 E9.0 F1000.0 ; intro line
G1 X100.0 E12.5 F1000.0 ; intro line
G92 E0.0
M221 S95

; Don't change E values below. Excessive value can damage the printer.

M107
G21 ; set units to millimeters
G90 ; use absolute coordinates
M83 ; use relative distances for extrusion
M900 K0.05 ; Filament gcode LA 1.5
M900 K30 ; Filament gcode LA 1.0
;LAYER_CHANGE
;Z:0.2
;HEIGHT:0.2
;BEFORE_LAYER_CHANGE
;0.2


G1 E-0.80000 F2100.000
G1 Z0.400000 F10800.000
;AFTER_LAYER_CHANGE
;0.2
G1 X80.663 Y83.164
M73 Q0 S53
G1 Z0.200000
G1 E0.80000 F2100.000
;TYPE:Skirt
;WIDTH:0.42
G1 F1200.000
G1 X81.414 Y82.567 E0.03009
G1 X82.239 Y82.076 E0.03009
G1 X83.794 Y81.499 E0.05201
G1 X85.434 Y81.294 E0.05181
G1 X164.507 Y81.293 E2.47928
G1 X165.889 Y81.429 E0.04355
G1 X167.219 Y81.828 E0.04355
G1 X168.454 Y82.478 E0.04375
G1 X169.534 Y83.351 E0.04355
G1 X170.412 Y84.393 E0.04272
G1 X171.075 Y85.576 E0.04251
G1 X171.536 Y86.911 E0.04430
G1 X171.771 Y88.415 E0.04772
G1 X171.741 Y121.951 E1.05150
G1 X171.584 Y122.884 E0.02968
G1 X171.275 Y123.920 E0.03388
G1 X170.928 Y124.736 E0.02781
G1 X170.483 Y125.503 E0.02781
G1 X169.925 Y126.235 E0.02885
G1 X169.278 Y126.889 E0.02885
G1 X168.553 Y127.455 E0.02885
G1 X167.761 Y127.924 E0.02885
G1 X166.206 Y128.501 E0.05201
G1 X164.566 Y128.706 E0.05181
G1 X85.248 Y128.702 E2.48696
M73 P0 R46
G1 X84.294 Y128.605 E0.03009
G1 X83.367 Y128.383 E0.02988
G1 X82.471 Y128.037 E0.03009
G1 X81.635 Y127.579 E0.02988
G1 X80.862 Y127.011 E0.03009
G1 X80.176 Y126.349 E0.02988
G1 X79.584 Y125.602 E0.02988
G1 X79.093 Y124.777 E0.03009
G1 X78.742 Y123.970 E0.02760
G1 X78.437 Y122.971 E0.03275
G1 X78.213 Y121.253 E0.05432
G1 X78.231 Y88.385 E1.03056
G1 X78.365 Y87.349 E0.03275
G1 X78.653 Y86.294 E0.03429
G1 X78.988 Y85.437 E0.02885
G1 X79.431 Y84.630 E0.02885
G1 X79.998 Y83.856 E0.03009
G1 X80.621 Y83.207 E0.02821
;WIPE_START
G1 F8640.000
G1 X81.414 Y82.567 E-0.23535
G1 X82.239 Y82.076 E-0.22161
G1 X83.469 Y81.619 E-0.30305
;WIPE_END
G1 E-0.04000 F2100.000
G1 Z1.000000 F10800.000
G1 X79.944 Y88.988
G1 Z0.200000
G1 E0.80000 F2100.000
G1 F1200.000
G1 X79.944 Y88.559 E0.01345
G1 X80.054 Y87.681 E0.02776
G1 X80.304 Y86.777 E0.02939
G1 X80.522 Y86.216 E0.01887
G1 X80.861 Y85.601 E0.02203
G1 X81.307 Y84.997 E0.02353
G1 X81.791 Y84.504 E0.02167
G1 X82.610 Y83.881 E0.03225
G1 X83.209 Y83.538 E0.02164
G1 X83.690 Y83.337 E0.01634
G1 X84.858 Y83.050 E0.03772
G1 X86.680 Y83.014 E0.05713
;WIPE_START
G1 F8640.000
G1 X84.858 Y83.050 E-0.42074
G1 X83.690 Y83.337 E-0.27775
G1 X83.444 Y83.440 E-0.06150
;WIPE_END
G1 E-0.04000 F2100.000
G1 Z0.600000 F10800.000
G1 X87.778 Y83.391
G1 Z0.200000
G1 E0.80000 F2100.000
G1 F1200.000
G1 X85.383 Y83.391 E0.07510
G1 X84.426 Y83.508 E0.03023
G1 X83.398 Y83.866 E0.03411
G1 X82.822 Y84.193 E0.02079
G1 X82.041 Y84.786 E0.03072
G1 X81.596 Y85.240 E0.01996
G1 X81.177 Y85.806 E0.02207
G1 X80.863 Y86.376 E0.02039
G1 X80.664 Y86.888 E0.01722
G1 X80.359 Y88.147 E0.04063
G1 X80.320 Y90.543 E0.07513
;WIPE_START
G1 F8640.000
G1 X80.359 Y88.147 E-0.55327
G1 X80.570 Y87.277 E-0.20673
;WIPE_END
G1 E-0.04000 F2100.000
G1 Z0.600000 F10800.000
G1 X85.211 Y94.067
G1 Z0.200000
G1 E0.80000 F2100.000
G1 F1200.000
G1 X85.211 Y88.914 E0.16156
G1 X85.315 Y88.441 E0.01519
G1 X85.515 Y88.293 E0.00779
G1 X91.098 Y88.293 E0.17505
G1 X91.048 Y87.916 E0.01193
G1 X85.455 Y87.916 E0.17539
G1 X85.042 Y88.174 E0.01524
G1 X84.862 Y88.636 E0.01554
G1 X84.834 Y88.911 E0.00866
G1 X84.834 Y94.017 E0.16012
G1 X84.457 Y93.968 E0.01192
G1 X84.457 Y88.905 E0.15873
G1 X84.495 Y88.550 E0.01119
G1 X84.647 Y88.080 E0.01551
G1 X84.794 Y87.889 E0.00755
G1 X85.193 Y87.605 E0.01534
G1 X85.425 Y87.539 E0.00755
G1 X90.999 Y87.539 E0.17478
G1 X90.949 Y87.162 E0.01193
G1 X85.410 Y87.162 E0.17369
G1 X85.033 Y87.264 E0.01223
G1 X84.535 Y87.614 E0.01909
G1 X84.265 Y88.009 E0.01500
G1 X84.129 Y88.462 E0.01484
G1 X84.081 Y88.886 E0.01336
G1 X84.081 Y93.918 E0.15779
G1 X83.704 Y93.772 E0.01268
G1 X83.704 Y88.876 E0.15352
G1 X83.772 Y88.333 E0.01716
G1 X83.911 Y87.877 E0.01494
G1 X84.158 Y87.466 E0.01504
G1 X84.880 Y86.919 E0.02839
G1 X85.402 Y86.785 E0.01690
G1 X90.831 Y86.785 E0.17023
G1 X90.675 Y86.408 E0.01280
G1 X85.398 Y86.408 E0.16545
G1 X84.730 Y86.573 E0.02157
G1 X84.071 Y87.018 E0.02495
G1 X83.688 Y87.479 E0.01879
G1 X83.557 Y87.749 E0.00940
G1 X83.352 Y88.526 E0.02521
G1 X83.327 Y93.616 E0.15958
G1 X82.950 Y93.460 E0.01279
G1 X82.950 Y88.837 E0.14494
G1 X83.045 Y88.132 E0.02232
G1 X83.367 Y87.282 E0.02850
G1 X83.782 Y86.770 E0.02068
G1 X84.281 Y86.393 E0.01959
G1 X84.569 Y86.232 E0.01034
G1 X85.036 Y86.077 E0.01543
G1 X85.396 Y86.031 E0.01140
G1 X90.519 Y86.031 E0.16061
G1 X90.357 Y85.654 E0.01287
G1 X85.395 Y85.654 E0.15556
M73 P1 R46
G1 X84.947 Y85.710 E0.01416
G1 X84.413 Y85.889 E0.01766
G1 X83.578 Y86.448 E0.03151
G1 X83.054 Y87.071 E0.02553
G1 X82.857 Y87.467 E0.01387
G1 X82.611 Y88.374 E0.02948
G1 X82.574 Y93.264 E0.15332
G1 X82.198 Y92.975 E0.01489
G1 X82.198 Y88.770 E0.13184
G1 X82.330 Y87.890 E0.02791
G1 X82.528 Y87.273 E0.02031
G1 X82.739 Y86.863 E0.01446
G1 X83.036 Y86.457 E0.01578
G1 X83.331 Y86.163 E0.01305
G1 X83.881 Y85.752 E0.02152
G1 X84.251 Y85.548 E0.01326
G1 X85.138 Y85.295 E0.02892
G1 X90.068 Y85.277 E0.15456
G1 X89.778 Y84.900 E0.01490
G1 X85.092 Y84.920 E0.14695
G1 X84.093 Y85.206 E0.03257
G1 X83.680 Y85.434 E0.01479
G1 X83.084 Y85.878 E0.02329
G1 X82.749 Y86.213 E0.01486
G1 X82.422 Y86.659 E0.01733
G1 X82.178 Y87.132 E0.01671
G1 X81.870 Y88.235 E0.03589
G1 X81.822 Y88.731 E0.01562
G1 X81.822 Y92.687 E0.12403
G1 X81.446 Y92.356 E0.01570
G1 X81.447 Y88.699 E0.11466
G1 X81.611 Y87.660 E0.03300
G1 X81.834 Y86.978 E0.02248
G1 X82.105 Y86.456 E0.01845
G1 X82.414 Y86.026 E0.01660
G1 X82.789 Y85.635 E0.01698
G1 X83.458 Y85.128 E0.02632
G1 X83.928 Y84.867 E0.01687
G1 X84.689 Y84.609 E0.02519
G1 X85.388 Y84.523 E0.02209
G1 X89.489 Y84.523 E0.12857
G1 X89.006 Y84.146 E0.01920
G1 X84.999 Y84.172 E0.12565
G1 X84.601 Y84.242 E0.01269
G1 X83.736 Y84.540 E0.02867
G1 X83.245 Y84.817 E0.01768
G1 X82.539 Y85.353 E0.02780
G1 X82.166 Y85.734 E0.01673
G1 X81.787 Y86.253 E0.02015
G1 X81.488 Y86.827 E0.02029
G1 X81.249 Y87.554 E0.02400
G1 X81.070 Y88.678 E0.03569
G1 X81.069 Y91.866 E0.09994
G1 X80.695 Y91.377 E0.01930
G1 X80.695 Y88.625 E0.08628
G1 X80.758 Y88.021 E0.01906
G1 X80.894 Y87.426 E0.01914
G1 X81.320 Y86.305 E0.03758
G1 X81.884 Y85.483 E0.03127
M73 Q1 S53
G1 X82.291 Y85.069 E0.01820
G1 X83.033 Y84.505 E0.02924
G1 X83.573 Y84.200 E0.01944
G1 X84.513 Y83.875 E0.03118
G1 X84.952 Y83.798 E0.01397
G1 X88.515 Y83.768 E0.11171
;WIPE_START
G1 F8640.000
G1 X85.224 Y83.796 E-0.76000
;WIPE_END
G1 E-0.04000 F2100.000
G1 Z0.600000 F10800.000
G1 X80.688 Y118.632
G1 Z0.200000
G1 E0.80000 F2100.000
G1 F1200.000
G1 X80.729 Y121.771 E0.09845
G1 X80.817 Y122.279 E0.01615
G1 X81.210 Y123.476 E0.03950
G1 X81.746 Y124.345 E0.03202
G1 X82.394 Y125.020 E0.02932
G1 X83.306 Y125.662 E0.03498
G1 X84.233 Y126.048 E0.03148
G1 X84.725 Y126.168 E0.01590
G1 X85.310 Y126.230 E0.01844
G1 X88.517 Y126.230 E0.10053
G1 X89.007 Y125.854 E0.01939
G1 X85.339 Y125.854 E0.11502
G1 X84.788 Y125.796 E0.01736
G1 X83.779 Y125.480 E0.03314
G1 X83.255 Y125.190 E0.01880
G1 X82.640 Y124.735 E0.02397
G1 X82.252 Y124.364 E0.01684
G1 X81.824 Y123.804 E0.02209
G1 X81.550 Y123.312 E0.01766
G1 X81.184 Y122.196 E0.03683
G1 X81.103 Y121.726 E0.01494
G1 X81.065 Y118.141 E0.11243
G1 X81.441 Y117.650 E0.01940
G1 X81.441 Y121.122 E0.10889
G1 X81.545 Y122.078 E0.03015
G1 X81.749 Y122.790 E0.02323
G1 X82.130 Y123.584 E0.02761
G1 X82.529 Y124.109 E0.02066
G1 X82.879 Y124.443 E0.01516
G1 X83.463 Y124.875 E0.02278
G1 X83.947 Y125.142 E0.01735
G1 X84.850 Y125.424 E0.02965
G1 X85.347 Y125.477 E0.01567
G1 X89.489 Y125.477 E0.12988
G1 X89.779 Y125.100 E0.01490
G1 X85.356 Y125.100 E0.13865
G1 X84.912 Y125.052 E0.01403
G1 X84.094 Y124.795 E0.02689
G1 X83.643 Y124.541 E0.01621
G1 X83.114 Y124.148 E0.02066
G1 X82.784 Y123.828 E0.01443
G1 X82.444 Y123.375 E0.01776
G1 X82.221 Y122.967 E0.01455
G1 X81.913 Y121.998 E0.03190
G1 X81.850 Y121.621 E0.01199
G1 X81.818 Y117.316 E0.13497
G1 X82.195 Y117.027 E0.01490
G1 X82.195 Y121.114 E0.12813
G1 X82.282 Y121.917 E0.02535
G1 X82.468 Y122.562 E0.02103
G1 X82.760 Y123.168 E0.02111
G1 X83.085 Y123.598 E0.01690
G1 X83.357 Y123.859 E0.01183
G1 X84.251 Y124.452 E0.03361
G1 X84.977 Y124.680 E0.02388
G1 X85.379 Y124.723 E0.01267
G1 X90.068 Y124.723 E0.14701
G1 X90.357 Y124.346 E0.01490
G1 X85.386 Y124.346 E0.15586
G1 X85.038 Y124.308 E0.01099
G1 X84.413 Y124.111 E0.02052
G1 X84.068 Y123.919 E0.01240
G1 X83.364 Y123.345 E0.02848
G1 X82.903 Y122.644 E0.02629
G1 X82.600 Y121.536 E0.03603
G1 X82.572 Y116.738 E0.15045
G1 X82.949 Y116.541 E0.01333
G1 X82.949 Y121.104 E0.14308
G1 X83.018 Y121.756 E0.02056
G1 X83.247 Y122.489 E0.02408
G1 X83.389 Y122.753 E0.00941
G1 X83.839 Y123.279 E0.02172
G1 X84.281 Y123.607 E0.01724
G1 X84.920 Y123.893 E0.02194
G1 X85.393 Y123.969 E0.01502
G1 X90.519 Y123.969 E0.16073
G1 X90.675 Y123.592 E0.01280
G1 X85.398 Y123.592 E0.16545
G1 X84.730 Y123.427 E0.02157
G1 X83.920 Y122.836 E0.03146
G1 X83.591 Y122.335 E0.01880
G1 X83.387 Y121.676 E0.02163
G1 X83.326 Y121.100 E0.01816
G1 X83.326 Y116.384 E0.14785
G1 X83.703 Y116.228 E0.01279
G1 X83.703 Y121.097 E0.15266
G1 X83.755 Y121.595 E0.01568
G1 X83.928 Y122.165 E0.01869
G1 X84.328 Y122.704 E0.02105
G1 X84.936 Y123.104 E0.02281
G1 X85.402 Y123.215 E0.01503
G1 X90.831 Y123.215 E0.17023
G1 X90.949 Y122.838 E0.01239
G1 X85.410 Y122.838 E0.17369
G1 X85.061 Y122.748 E0.01129
G1 X84.535 Y122.386 E0.02001
G1 X84.276 Y122.019 E0.01408
G1 X84.124 Y121.518 E0.01642
G1 X84.080 Y121.094 E0.01336
G1 X84.080 Y116.082 E0.15715
G1 X84.457 Y116.032 E0.01192
G1 X84.457 Y121.091 E0.15862
G1 X84.493 Y121.440 E0.01098
G1 X84.621 Y121.866 E0.01397
G1 X84.794 Y122.111 E0.00941
G1 X85.140 Y122.367 E0.01348
G1 X85.425 Y122.461 E0.00941
G1 X90.999 Y122.461 E0.17478
G1 X91.048 Y122.084 E0.01193
G1 X85.455 Y122.084 E0.17539
G1 X85.042 Y121.826 E0.01524
G1 X84.862 Y121.364 E0.01554
G1 X84.834 Y121.089 E0.00866
G1 X84.834 Y115.983 E0.16012
G1 X85.211 Y115.933 E0.01193
G1 X85.211 Y121.086 E0.16156
G1 X85.315 Y121.559 E0.01519
G1 X85.515 Y121.707 E0.00779
G1 X91.098 Y121.707 E0.17505
;WIPE_START
G1 F8640.000
G1 X87.807 Y121.707 E-0.76000
;WIPE_END
G1 E-0.04000 F2100.000
G1 Z0.600000 F10800.000
G1 X87.782 Y126.607
G1 Z0.200000
G1 E0.80000 F2100.000
G1 F1200.000
G1 X85.300 Y126.607 E0.07781
G1 X84.664 Y126.540 E0.02005
G1 X84.119 Y126.408 E0.01758
G1 X83.464 Y126.165 E0.02190
G1 X82.836 Y125.817 E0.02251
G1 X82.133 Y125.294 E0.02747
G1 X81.665 Y124.840 E0.02045
G1 X81.187 Y124.208 E0.02483
G1 X80.878 Y123.655 E0.01986
G1 X80.687 Y123.183 E0.01597
G1 X80.449 Y122.362 E0.02679
G1 X80.355 Y121.817 E0.01737
G1 X80.311 Y119.479 E0.07332
;WIPE_START
G1 F8640.000
G1 X80.355 Y121.817 E-0.53995
G1 X80.449 Y122.362 E-0.12790
G1 X80.560 Y122.746 E-0.09215
;WIPE_END
G1 E-0.04000 F2100.000
G1 Z0.600000 F10800.000
G1 X79.933 Y121.092
G1 Z0.200000
G1 E0.80000 F2100.000
G1 F1200.000
G1 X79.980 Y121.862 E0.02418
G1 X80.087 Y122.472 E0.01941
G1 X80.539 Y123.821 E0.04462
G1 X81.146 Y124.802 E0.03618
G1 X81.892 Y125.583 E0.03385
G1 X82.940 Y126.321 E0.04020
G1 X84.005 Y126.767 E0.03621
G1 X84.945 Y126.961 E0.03009
G1 X86.692 Y126.984 E0.05477
;WIPE_START
G1 F8640.000
G1 X84.945 Y126.961 E-0.40335
G1 X84.005 Y126.767 E-0.22161
G1 X83.466 Y126.542 E-0.13504
;WIPE_END
G1 E-0.04000 F2100.000
G1 Z0.600000 F10800.000
G1 X158.902 Y121.707
G1 Z0.200000
G1 E0.80000 F2100.000
G1 F1200.000
G1 X164.485 Y121.707 E0.17505
G1 X164.685 Y121.559 E0.00779
G1 X164.789 Y121.086 E0.01519
G1 X164.789 Y115.933 E0.16156
G1 X165.166 Y115.983 E0.01193
G1 X165.166 Y121.089 E0.16012
G1 X165.138 Y121.364 E0.00866
G1 X164.958 Y121.826 E0.01554
G1 X164.545 Y122.084 E0.01524
G1 X158.952 Y122.084 E0.17539
G1 X159.001 Y122.461 E0.01193
G1 X164.575 Y122.461 E0.17478
G1 X164.807 Y122.395 E0.00755
G1 X165.206 Y122.111 E0.01534
G1 X165.353 Y121.920 E0.00755
G1 X165.505 Y121.450 E0.01551
G1 X165.542 Y121.106 E0.01084
G1 X165.542 Y116.032 E0.15908
G1 X165.919 Y116.082 E0.01192
G1 X165.919 Y121.116 E0.15785
G1 X165.871 Y121.538 E0.01331
G1 X165.735 Y121.991 E0.01484
G1 X165.465 Y122.386 E0.01500
G1 X164.967 Y122.736 E0.01909
G1 X164.590 Y122.838 E0.01223
G1 X159.051 Y122.838 E0.17369
G1 X159.169 Y123.215 E0.01239
G1 X164.598 Y123.215 E0.17023
G1 X165.120 Y123.081 E0.01690
G1 X165.684 Y122.695 E0.02143
G1 X165.990 Y122.325 E0.01504
G1 X166.089 Y122.123 E0.00705
G1 X166.274 Y121.424 E0.02267
G1 X166.296 Y116.228 E0.16293
G1 X166.672 Y116.384 E0.01275
G1 X166.672 Y121.182 E0.15047
G1 X166.589 Y121.776 E0.01879
G1 X166.441 Y122.258 E0.01583
G1 X166.134 Y122.773 E0.01879
G1 X165.929 Y122.982 E0.00917
G1 X165.270 Y123.427 E0.02495
G1 X164.602 Y123.592 E0.02157
G1 X159.325 Y123.592 E0.16545
G1 X159.481 Y123.969 E0.01280
G1 X164.604 Y123.969 E0.16061
G1 X164.964 Y123.923 E0.01140
G1 X165.698 Y123.622 E0.02486
G1 X166.175 Y123.267 E0.01865
G1 X166.627 Y122.728 E0.02207
G1 X166.793 Y122.392 E0.01175
G1 X166.953 Y121.876 E0.01694
G1 X167.048 Y121.199 E0.02142
G1 X167.049 Y116.540 E0.14611
G1 X167.424 Y116.735 E0.01328
G1 X167.386 Y121.641 E0.15383
G1 X167.143 Y122.533 E0.02900
G1 X166.943 Y122.934 E0.01404
G1 X166.422 Y123.552 E0.02535
G1 X165.587 Y124.111 E0.03151
G1 X165.053 Y124.290 E0.01766
G1 X164.605 Y124.346 E0.01416
G1 X159.643 Y124.346 E0.15556
G1 X159.933 Y124.723 E0.01490
G1 X164.862 Y124.705 E0.15456
G1 X165.743 Y124.455 E0.02873
G1 X166.111 Y124.252 E0.01317
G1 X166.669 Y123.837 E0.02180
G1 X166.964 Y123.543 E0.01305
G1 X167.260 Y123.139 E0.01572
G1 X167.471 Y122.729 E0.01447
G1 X167.757 Y121.709 E0.03319
G1 X167.799 Y121.287 E0.01331
G1 X167.800 Y117.023 E0.13369
G1 X168.176 Y117.312 E0.01487
G1 X168.175 Y121.311 E0.12539
G1 X168.023 Y122.249 E0.02979
G1 X167.815 Y122.885 E0.02098
G1 X167.558 Y123.371 E0.01724
G1 X167.245 Y123.794 E0.01651
G1 X166.915 Y124.123 E0.01462
G1 X166.320 Y124.566 E0.02325
G1 X165.911 Y124.793 E0.01468
G1 X165.228 Y125.023 E0.02259
G1 X164.610 Y125.100 E0.01952
G1 X160.222 Y125.100 E0.13759
G1 X160.511 Y125.477 E0.01490
G1 X164.958 Y125.453 E0.13942
G1 X165.317 Y125.390 E0.01143
G1 X166.071 Y125.134 E0.02500
G1 X166.529 Y124.880 E0.01641
G1 X167.163 Y124.407 E0.02479
G1 X167.532 Y124.039 E0.01633
G1 X168.019 Y123.333 E0.02690
G1 X168.384 Y122.358 E0.03263
G1 X168.497 Y121.858 E0.01607
G1 X168.550 Y121.360 E0.01570
G1 X168.551 Y117.639 E0.11667
G1 X168.926 Y118.128 E0.01932
G1 X168.892 Y121.760 E0.11386
G1 X168.615 Y122.891 E0.03652
G1 X168.446 Y123.320 E0.01448
G1 X168.190 Y123.784 E0.01661
G1 X167.828 Y124.273 E0.01907
G1 X167.460 Y124.648 E0.01648
G1 X166.755 Y125.183 E0.02777
G1 X166.269 Y125.457 E0.01748
G1 X165.405 Y125.757 E0.02867
G1 X164.613 Y125.854 E0.02502
G1 X160.994 Y125.854 E0.11349
G1 X161.485 Y126.231 E0.01942
G1 X164.615 Y126.232 E0.09814
G1 X165.494 Y126.123 E0.02776
G1 X166.434 Y125.797 E0.03119
