; generated by Slic3r Prusa Edition 1.42.0-beta2+linux64 on 2019-06-18 at 12:13:15

; 

; external perimeters extrusion width = 0.45mm
; perimeters extrusion width = 0.45mm
; infill extrusion width = 0.45mm
; solid infill extrusion width = 0.45mm
; top infill extrusion width = 0.40mm
; support material extrusion width = 0.35mm
; first layer extrusion width = 0.42mm

M73 P0 R71
M73 Q0 S72
M201 X1000 Y1000 Z1000 E5000 ; sets maximum accelerations, mm/sec^2
M203 X200 Y200 Z12 E120 ; sets maximum feedrates, mm/sec
M204 P1250 R1250 T1250 ; sets acceleration (P, T) and retract acceleration (R), mm/sec^2
M205 X8.00 Y8.00 Z0.40 E1.50 ; sets the jerk limits, mm/sec
M205 S0 T0 ; sets the minimum extruding and travel feed rate, mm/sec
M107
M115 U3.6.0 ; tell printer latest fw version
M83  ; extruder relative mode
M104 S215 ; set extruder temp
M140 S60 ; set bed temp
M190 S60 ; wait for bed temp
M109 S215 ; wait for extruder temp
G28 W ; home all without mesh bed level
G80 ; mesh bed leveling
G1 Y-3.0 F1000.0 ; go outside print area
G92 E0.0
G1 X60.0 E9.0  F1000.0 ; intro line
M73 Q0 S72
M73 P0 R71
G1 X100.0 E12.5  F1000.0 ; intro line
G92 E0.0
M221 S95
M900 K30 ; Filament gcode
G21 ; set units to millimeters
G90 ; use absolute coordinates
M83 ; use relative distances for extrusion
;BEFORE_LAYER_CHANGE
G92 E0.0
;0.2


G1 E-0.80000 F2100.00000
G1 Z0.600 F10800.000
;AFTER_LAYER_CHANGE
;0.2
G1 X84.606 Y86.002
G1 Z0.200
G1 E0.80000 F2100.00000
M204 S1000
G1 F1200
G1 X85.496 Y85.811 E0.02855
G1 X164.504 Y85.811 E2.47722
G1 X165.404 Y86.007 E0.02889
G1 X166.144 Y86.556 E0.02889
G1 X166.933 Y87.758 E0.04510
G1 X167.126 Y88.343 E0.01931
G1 X167.188 Y88.863 E0.01641
G1 X167.186 Y121.199 E1.01387
G1 X167.057 Y121.920 E0.02295
G1 X166.725 Y122.629 E0.02457
G1 X166.070 Y123.525 E0.03479
G1 X165.394 Y123.998 E0.02586
G1 X164.504 Y124.189 E0.02855
G1 X85.452 Y124.188 E2.47860
G1 X84.741 Y124.053 E0.02270
G1 X84.113 Y123.693 E0.02270
G1 X83.724 Y123.279 E0.01783
G1 X83.064 Y122.235 E0.03872
G1 X82.870 Y121.639 E0.01965
G1 X82.812 Y121.101 E0.01698
G1 X82.813 Y88.823 E1.01204
G1 X82.939 Y88.091 E0.02329
G1 X83.271 Y87.377 E0.02468
G1 X83.930 Y86.475 E0.03501
G1 X84.557 Y86.037 E0.02398
G1 F8640
G1 X85.496 Y85.811 E-0.22310
G1 X87.821 Y85.811 E-0.53690
G1 E-0.04000 F2100.00000
G1 Z0.800 F10800.000
G1 X93.274 Y109.258
G1 Z0.200
G1 E0.80000 F2100.00000
G1 F1200
G1 X94.124 Y109.030 E0.02758
G1 X95.000 Y108.954 E0.02758
G1 X95.876 Y109.030 E0.02758
G1 X96.726 Y109.258 E0.02758
G1 X97.523 Y109.630 E0.02758
G1 X98.244 Y110.134 E0.02758
G1 X98.866 Y110.756 E0.02758
G1 X99.370 Y111.477 E0.02758
G1 X99.742 Y112.274 E0.02758
G1 X99.970 Y113.124 E0.02758
G1 X100.046 Y114.000 E0.02758
G1 X99.970 Y114.876 E0.02758
G1 X99.742 Y115.726 E0.02758
G1 X99.370 Y116.523 E0.02758
G1 X98.866 Y117.244 E0.02758
G1 X98.244 Y117.866 E0.02758
G1 X97.523 Y118.370 E0.02758
G1 X96.726 Y118.742 E0.02758
G1 X95.876 Y118.970 E0.02758
G1 X95.000 Y119.046 E0.02758
G1 X94.124 Y118.970 E0.02758
G1 X93.274 Y118.742 E0.02758
G1 X92.477 Y118.370 E0.02758
G1 X91.756 Y117.866 E0.02758
G1 X91.134 Y117.244 E0.02758
G1 X90.630 Y116.523 E0.02758
G1 X90.258 Y115.726 E0.02758
G1 X90.030 Y114.876 E0.02758
G1 X89.954 Y114.000 E0.02758
G1 X90.030 Y113.124 E0.02758
G1 X90.258 Y112.274 E0.02758
G1 X90.630 Y111.477 E0.02758
G1 X91.134 Y110.756 E0.02758
G1 X91.756 Y110.134 E0.02758
G1 X92.477 Y109.630 E0.02758
G1 X93.220 Y109.283 E0.02570
G1 X93.379 Y109.625 F10800.000
G1 F1200
G1 X94.189 Y109.403 E0.02635
G1 X95.000 Y109.332 E0.02551
G1 X95.811 Y109.403 E0.02551
G1 X96.596 Y109.614 E0.02551
G1 X97.334 Y109.958 E0.02551
G1 X98.000 Y110.424 E0.02551
G1 X98.576 Y111.000 E0.02551
G1 X99.042 Y111.666 E0.02551
G1 X99.386 Y112.404 E0.02551
G1 X99.597 Y113.189 E0.02551
G1 X99.668 Y114.000 E0.02551
G1 X99.597 Y114.811 E0.02551
G1 X99.386 Y115.596 E0.02551
G1 X99.042 Y116.334 E0.02551
G1 X98.576 Y117.000 E0.02551
G1 X98.000 Y117.576 E0.02551
G1 X97.334 Y118.042 E0.02551
G1 X96.596 Y118.386 E0.02551
G1 X95.811 Y118.597 E0.02551
G1 X95.000 Y118.668 E0.02551
G1 X94.189 Y118.597 E0.02551
G1 X93.404 Y118.386 E0.02551
G1 X92.666 Y118.042 E0.02551
G1 X92.000 Y117.576 E0.02551
G1 X91.424 Y117.000 E0.02551
G1 X90.958 Y116.334 E0.02551
G1 X90.614 Y115.596 E0.02551
G1 X90.403 Y114.811 E0.02551
G1 X90.332 Y114.000 E0.02551
G1 X90.403 Y113.189 E0.02551
G1 X90.614 Y112.404 E0.02551
G1 X90.958 Y111.666 E0.02551
G1 X91.424 Y111.000 E0.02551
G1 X92.000 Y110.424 E0.02551
G1 X92.666 Y109.958 E0.02551
G1 X93.325 Y109.650 E0.02278
G1 X93.484 Y109.992 F10800.000
G1 F1200
G1 X94.255 Y109.776 E0.02511
G1 X95.000 Y109.711 E0.02344
G1 X95.745 Y109.776 E0.02344
G1 X96.467 Y109.969 E0.02344
G1 X97.145 Y110.285 E0.02344
G1 X97.757 Y110.714 E0.02344
G1 X98.286 Y111.243 E0.02344
G1 X98.715 Y111.855 E0.02344
G1 X99.031 Y112.533 E0.02344
G1 X99.224 Y113.255 E0.02344
G1 X99.289 Y114.000 E0.02344
G1 X99.224 Y114.745 E0.02344
G1 X99.031 Y115.467 E0.02344
G1 X98.715 Y116.145 E0.02344
G1 X98.286 Y116.757 E0.02344
G1 X97.757 Y117.286 E0.02344
G1 X97.145 Y117.715 E0.02344
G1 X96.467 Y118.031 E0.02344
G1 X95.745 Y118.224 E0.02344
G1 X95.000 Y118.289 E0.02344
G1 X94.255 Y118.224 E0.02344
G1 X93.533 Y118.031 E0.02344
G1 X92.855 Y117.715 E0.02344
G1 X92.243 Y117.286 E0.02344
G1 X91.714 Y116.757 E0.02344
G1 X91.285 Y116.145 E0.02344
G1 X90.969 Y115.467 E0.02344
G1 X90.776 Y114.745 E0.02344
G1 X90.711 Y114.000 E0.02344
G1 X90.776 Y113.255 E0.02344
G1 X90.969 Y112.533 E0.02344
G1 X91.285 Y111.855 E0.02344
G1 X91.714 Y111.243 E0.02344
G1 X92.243 Y110.714 E0.02344
G1 X92.855 Y110.285 E0.02344
G1 X93.430 Y110.018 E0.01987
G1 X93.589 Y110.359 F10800.000
G1 F1200
G1 X93.662 Y110.325 E0.00254
G1 X94.321 Y110.149 E0.02137
G1 X95.000 Y110.089 E0.02137
G1 X95.679 Y110.149 E0.02137
G1 X96.338 Y110.325 E0.02137
G1 X96.955 Y110.613 E0.02137
G1 X97.514 Y111.004 E0.02137
G1 X97.996 Y111.486 E0.02137
G1 X98.387 Y112.045 E0.02137
G1 X98.675 Y112.662 E0.02137
G1 X98.851 Y113.321 E0.02137
G1 X98.911 Y114.000 E0.02137
G1 X98.851 Y114.679 E0.02137
G1 X98.675 Y115.338 E0.02137
G1 X98.387 Y115.955 E0.02137
G1 X97.996 Y116.514 E0.02137
G1 X97.514 Y116.996 E0.02137
G1 X96.955 Y117.387 E0.02137
G1 X96.338 Y117.675 E0.02137
G1 X95.679 Y117.851 E0.02137
G1 X95.000 Y117.911 E0.02137
G1 X94.321 Y117.851 E0.02137
G1 X93.662 Y117.675 E0.02137
G1 X93.045 Y117.387 E0.02137
G1 X92.486 Y116.996 E0.02137
G1 X92.004 Y116.514 E0.02137
G1 X91.613 Y115.955 E0.02137
G1 X91.325 Y115.338 E0.02137
G1 X91.149 Y114.679 E0.02137
G1 X91.089 Y114.000 E0.02137
G1 X91.149 Y113.321 E0.02137
G1 X91.325 Y112.662 E0.02137
G1 X91.613 Y112.045 E0.02137
G1 X92.004 Y111.486 E0.02137
G1 X92.486 Y111.004 E0.02137
G1 X93.045 Y110.613 E0.02137
G1 X93.535 Y110.385 E0.01695
G1 X93.594 Y110.278 F10800.000
G1 F8640
G1 X93.662 Y110.325 E-0.03256
G1 X94.321 Y110.149 E-0.15741
G1 X95.000 Y110.089 E-0.15741
G1 X95.679 Y110.149 E-0.15741
G1 X96.338 Y110.325 E-0.15741
G1 X96.721 Y110.504 E-0.09781
G1 E-0.04000 F2100.00000
G1 Z0.800 F10800.000
G1 X149.954 Y114.000
G1 Z0.200
G1 E0.80000 F2100.00000
G1 F1200
G1 X150.030 Y113.124 E0.02758
G1 X150.258 Y112.274 E0.02758
G1 X150.630 Y111.477 E0.02758
G1 X151.134 Y110.756 E0.02758
G1 X151.756 Y110.134 E0.02758
G1 X152.477 Y109.630 E0.02758
G1 X153.274 Y109.258 E0.02758
G1 X154.124 Y109.030 E0.02758
G1 X155.000 Y108.954 E0.02758
G1 X155.876 Y109.030 E0.02758
G1 X156.726 Y109.258 E0.02758
G1 X157.523 Y109.630 E0.02758
G1 X158.244 Y110.134 E0.02758
G1 X158.866 Y110.756 E0.02758
G1 X159.370 Y111.477 E0.02758
G1 X159.742 Y112.274 E0.02758
G1 X159.970 Y113.124 E0.02758
G1 X160.046 Y114.000 E0.02758
G1 X159.970 Y114.876 E0.02758
G1 X159.742 Y115.726 E0.02758
G1 X159.370 Y116.523 E0.02758
G1 X158.866 Y117.244 E0.02758
G1 X158.244 Y117.866 E0.02758
G1 X157.523 Y118.370 E0.02758
G1 X156.726 Y118.742 E0.02758
G1 X155.876 Y118.970 E0.02758
G1 X155.000 Y119.046 E0.02758
G1 X154.124 Y118.970 E0.02758
G1 X153.274 Y118.742 E0.02758
G1 X152.477 Y118.370 E0.02758
G1 X151.756 Y117.866 E0.02758
G1 X151.134 Y117.244 E0.02758
G1 X150.630 Y116.523 E0.02758
G1 X150.258 Y115.726 E0.02758
G1 X150.030 Y114.876 E0.02758
G1 X149.959 Y114.060 E0.02570
G1 X150.335 Y114.027 F10800.000
G1 F1200
G1 X150.403 Y113.189 E0.02635
G1 X150.614 Y112.404 E0.02551
G1 X150.958 Y111.666 E0.02551
G1 X151.424 Y111.000 E0.02551
G1 X152.000 Y110.424 E0.02551
G1 X152.666 Y109.958 E0.02551
G1 X153.404 Y109.614 E0.02551
G1 X154.189 Y109.403 E0.02551
G1 X155.000 Y109.332 E0.02551
G1 X155.811 Y109.403 E0.02551
G1 X156.596 Y109.614 E0.02551
G1 X157.334 Y109.958 E0.02551
G1 X158.000 Y110.424 E0.02551
G1 X158.576 Y111.000 E0.02551
G1 X159.042 Y111.666 E0.02551
G1 X159.386 Y112.404 E0.02551
G1 X159.597 Y113.189 E0.02551
G1 X159.668 Y114.000 E0.02551
G1 X159.597 Y114.811 E0.02551
G1 X159.386 Y115.596 E0.02551
G1 X159.042 Y116.334 E0.02551
G1 X158.576 Y117.000 E0.02551
G1 X158.000 Y117.576 E0.02551
G1 X157.334 Y118.042 E0.02551
G1 X156.596 Y118.386 E0.02551
G1 X155.811 Y118.597 E0.02551
G1 X155.000 Y118.668 E0.02551
G1 X154.189 Y118.597 E0.02551
G1 X153.404 Y118.386 E0.02551
G1 X152.666 Y118.042 E0.02551
G1 X152.000 Y117.576 E0.02551
G1 X151.424 Y117.000 E0.02551
G1 X150.958 Y116.334 E0.02551
G1 X150.614 Y115.596 E0.02551
G1 X150.403 Y114.811 E0.02551
G1 X150.340 Y114.087 E0.02278
G1 X150.715 Y114.054 F10800.000
G1 F1200
G1 X150.776 Y113.255 E0.02511
G1 X150.969 Y112.533 E0.02344
G1 X151.285 Y111.855 E0.02344
G1 X151.714 Y111.243 E0.02344
G1 X152.243 Y110.714 E0.02344
G1 X152.855 Y110.285 E0.02344
G1 X153.533 Y109.969 E0.02344
G1 X154.255 Y109.776 E0.02344
G1 X155.000 Y109.711 E0.02344
G1 X155.745 Y109.776 E0.02344
G1 X156.467 Y109.969 E0.02344
G1 X157.145 Y110.285 E0.02344
G1 X157.757 Y110.714 E0.02344
G1 X158.286 Y111.243 E0.02344
G1 X158.715 Y111.855 E0.02344
G1 X159.031 Y112.533 E0.02344
G1 X159.224 Y113.255 E0.02344
G1 X159.289 Y114.000 E0.02344
G1 X159.224 Y114.745 E0.02344
G1 X159.031 Y115.467 E0.02344
G1 X158.715 Y116.145 E0.02344
G1 X158.286 Y116.757 E0.02344
G1 X157.757 Y117.286 E0.02344
G1 X157.145 Y117.715 E0.02344
G1 X156.467 Y118.031 E0.02344
G1 X155.745 Y118.224 E0.02344
G1 X155.000 Y118.289 E0.02344
G1 X154.255 Y118.224 E0.02344
G1 X153.533 Y118.031 E0.02344
G1 X152.855 Y117.715 E0.02344
G1 X152.243 Y117.286 E0.02344
G1 X151.714 Y116.757 E0.02344
G1 X151.285 Y116.145 E0.02344
G1 X150.969 Y115.467 E0.02344
G1 X150.776 Y114.745 E0.02344
G1 X150.721 Y114.114 E0.01987
G1 X151.096 Y114.081 F10800.000
G1 F1200
G1 X151.089 Y114.000 E0.00254
G1 X151.149 Y113.321 E0.02137
G1 X151.325 Y112.662 E0.02137
G1 X151.613 Y112.045 E0.02137
G1 X152.004 Y111.486 E0.02137
G1 X152.486 Y111.004 E0.02137
G1 X153.045 Y110.613 E0.02137
G1 X153.662 Y110.325 E0.02137
G1 X154.321 Y110.149 E0.02137
G1 X155.000 Y110.089 E0.02137
G1 X155.679 Y110.149 E0.02137
G1 X156.338 Y110.325 E0.02137
G1 X156.955 Y110.613 E0.02137
G1 X157.514 Y111.004 E0.02137
G1 X157.996 Y111.486 E0.02137
G1 X158.387 Y112.045 E0.02137
G1 X158.675 Y112.662 E0.02137
G1 X158.851 Y113.321 E0.02137
G1 X158.911 Y114.000 E0.02137
G1 X158.851 Y114.679 E0.02137
G1 X158.675 Y115.338 E0.02137
G1 X158.387 Y115.955 E0.02137
G1 X157.996 Y116.514 E0.02137
G1 X157.514 Y116.996 E0.02137
G1 X156.955 Y117.387 E0.02137
G1 X156.338 Y117.675 E0.02137
G1 X155.679 Y117.851 E0.02137
G1 X155.000 Y117.911 E0.02137
G1 X154.321 Y117.851 E0.02137
G1 X153.662 Y117.675 E0.02137
G1 X153.045 Y117.387 E0.02137
G1 X152.486 Y116.996 E0.02137
G1 X152.004 Y116.514 E0.02137
G1 X151.613 Y115.955 E0.02137
G1 X151.325 Y115.338 E0.02137
G1 X151.149 Y114.679 E0.02137
G1 X151.101 Y114.140 E0.01695
G1 X151.022 Y114.049 F10800.000
G1 F8640
G1 X151.089 Y114.000 E-0.03257
G1 X151.149 Y113.321 E-0.15741
G1 X151.325 Y112.662 E-0.15741
G1 X151.613 Y112.045 E-0.15741
G1 X152.004 Y111.486 E-0.15741
G1 X152.304 Y111.187 E-0.09781
G1 E-0.04000 F2100.00000
G1 Z0.800 F10800.000
G1 X163.259 Y120.177
G1 Z0.200
G1 E0.80000 F2100.00000
G1 F1200
G1 X86.741 Y120.177 E2.39915
G1 X86.741 Y89.823 E0.95172
G1 X163.259 Y89.823 E2.39915
G1 X163.259 Y120.117 E0.94984
G1 X163.636 Y120.554 F10800.000
G1 F1200
G1 X86.364 Y120.554 E2.42280
G1 X86.364 Y89.446 E0.97536
G1 X163.636 Y89.446 E2.42280
G1 X163.636 Y120.494 E0.97348
G1 X164.013 Y120.931 F10800.000
G1 F1200
G1 X85.987 Y120.931 E2.44645
G1 X85.987 Y89.069 E0.99901
G1 X164.013 Y89.069 E2.44645
M73 Q1 S71
G1 X164.013 Y120.871 E0.99713
M73 P1 R70
G1 X164.381 Y121.189 F10800.000
G1 F1200
G1 X164.345 Y121.308 E0.00391
G1 X85.655 Y121.308 E2.46725
G1 X85.619 Y121.189 E0.00391
G1 X85.610 Y121.078 E0.00350
G1 X85.610 Y88.922 E1.00820
G1 X85.619 Y88.811 E0.00350
G1 X85.655 Y88.692 E0.00391
G1 X164.351 Y88.692 E2.46744
G1 X164.390 Y88.931 E0.00761
G1 X164.386 Y121.129 E1.00954
G1 X164.263 Y121.229 F10800.000
G1 F8640
G1 X164.345 Y121.308 E-0.04242
G1 X161.237 Y121.308 E-0.71758
G1 E-0.04000 F2100.00000
G1 Z0.800 F10800.000
G1 X153.442 Y120.064
G1 Z0.200
G1 E0.80000 F2100.00000
G1 F1200
G1 X123.485 Y90.106 E1.33305
G1 X122.949 Y90.106 E0.01684
G1 X152.738 Y119.894 E1.32550
G1 X152.202 Y119.894 E0.01684
G1 X122.414 Y90.106 E1.32550
G1 X121.879 Y90.106 E0.01684
G1 X151.667 Y119.894 E1.32550
G1 X151.132 Y119.894 E0.01684
G1 X121.344 Y90.106 E1.32550
G1 X120.809 Y90.106 E0.01684
G1 X150.597 Y119.894 E1.32550
G1 X150.062 Y119.894 E0.01684
G1 X120.274 Y90.106 E1.32550
G1 X119.739 Y90.106 E0.01684
G1 X149.527 Y119.894 E1.32550
G1 X148.992 Y119.894 E0.01684
G1 X119.203 Y90.106 E1.32550
G1 X118.668 Y90.106 E0.01684
G1 X148.456 Y119.894 E1.32550
G1 X147.921 Y119.894 E0.01684
G1 X118.133 Y90.106 E1.32550
G1 X117.598 Y90.106 E0.01684
G1 X147.386 Y119.894 E1.32550
G1 X146.851 Y119.894 E0.01684
G1 X117.063 Y90.106 E1.32550
G1 X116.528 Y90.106 E0.01684
G1 X146.316 Y119.894 E1.32550
G1 X145.781 Y119.894 E0.01684
G1 X115.993 Y90.106 E1.32550
G1 X115.457 Y90.106 E0.01684
G1 X145.246 Y119.894 E1.32550
G1 X144.710 Y119.894 E0.01684
G1 X114.922 Y90.106 E1.32550
G1 X114.387 Y90.106 E0.01684
G1 X144.175 Y119.894 E1.32550
G1 X143.640 Y119.894 E0.01684
G1 X113.852 Y90.106 E1.32550
G1 X113.317 Y90.106 E0.01684
G1 X143.105 Y119.894 E1.32550
G1 X142.570 Y119.894 E0.01684
G1 X112.782 Y90.106 E1.32550
G1 X112.247 Y90.106 E0.01684
G1 X142.035 Y119.894 E1.32550
M73 Q2 S70
G1 X141.500 Y119.894 E0.01684
G1 X111.711 Y90.106 E1.32550
M73 P2 R69
G1 X111.176 Y90.106 E0.01684
G1 X140.964 Y119.894 E1.32550
G1 X140.429 Y119.894 E0.01684
G1 X110.641 Y90.106 E1.32550
G1 X110.106 Y90.106 E0.01684
G1 X139.894 Y119.894 E1.32550
G1 X139.359 Y119.894 E0.01684
G1 X109.571 Y90.106 E1.32550
G1 X109.036 Y90.106 E0.01684
G1 X138.824 Y119.894 E1.32550
G1 X138.289 Y119.894 E0.01684
G1 X108.501 Y90.106 E1.32550
G1 X107.965 Y90.106 E0.01684
G1 X137.754 Y119.894 E1.32550
G1 X137.218 Y119.894 E0.01684
G1 X107.430 Y90.106 E1.32550
G1 X106.895 Y90.106 E0.01684
G1 X136.683 Y119.894 E1.32550
G1 X136.148 Y119.894 E0.01684
G1 X106.360 Y90.106 E1.32550
G1 X105.825 Y90.106 E0.01684
G1 X135.613 Y119.894 E1.32550
G1 X135.078 Y119.894 E0.01684
G1 X105.290 Y90.106 E1.32550
G1 X104.755 Y90.106 E0.01684
G1 X134.543 Y119.894 E1.32550
G1 X134.007 Y119.894 E0.01684
G1 X104.219 Y90.106 E1.32550
G1 X103.684 Y90.106 E0.01684
G1 X133.472 Y119.894 E1.32550
G1 X132.937 Y119.894 E0.01684
G1 X103.149 Y90.106 E1.32550
G1 X102.614 Y90.106 E0.01684
G1 X132.402 Y119.894 E1.32550
G1 X131.867 Y119.894 E0.01684
G1 X102.079 Y90.106 E1.32550
G1 X101.544 Y90.106 E0.01684
G1 X131.332 Y119.894 E1.32550
G1 X130.797 Y119.894 E0.01684
G1 X101.009 Y90.106 E1.32550
G1 X100.473 Y90.106 E0.01684
G1 X130.261 Y119.894 E1.32550
G1 X129.726 Y119.894 E0.01684
G1 X99.938 Y90.106 E1.32550
G1 X99.403 Y90.106 E0.01684
G1 X129.191 Y119.894 E1.32550
G1 X128.656 Y119.894 E0.01684
G1 X98.868 Y90.106 E1.32550
G1 X98.333 Y90.106 E0.01684
G1 X128.121 Y119.894 E1.32550
G1 X127.586 Y119.894 E0.01684
G1 X97.798 Y90.106 E1.32550
G1 X97.263 Y90.106 E0.01684
G1 X127.051 Y119.894 E1.32550
M73 Q4 S69
G1 X126.515 Y119.894 E0.01684
G1 X96.727 Y90.106 E1.32550
M73 P4 R68
G1 X96.192 Y90.106 E0.01684
G1 X125.980 Y119.894 E1.32550
G1 X125.445 Y119.894 E0.01684
G1 X95.657 Y90.106 E1.32550
G1 X95.122 Y90.106 E0.01684
