; generated by SuperSlicer 2.3.55 on 2021-06-22 at 17:24:39 UTC

; 

; external perimeters extrusion width = 0.45mm
; perimeters extrusion width = 0.45mm
; infill extrusion width = 0.45mm
; solid infill extrusion width = 0.45mm
; top infill extrusion width = 0.40mm
; first layer extrusion width = 0.42mm

; object:{"name":"pcmountlaptop","id":"pcmountlaptop.STL id:0 copy 0","object_center":[125.000000,105.000000,0.000000],"boundingbox_center":[125.000000,105.000000,40.000000],"boundingbox_size":[70.000000,15.000000,80.000000]}
; Total objects to print: 1
M486 T1
; plater:{"center":[125.000000,105.000000,0.000000],"boundingbox_center":[125.000000,105.000000,40.000000],"boundingbox_size":[70.000000,15.000000,80.000000]}

M73 P0 R127
M73 Q0 S128
;TYPE:Custom
M862.3 P "MK3S" ; printer model check
M862.1 P0.4 ; nozzle diameter check
M115 U3.9.2 ; tell printer latest fw version
G90 ; use absolute coordinates
M83 ; extruder relative mode
M104 S215 ; set extruder temp
M140 S60 ; set bed temp
M190 S60 ; wait for bed temp
M109 S215 ; wait for extruder temp
G28 W ; home all without mesh bed level
G80 ; mesh bed leveling
G1 Y-3.0 F1000.0 ; go outside print area
G92 E0.0
G1 X60.0 E9.0 F1000.0 ; intro line
G1 X100.0 E12.5 F1000.0 ; intro line
G92 E0.0
M221 S95

; Don't change E values below. Excessive value can damage the printer.

M107
G21 ; set units to millimeters
G90 ; use absolute coordinates
M83 ; use relative distances for extrusion
M900 K0.05 ; Filament gcode LA 1.5
M900 K30 ; Filament gcode LA 1.0
;LAYER_CHANGE
;Z:0.2
;HEIGHT:0.2
;BEFORE_LAYER_CHANGE
;0.2


G1 E-0.80000 F2100.000
G1 Z0.400000 F10800.000
;AFTER_LAYER_CHANGE
;0.2
G1 X85.384 Y92.889
G1 Z0.200000
G1 E0.80000 F2100.000
;TYPE:Skirt
;WIDTH:0.42
G1 F1200.000
G1 X86.159 Y92.323 E0.03009
G1 X87.009 Y91.863 E0.03030
G1 X87.906 Y91.523 E0.03009
G1 X88.926 Y91.292 E0.03279
G1 X89.969 Y91.212 E0.03279
G1 X160.007 Y91.211 E2.19599
G1 X161.343 Y91.338 E0.04210
G1 X162.633 Y91.711 E0.04210
G1 X163.831 Y92.317 E0.04210
G1 X164.895 Y93.136 E0.04210
G1 X165.789 Y94.138 E0.04210
G1 X166.481 Y95.289 E0.04210
G1 X166.944 Y96.542 E0.04189
G1 X167.169 Y97.866 E0.04210
G1 X167.188 Y112.573 E0.46113
M73 P0 R126
G1 X166.997 Y114.148 E0.04974
G1 X166.725 Y115.040 E0.02926
G1 X166.336 Y115.896 E0.02947
G1 X165.838 Y116.694 E0.02947
G1 X165.246 Y117.415 E0.02926
G1 X164.560 Y118.057 E0.02947
G1 X163.801 Y118.601 E0.02926
G1 X162.973 Y119.045 E0.02947
G1 X162.094 Y119.377 E0.02947
G1 X161.074 Y119.608 E0.03279
G1 X160.031 Y119.688 E0.03279
G1 X89.563 Y119.675 E2.20948
G1 X88.481 Y119.526 E0.03424
G1 X87.441 Y119.218 E0.03403
G1 X86.453 Y118.753 E0.03424
G1 X85.547 Y118.143 E0.03424
G1 X84.744 Y117.404 E0.03424
G1 X84.062 Y116.551 E0.03424
G1 X83.519 Y115.611 E0.03403
G1 X83.123 Y114.594 E0.03424
G1 X82.894 Y113.587 E0.03237
G1 X82.812 Y112.564 E0.03216
G1 X82.812 Y98.334 E0.44619
G1 X82.961 Y96.940 E0.04396
G1 X83.221 Y96.009 E0.03030
G1 X83.600 Y95.127 E0.03009
G1 X84.093 Y94.304 E0.03009
G1 X84.691 Y93.553 E0.03009
G1 X85.341 Y92.931 E0.02821
;WIPE_START
G1 F8640.000
G1 X86.159 Y92.323 E-0.23535
G1 X87.009 Y91.863 E-0.22313
G1 X87.906 Y91.523 E-0.22161
G1 X88.244 Y91.447 E-0.07991
;WIPE_END
G1 E-0.04000 F2100.000
G1 Z1.000000 F10800.000
G1 X91.182 Y92.933
G1 Z0.200000
G1 E0.80000 F2100.000
G1 F1200.000
G1 X89.277 Y92.978 E0.05974
G1 X88.276 Y93.228 E0.03234
G1 X87.464 Y93.590 E0.02789
G1 X86.858 Y93.983 E0.02265
G1 X85.871 Y94.911 E0.04247
G1 X85.468 Y95.417 E0.02029
G1 X85.093 Y96.050 E0.02306
G1 X84.687 Y97.127 E0.03610
G1 X84.558 Y97.838 E0.02265
G1 X84.532 Y99.580 E0.05462
;WIPE_START
G1 F8640.000
G1 X84.558 Y97.838 E-0.40222
G1 X84.687 Y97.127 E-0.16679
G1 X84.979 Y96.353 E-0.19099
;WIPE_END
G1 E-0.04000 F2100.000
G1 Z0.600000 F10800.000
G1 X84.909 Y100.678
G1 Z0.200000
G1 E0.80000 F2100.000
G1 F1200.000
G1 X84.909 Y98.267 E0.07559
G1 X85.041 Y97.267 E0.03164
G1 X85.423 Y96.234 E0.03452
G1 X85.780 Y95.629 E0.02205
G1 X86.149 Y95.166 E0.01855
G1 X86.835 Y94.487 E0.03026
G1 X87.399 Y94.067 E0.02203
G1 X87.974 Y93.759 E0.02048
G1 X88.774 Y93.465 E0.02673
G1 X89.857 Y93.310 E0.03430
G1 X92.279 Y93.310 E0.07593
G1 X93.016 Y93.687 F10800.000
G1 F1200.000
G1 X89.399 Y93.722 E0.11339
G1 X88.874 Y93.828 E0.01680
G1 X88.125 Y94.104 E0.02503
G1 X87.311 Y94.586 E0.02966
G1 X86.426 Y95.422 E0.03816
G1 X85.909 Y96.125 E0.02736
G1 X85.497 Y97.046 E0.03165
G1 X85.342 Y97.675 E0.02030
G1 X85.287 Y98.281 E0.01909
G1 X85.287 Y101.415 E0.09826
G1 X85.664 Y101.906 E0.01942
G1 X85.664 Y98.282 E0.11365
G1 X85.707 Y97.775 E0.01594
G1 X85.847 Y97.189 E0.01889
G1 X86.098 Y96.572 E0.02090
G1 X86.404 Y96.052 E0.01890
G1 X86.697 Y95.684 E0.01476
G1 X87.322 Y95.063 E0.02762
G1 X87.796 Y94.708 E0.01857
G1 X88.276 Y94.450 E0.01707
G1 X88.987 Y94.188 E0.02377
G1 X89.452 Y94.095 E0.01487
G1 X93.507 Y94.064 E0.12714
G1 X93.994 Y94.447 E0.01944
G1 X89.686 Y94.449 E0.13508
G1 X89.369 Y94.491 E0.01003
G1 X88.925 Y94.599 E0.01433
G1 X88.161 Y94.928 E0.02605
G1 X87.608 Y95.314 E0.02116
G1 X86.927 Y95.993 E0.03016
G1 X86.547 Y96.528 E0.02057
G1 X86.269 Y97.131 E0.02082
G1 X86.127 Y97.591 E0.01508
G1 X86.045 Y98.152 E0.01780
G1 X86.044 Y102.391 E0.13291
G1 X86.419 Y102.679 E0.01483
G1 X86.420 Y98.210 E0.14012
G1 X86.492 Y97.688 E0.01653
G1 X86.873 Y96.717 E0.03271
G1 X87.217 Y96.234 E0.01860
G1 X87.839 Y95.613 E0.02756
G1 X88.578 Y95.141 E0.02748
G1 X89.037 Y94.959 E0.01548
G1 X89.725 Y94.825 E0.02198
G1 X94.282 Y94.823 E0.14289
G1 X94.570 Y95.198 E0.01483
G1 X89.519 Y95.230 E0.15836
G1 X89.152 Y95.319 E0.01186
G1 X88.524 Y95.589 E0.02142
G1 X88.086 Y95.898 E0.01681
G1 X87.509 Y96.473 E0.02553
G1 X87.198 Y96.908 E0.01678
G1 X86.966 Y97.419 E0.01761
G1 X86.796 Y98.228 E0.02591
G1 X86.796 Y102.968 E0.14863
G1 X87.173 Y103.257 E0.01489
G1 X87.173 Y98.247 E0.15709
G1 X87.316 Y97.559 E0.02205
G1 X87.526 Y97.094 E0.01601
G1 X87.815 Y96.697 E0.01537
G1 X88.334 Y96.182 E0.02292
G1 X88.710 Y95.917 E0.01443
G1 X89.264 Y95.679 E0.01891
G1 X89.588 Y95.601 E0.01045
G1 X94.859 Y95.575 E0.16527
G1 X95.020 Y95.951 E0.01283
G1 X89.830 Y95.951 E0.16271
G1 X89.372 Y96.040 E0.01463
G1 X88.882 Y96.253 E0.01674
G1 X88.577 Y96.470 E0.01175
G1 X88.095 Y96.950 E0.02133
G1 X87.853 Y97.282 E0.01290
G1 X87.665 Y97.702 E0.01442
G1 X87.549 Y98.267 E0.01808
G1 X87.549 Y103.419 E0.16154
G1 X87.926 Y103.575 E0.01279
G1 X87.926 Y98.279 E0.16607
G1 X87.980 Y97.950 E0.01044
G1 X88.199 Y97.439 E0.01745
G1 X88.829 Y96.751 E0.02923
G1 X89.070 Y96.580 E0.00928
G1 X89.488 Y96.399 E0.01428
G1 X89.851 Y96.328 E0.01159
G1 X95.176 Y96.328 E0.16695
G1 X95.331 Y96.704 E0.01276
G1 X89.893 Y96.703 E0.17053
G1 X89.326 Y96.871 E0.01853
G1 X89.065 Y97.046 E0.00985
G1 X88.646 Y97.465 E0.01857
G1 X88.358 Y98.002 E0.01911
G1 X88.303 Y98.292 E0.00927
G1 X88.303 Y103.731 E0.17053
G1 X88.680 Y103.849 E0.01239
G1 X88.680 Y98.302 E0.17394
G1 X88.716 Y98.120 E0.00580
G1 X88.919 Y97.725 E0.01393
G1 X89.479 Y97.216 E0.02371
G1 X89.902 Y97.080 E0.01393
G1 X95.449 Y97.081 E0.17394
G1 X95.499 Y97.458 E0.01193
G1 X89.920 Y97.457 E0.17491
G1 X89.578 Y97.599 E0.01160
G1 X89.199 Y97.978 E0.01683
G1 X89.057 Y98.320 E0.01160
G1 X89.057 Y103.899 E0.17491
G1 X89.434 Y103.948 E0.01193
G1 X89.434 Y98.357 E0.17531
G1 X89.492 Y98.219 E0.00470
G1 X89.819 Y97.892 E0.01450
G1 X89.957 Y97.834 E0.00470
G1 X95.549 Y97.835 E0.17531
G1 X95.598 Y98.212 E0.01193
G1 X90.032 Y98.211 E0.17451
G1 X89.811 Y98.432 E0.00980
G1 X89.811 Y103.998 E0.17451
;WIPE_START
G1 F8640.000
G1 X89.811 Y100.707 E-0.76000
;WIPE_END
G1 E-0.04000 F2100.000
G1 Z0.600000 F10800.000
G1 X89.811 Y106.902
G1 Z0.200000
G1 E0.80000 F2100.000
G1 F1200.000
G1 X89.811 Y112.468 E0.17451
G1 X90.032 Y112.689 E0.00979
G1 X95.598 Y112.689 E0.17451
G1 X95.548 Y113.066 E0.01193
G1 X89.957 Y113.066 E0.17531
G1 X89.819 Y113.008 E0.00470
G1 X89.492 Y112.681 E0.01450
G1 X89.434 Y112.543 E0.00470
G1 X89.434 Y106.952 E0.17531
G1 X89.057 Y107.001 E0.01193
G1 X89.057 Y112.580 E0.17491
G1 X89.199 Y112.922 E0.01160
G1 X89.578 Y113.301 E0.01683
G1 X89.920 Y113.443 E0.01160
G1 X95.499 Y113.443 E0.17491
G1 X95.449 Y113.820 E0.01193
G1 X89.902 Y113.820 E0.17394
G1 X89.720 Y113.784 E0.00580
G1 X89.325 Y113.581 E0.01393
G1 X88.816 Y113.021 E0.02371
G1 X88.680 Y112.598 E0.01393
G1 X88.680 Y107.051 E0.17394
G1 X88.303 Y107.169 E0.01239
G1 X88.303 Y112.608 E0.17053
G1 X88.364 Y112.916 E0.00985
G1 X88.646 Y113.435 E0.01853
G1 X89.244 Y113.985 E0.02547
G1 X89.602 Y114.142 E0.01225
G1 X89.892 Y114.197 E0.00927
G1 X95.331 Y114.197 E0.17053
G1 X95.175 Y114.574 E0.01280
G1 X89.888 Y114.574 E0.16578
G1 X89.444 Y114.486 E0.01418
G1 X89.078 Y114.325 E0.01254
G1 X88.801 Y114.124 E0.01073
G1 X88.180 Y113.430 E0.02922
G1 X87.999 Y113.012 E0.01428
G1 X87.926 Y112.621 E0.01245
G1 X87.926 Y107.325 E0.16607
G1 X87.549 Y107.481 E0.01279
G1 X87.549 Y112.633 E0.16154
G1 X87.638 Y113.124 E0.01564
G1 X87.846 Y113.606 E0.01645
G1 X88.067 Y113.919 E0.01204
G1 X88.550 Y114.405 E0.02147
G1 X88.882 Y114.647 E0.01290
G1 X89.660 Y114.929 E0.02593
G1 X95.019 Y114.951 E0.16803
G1 X94.857 Y115.328 E0.01287
G1 X89.882 Y115.328 E0.15598
G1 X89.161 Y115.185 E0.02305
G1 X88.693 Y114.974 E0.01609
G1 X88.297 Y114.685 E0.01536
G1 X87.782 Y114.167 E0.02292
G1 X87.516 Y113.788 E0.01450
G1 X87.257 Y113.166 E0.02115
G1 X87.196 Y112.883 E0.00907
G1 X87.173 Y107.643 E0.16430
G1 X86.796 Y107.932 E0.01489
G1 X86.796 Y112.654 E0.14807
G1 X86.895 Y113.270 E0.01955
G1 X87.081 Y113.759 E0.01642
G1 X87.497 Y114.413 E0.02430
G1 X88.073 Y114.991 E0.02556
G1 X88.508 Y115.302 E0.01678
G1 X89.029 Y115.538 E0.01793
G1 X89.515 Y115.669 E0.01576
G1 X94.568 Y115.705 E0.15844
G1 X94.278 Y116.082 E0.01490
G1 X89.875 Y116.082 E0.13805
G1 X89.443 Y116.039 E0.01363
G1 X88.896 Y115.891 E0.01775
G1 X88.322 Y115.630 E0.01978
G1 X87.834 Y115.283 E0.01878
G1 X87.200 Y114.646 E0.02818
G1 X86.848 Y114.139 E0.01935
G1 X86.619 Y113.629 E0.01754
G1 X86.452 Y113.005 E0.02024
G1 X86.419 Y108.221 E0.15001
G1 X86.043 Y108.510 E0.01487
G1 X86.042 Y112.685 E0.13092
G1 X86.078 Y113.055 E0.01164
G1 X86.270 Y113.773 E0.02331
G1 X86.516 Y114.317 E0.01873
G1 X86.914 Y114.891 E0.02190
G1 X87.825 Y115.756 E0.03939
G1 X88.379 Y116.084 E0.02019
G1 X89.065 Y116.342 E0.02298
G1 X89.860 Y116.459 E0.02519
G1 X93.989 Y116.459 E0.12947
G1 X93.509 Y116.834 E0.01909
G1 X89.779 Y116.834 E0.11696
G1 X89.137 Y116.747 E0.02032
G1 X88.615 Y116.591 E0.01707
G1 X87.950 Y116.286 E0.02294
G1 X87.388 Y115.894 E0.02150
G1 X86.720 Y115.240 E0.02929
G1 X86.401 Y114.842 E0.01600
G1 X86.076 Y114.283 E0.02028
G1 X85.788 Y113.513 E0.02577
G1 X85.664 Y112.624 E0.02815
G1 X85.664 Y108.994 E0.11382
G1 X85.287 Y109.485 E0.01942
G1 X85.287 Y112.626 E0.09848
G1 X85.428 Y113.626 E0.03167
G1 X85.896 Y114.754 E0.03828
G1 X86.445 Y115.499 E0.02901
G1 X87.156 Y116.191 E0.03112
G1 X88.065 Y116.769 E0.03377
G1 X89.061 Y117.116 E0.03307
G1 X89.761 Y117.211 E0.02216
G1 X93.018 Y117.211 E0.10212
G1 X92.291 Y117.585 F10800.000
G1 F1200.000
G1 X89.697 Y117.585 E0.08133
G1 X88.606 Y117.386 E0.03478
G1 X87.893 Y117.105 E0.02401
G1 X87.198 Y116.698 E0.02527
G1 X86.170 Y115.756 E0.04372
G1 X85.571 Y114.944 E0.03165
G1 X85.065 Y113.726 E0.04135
G1 X84.909 Y112.628 E0.03475
G1 X84.909 Y110.222 E0.07545
;WIPE_START
G1 F8640.000
G1 X84.909 Y112.628 E-0.55563
G1 X85.033 Y113.505 E-0.20437
;WIPE_END
G1 E-0.04000 F2100.000
G1 Z0.600000 F10800.000
G1 X84.532 Y111.320
G1 Z0.200000
G1 E0.80000 F2100.000
G1 F1200.000
G1 X84.532 Y112.631 E0.04108
G1 X84.576 Y113.208 E0.01815
G1 X84.705 Y113.841 E0.02026
G1 X85.236 Y115.118 E0.04338
G1 X85.895 Y116.015 E0.03488
G1 X86.983 Y117.008 E0.04618
G1 X87.378 Y117.262 E0.01474
G1 X88.201 Y117.643 E0.02842
G1 X89.288 Y117.924 E0.03521
G1 X91.224 Y117.962 E0.06071
;WIPE_START
G1 F8640.000
G1 X89.288 Y117.924 E-0.44712
G1 X88.201 Y117.643 E-0.25932
G1 X87.990 Y117.546 E-0.05356
;WIPE_END
G1 E-0.04000 F2100.000
G1 Z0.600000 F10800.000
G1 X100.067 Y98.212
G1 Z0.200000
G1 E0.80000 F2100.000
G1 F1200.000
G1 X105.623 Y98.213 E0.17421
G1 X105.815 Y98.678 E0.01580
G1 X101.911 Y102.583 E0.17314
G1 X102.212 Y102.815 E0.01193
G1 X106.163 Y98.864 E0.17517
G1 X106.208 Y98.640 E0.00717
G1 X105.927 Y97.963 E0.02297
G1 X105.737 Y97.836 E0.00717
G1 X100.116 Y97.835 E0.17624
G1 X100.166 Y97.458 E0.01192
G1 X105.793 Y97.459 E0.17644
G1 X106.254 Y97.767 E0.01739
G1 X106.577 Y98.547 E0.02648
G1 X106.469 Y99.091 E0.01739
G1 X102.514 Y103.046 E0.17537
G1 X102.813 Y103.275 E0.01180
G1 X106.789 Y99.294 E0.17642
G1 X106.886 Y99.093 E0.00698
G1 X106.964 Y98.705 E0.01242
G1 X106.950 Y98.483 E0.00698
G1 X106.592 Y97.597 E0.02995
G1 X106.416 Y97.382 E0.00870
G1 X106.086 Y97.162 E0.01242
G1 X105.821 Y97.082 E0.00870
G1 X100.215 Y97.081 E0.17575
G1 X100.343 Y96.704 E0.01248
G1 X105.835 Y96.705 E0.17221
G1 X106.284 Y96.841 E0.01473
G1 X106.721 Y97.150 E0.01676
G1 X106.864 Y97.321 E0.00699
G1 X107.290 Y98.297 E0.03341
G1 X107.343 Y98.626 E0.01045
G1 X107.253 Y99.181 E0.01761
G1 X107.115 Y99.484 E0.01045
G1 X103.185 Y103.442 E0.17489
G1 X103.562 Y103.598 E0.01280
G1 X107.415 Y99.715 E0.17152
G1 X107.619 Y99.275 E0.01521
G1 X107.710 Y98.818 E0.01460
G1 X107.641 Y98.159 E0.02076
G1 X107.256 Y97.239 E0.03127
G1 X106.979 Y96.875 E0.01435
G1 X106.488 Y96.524 E0.01893
G1 X106.075 Y96.362 E0.01391
G1 X100.498 Y96.328 E0.17485
G1 X100.655 Y95.951 E0.01279
G1 X105.845 Y95.950 E0.16275
G1 X106.181 Y96.000 E0.01065
G1 X106.689 Y96.204 E0.01716
G1 X107.240 Y96.603 E0.02132
G1 X107.458 Y96.856 E0.01047
G1 X107.993 Y98.025 E0.04031
G1 X108.073 Y98.341 E0.01021
G1 X108.083 Y98.867 E0.01652
G1 X107.914 Y99.576 E0.02283
G1 X107.573 Y100.121 E0.02018
G1 X103.939 Y103.754 E0.16112
G1 X104.344 Y103.883 E0.01331
G1 X107.852 Y100.374 E0.15559
G1 X108.234 Y99.784 E0.02203
G1 X108.466 Y98.846 E0.03028
G1 X108.473 Y98.583 E0.00827
G1 X108.341 Y97.879 E0.02246
G1 X107.970 Y96.983 E0.03040
G1 X107.842 Y96.749 E0.00838
G1 X107.410 Y96.247 E0.02075
G1 X106.856 Y95.864 E0.02111
G1 X106.286 Y95.638 E0.01923
G1 X105.847 Y95.573 E0.01390
G1 X100.828 Y95.574 E0.15738
M73 Q0 S127
G1 X101.117 Y95.197 E0.01489
G1 X106.071 Y95.213 E0.15534
G1 X106.746 Y95.392 E0.02191
G1 X107.039 Y95.535 E0.01023
G1 X107.657 Y95.963 E0.02356
G1 X107.878 Y96.181 E0.00974
G1 X108.313 Y96.825 E0.02437
G1 X108.799 Y98.113 E0.04317
G1 X108.845 Y98.824 E0.02234
G1 X108.633 Y99.808 E0.03156
G1 X108.362 Y100.332 E0.01850
G1 X108.151 Y100.607 E0.01087
G1 X104.814 Y103.945 E0.14797
G1 X105.284 Y104.007 E0.01484
G1 X108.507 Y100.771 E0.14321
G1 X108.974 Y99.971 E0.02904
G1 X109.204 Y99.021 E0.03066
G1 X109.222 Y98.467 E0.01738
G1 X109.102 Y97.773 E0.02207
G1 X108.642 Y96.639 E0.03839
G1 X108.337 Y96.145 E0.01819
G1 X107.859 Y95.640 E0.02181
G1 X107.150 Y95.165 E0.02676
G1 X106.466 Y94.905 E0.02293
G1 X105.849 Y94.819 E0.01954
G1 X101.406 Y94.821 E0.13931
G1 X101.702 Y94.444 E0.01503
G1 X106.160 Y94.464 E0.13980
G1 X106.517 Y94.529 E0.01137
G1 X107.242 Y94.789 E0.02415
G1 X108.261 Y95.492 E0.03881
G1 X108.704 Y96.004 E0.02123
G1 X108.919 Y96.350 E0.01278
G1 X109.405 Y97.493 E0.03892
G1 X109.558 Y98.074 E0.01886
G1 X109.600 Y98.467 E0.01239
G1 X109.565 Y99.153 E0.02153
G1 X109.398 Y99.906 E0.02417
G1 X109.227 Y100.330 E0.01436
G1 X108.927 Y100.842 E0.01859
G1 X108.646 Y101.180 E0.01379
G1 X105.787 Y104.040 E0.12678
G1 X106.401 Y103.959 E0.01942
G1 X108.916 Y101.444 E0.11153
G1 X109.435 Y100.741 E0.02739
G1 X109.693 Y100.205 E0.01866
G1 X109.952 Y99.121 E0.03494
G1 X109.942 Y98.093 E0.03223
G1 X109.750 Y97.340 E0.02434
G1 X109.269 Y96.206 E0.03863
G1 X108.985 Y95.750 E0.01683
G1 X108.587 Y95.283 E0.01927
G1 X108.209 Y94.956 E0.01566
G1 X107.599 Y94.552 E0.02294
G1 X106.699 Y94.187 E0.03044
G1 X105.891 Y94.066 E0.02561
G1 X102.196 Y94.065 E0.11587
G1 X102.687 Y93.688 E0.01941
G1 X106.284 Y93.720 E0.11281
G1 X107.226 Y93.960 E0.03049
G1 X107.682 Y94.167 E0.01568
G1 X108.382 Y94.616 E0.02608
G1 X108.794 Y94.958 E0.01680
G1 X109.247 Y95.472 E0.02147
G1 X109.703 Y96.241 E0.02804
G1 X110.213 Y97.544 E0.04387
G1 X110.324 Y98.116 E0.01825
G1 X110.352 Y98.901 E0.02464
G1 X110.112 Y100.150 E0.03988
G1 X109.926 Y100.617 E0.01575
G1 X109.614 Y101.174 E0.02002
