; generated by Slic3r Prusa Edition 1.42.0-beta2+linux64 on 2019-06-25 at 16:53:57

; 

; external perimeters extrusion width = 0.45mm
; perimeters extrusion width = 0.45mm
; infill extrusion width = 0.45mm
; solid infill extrusion width = 0.45mm
; top infill extrusion width = 0.40mm
; first layer extrusion width = 0.42mm

M73 P0 R29
M73 Q0 S30
M201 X1000 Y1000 Z1000 E5000 ; sets maximum accelerations, mm/sec^2
M203 X200 Y200 Z12 E120 ; sets maximum feedrates, mm/sec
M204 P1250 R1250 T1250 ; sets acceleration (P, T) and retract acceleration (R), mm/sec^2
M205 X8.00 Y8.00 Z0.40 E1.50 ; sets the jerk limits, mm/sec
M205 S0 T0 ; sets the minimum extruding and travel feed rate, mm/sec
M107
M115 U3.6.0 ; tell printer latest fw version
M83  ; extruder relative mode
M104 S215 ; set extruder temp
M140 S60 ; set bed temp
M190 S60 ; wait for bed temp
M109 S215 ; wait for extruder temp
G28 W ; home all without mesh bed level
G80 ; mesh bed leveling
G1 Y-3.0 F1000.0 ; go outside print area
G92 E0.0
G1 X60.0 E9.0  F1000.0 ; intro line
M73 Q0 S30
M73 P0 R29
G1 X100.0 E12.5  F1000.0 ; intro line
G92 E0.0
M221 S95
M900 K30 ; Filament gcode
G21 ; set units to millimeters
G90 ; use absolute coordinates
M83 ; use relative distances for extrusion
;BEFORE_LAYER_CHANGE
G92 E0.0
;0.2


G1 E-0.80000 F2100.00000
G1 Z0.600 F10800.000
;AFTER_LAYER_CHANGE
;0.2
G1 X91.627 Y89.993
G1 Z0.200
G1 E0.80000 F2100.00000
M204 S1000
G1 F1200
G1 X92.494 Y89.811 E0.02777
G1 X157.504 Y89.811 E2.03833
G1 X158.323 Y89.972 E0.02620
G1 X159.026 Y90.431 E0.02631
G1 X159.504 Y91.121 E0.02631
G1 X159.688 Y91.936 E0.02620
G1 X159.686 Y118.102 E0.82044
G1 X159.574 Y118.700 E0.01908
G1 X159.301 Y119.244 E0.01908
G1 X158.889 Y119.692 E0.01908
G1 X158.373 Y120.007 E0.01896
G1 X157.506 Y120.189 E0.02777
G1 X92.463 Y120.188 E2.03936
G1 X91.849 Y120.089 E0.01953
G1 X91.286 Y119.821 E0.01953
G1 X90.822 Y119.406 E0.01953
G1 X90.493 Y118.873 E0.01964
G1 X90.312 Y118.013 E0.02754
G1 X90.313 Y91.916 E0.81826
G1 X90.422 Y91.314 E0.01919
G1 X90.693 Y90.765 E0.01919
G1 X91.106 Y90.313 E0.01919
G1 X91.576 Y90.024 E0.01731
G1 F8640
G1 X92.494 Y89.811 E-0.21759
G1 X94.843 Y89.811 E-0.54241
G1 E-0.04000 F2100.00000
G1 Z0.800 F10800.000
G1 X100.227 Y101.929
G1 Z0.200
G1 E0.80000 F2100.00000
G1 F1200
G1 X100.787 Y101.668 E0.01938
G1 X101.384 Y101.508 E0.01938
G1 X101.897 Y101.463 E0.01613
G1 X102.596 Y101.502 E0.02195
G1 X103.213 Y101.668 E0.02004
G1 X103.773 Y101.929 E0.01938
G1 X104.280 Y102.283 E0.01938
G1 X104.717 Y102.720 E0.01938
G1 X105.071 Y103.227 E0.01938
G1 X105.332 Y103.787 E0.01938
G1 X105.492 Y104.384 E0.01938
G1 X105.546 Y105.000 E0.01938
G1 X105.492 Y105.616 E0.01938
G1 X105.332 Y106.213 E0.01938
G1 X105.071 Y106.773 E0.01938
G1 X104.717 Y107.280 E0.01938
G1 X104.280 Y107.717 E0.01938
G1 X103.773 Y108.071 E0.01938
G1 X103.213 Y108.332 E0.01938
G1 X102.616 Y108.492 E0.01938
G1 X102.000 Y108.546 E0.01938
G1 X101.384 Y108.492 E0.01938
G1 X100.787 Y108.332 E0.01938
G1 X100.227 Y108.071 E0.01938
G1 X99.720 Y107.717 E0.01938
G1 X99.283 Y107.280 E0.01938
G1 X98.929 Y106.773 E0.01938
G1 X98.668 Y106.213 E0.01938
G1 X98.508 Y105.616 E0.01938
G1 X98.454 Y105.000 E0.01938
G1 X98.508 Y104.384 E0.01938
G1 X98.668 Y103.787 E0.01938
G1 X98.929 Y103.227 E0.01938
G1 X99.283 Y102.720 E0.01938
G1 X99.720 Y102.283 E0.01938
G1 X100.178 Y101.963 E0.01750
G1 X100.394 Y102.272 F10800.000
G1 F1200
G1 X100.917 Y102.023 E0.01815
G1 X101.450 Y101.880 E0.01731
G1 X101.903 Y101.841 E0.01425
G1 X102.536 Y101.876 E0.01988
G1 X103.083 Y102.023 E0.01779
G1 X103.584 Y102.257 E0.01731
G1 X104.036 Y102.573 E0.01731
G1 X104.427 Y102.964 E0.01731
G1 X104.743 Y103.416 E0.01731
G1 X104.977 Y103.917 E0.01731
G1 X105.120 Y104.450 E0.01731
G1 X105.168 Y105.000 E0.01731
G1 X105.120 Y105.550 E0.01731
G1 X104.977 Y106.083 E0.01731
G1 X104.743 Y106.584 E0.01731
G1 X104.427 Y107.036 E0.01731
G1 X104.036 Y107.427 E0.01731
G1 X103.584 Y107.743 E0.01731
G1 X103.083 Y107.977 E0.01731
G1 X102.550 Y108.120 E0.01731
G1 X102.000 Y108.168 E0.01731
G1 X101.450 Y108.120 E0.01731
G1 X100.917 Y107.977 E0.01731
G1 X100.416 Y107.743 E0.01731
G1 X99.964 Y107.427 E0.01731
G1 X99.573 Y107.036 E0.01731
G1 X99.257 Y106.584 E0.01731
G1 X99.023 Y106.083 E0.01731
G1 X98.880 Y105.550 E0.01731
G1 X98.832 Y105.000 E0.01731
G1 X98.880 Y104.450 E0.01731
G1 X99.023 Y103.917 E0.01731
G1 X99.257 Y103.416 E0.01731
G1 X99.573 Y102.964 E0.01731
G1 X99.964 Y102.573 E0.01731
G1 X100.345 Y102.306 E0.01459
G1 X100.561 Y102.615 F10800.000
G1 F1200
G1 X101.046 Y102.379 E0.01692
G1 X101.516 Y102.253 E0.01524
G1 X101.908 Y102.219 E0.01236
G1 X102.476 Y102.251 E0.01781
G1 X102.954 Y102.379 E0.01553
G1 X103.395 Y102.584 E0.01524
G1 X103.793 Y102.863 E0.01524
G1 X104.137 Y103.207 E0.01524
G1 X104.416 Y103.605 E0.01524
G1 X104.621 Y104.046 E0.01524
G1 X104.747 Y104.516 E0.01524
G1 X104.789 Y105.000 E0.01524
G1 X104.747 Y105.484 E0.01524
G1 X104.621 Y105.954 E0.01524
G1 X104.416 Y106.395 E0.01524
G1 X104.137 Y106.793 E0.01524
G1 X103.793 Y107.137 E0.01524
G1 X103.395 Y107.416 E0.01524
G1 X102.954 Y107.621 E0.01524
G1 X102.484 Y107.747 E0.01524
G1 X102.000 Y107.789 E0.01524
G1 X101.516 Y107.747 E0.01524
G1 X101.046 Y107.621 E0.01524
G1 X100.605 Y107.416 E0.01524
G1 X100.207 Y107.137 E0.01524
G1 X99.863 Y106.793 E0.01524
G1 X99.584 Y106.395 E0.01524
G1 X99.379 Y105.954 E0.01524
G1 X99.253 Y105.484 E0.01524
G1 X99.211 Y105.000 E0.01524
G1 X99.253 Y104.516 E0.01524
G1 X99.379 Y104.046 E0.01524
G1 X99.584 Y103.605 E0.01524
G1 X99.863 Y103.207 E0.01524
G1 X100.207 Y102.863 E0.01524
G1 X100.512 Y102.650 E0.01167
G1 X100.795 Y102.912 F10800.000
G1 F1200
G1 X101.175 Y102.735 E0.01318
G1 X101.581 Y102.626 E0.01318
G1 X101.914 Y102.597 E0.01048
G1 X102.415 Y102.625 E0.01574
G1 X102.825 Y102.735 E0.01328
G1 X103.205 Y102.912 E0.01318
G1 X103.550 Y103.153 E0.01318
G1 X103.847 Y103.450 E0.01318
G1 X104.088 Y103.795 E0.01318
G1 X104.265 Y104.175 E0.01318
G1 X104.374 Y104.581 E0.01318
G1 X104.411 Y105.000 E0.01318
G1 X104.374 Y105.419 E0.01318
G1 X104.265 Y105.825 E0.01318
G1 X104.088 Y106.205 E0.01318
G1 X103.847 Y106.550 E0.01318
G1 X103.550 Y106.847 E0.01318
G1 X103.205 Y107.088 E0.01318
G1 X102.825 Y107.265 E0.01318
G1 X102.419 Y107.374 E0.01318
G1 X102.000 Y107.411 E0.01318
G1 X101.581 Y107.374 E0.01318
G1 X101.175 Y107.265 E0.01318
G1 X100.795 Y107.088 E0.01318
G1 X100.450 Y106.847 E0.01318
G1 X100.153 Y106.550 E0.01318
G1 X99.912 Y106.205 E0.01318
G1 X99.735 Y105.825 E0.01318
G1 X99.626 Y105.419 E0.01318
G1 X99.589 Y105.000 E0.01318
G1 X99.626 Y104.581 E0.01318
G1 X99.735 Y104.175 E0.01318
G1 X99.912 Y103.795 E0.01318
G1 X100.153 Y103.450 E0.01318
G1 X100.450 Y103.153 E0.01318
G1 X100.745 Y102.947 E0.01129
G1 X100.795 Y102.512 F10800.000
G1 F8640
G1 X101.175 Y102.735 E-0.11070
G1 X101.581 Y102.626 E-0.09703
G1 X101.914 Y102.597 E-0.07716
G1 X102.415 Y102.625 E-0.11591
G1 X102.825 Y102.735 E-0.09779
G1 X103.205 Y102.912 E-0.09703
G1 X103.550 Y103.153 E-0.09703
G1 X103.756 Y103.359 E-0.06734
G1 E-0.04000 F2100.00000
G1 Z0.800 F10800.000
G1 X120.670 Y100.763
G1 Z0.200
G1 E0.80000 F2100.00000
G1 F1200
G1 X120.604 Y100.000 E0.02403
G1 X120.670 Y99.237 E0.02403
G1 X120.869 Y98.496 E0.02403
G1 X121.193 Y97.802 E0.02403
G1 X121.632 Y97.174 E0.02403
G1 X122.174 Y96.632 E0.02403
G1 X122.802 Y96.193 E0.02403
G1 X123.496 Y95.869 E0.02403
G1 X124.237 Y95.670 E0.02403
G1 X125.000 Y95.604 E0.02403
G1 X125.763 Y95.670 E0.02403
G1 X126.504 Y95.869 E0.02403
G1 X127.198 Y96.193 E0.02403
G1 X127.826 Y96.632 E0.02403
G1 X128.368 Y97.174 E0.02403
G1 X128.807 Y97.802 E0.02403
G1 X129.131 Y98.496 E0.02403
G1 X129.330 Y99.237 E0.02403
G1 X129.396 Y100.000 E0.02403
G1 X129.330 Y100.763 E0.02403
G1 X129.131 Y101.504 E0.02403
G1 X128.807 Y102.198 E0.02403
G1 X128.504 Y102.632 E0.01659
G1 X128.368 Y102.826 E0.00744
G1 X127.826 Y103.368 E0.02403
G1 X127.198 Y103.807 E0.02403
G1 X126.504 Y104.131 E0.02403
G1 X125.763 Y104.330 E0.02403
G1 X125.000 Y104.396 E0.02403
G1 X124.237 Y104.330 E0.02403
G1 X123.496 Y104.131 E0.02403
G1 X122.802 Y103.807 E0.02403
G1 X122.174 Y103.368 E0.02403
G1 X121.632 Y102.826 E0.02403
G1 X121.193 Y102.198 E0.02403
G1 X120.869 Y101.504 E0.02403
G1 X120.686 Y100.821 E0.02215
G1 X121.050 Y100.724 F10800.000
G1 F1200
G1 X120.982 Y100.000 E0.02279
G1 X121.043 Y99.302 E0.02196
G1 X121.224 Y98.626 E0.02196
G1 X121.520 Y97.991 E0.02196
G1 X121.922 Y97.417 E0.02196
G1 X122.417 Y96.922 E0.02196
G1 X122.991 Y96.520 E0.02196
G1 X123.626 Y96.224 E0.02196
G1 X124.302 Y96.043 E0.02196
G1 X125.000 Y95.982 E0.02196
G1 X125.698 Y96.043 E0.02196
G1 X126.374 Y96.224 E0.02196
G1 X127.009 Y96.520 E0.02196
G1 X127.583 Y96.922 E0.02196
G1 X128.078 Y97.417 E0.02196
G1 X128.480 Y97.991 E0.02196
G1 X128.776 Y98.626 E0.02196
G1 X128.957 Y99.302 E0.02196
G1 X129.018 Y100.000 E0.02196
G1 X128.957 Y100.698 E0.02196
G1 X128.776 Y101.374 E0.02196
G1 X128.480 Y102.009 E0.02196
G1 X128.195 Y102.415 E0.01556
G1 X128.078 Y102.583 E0.00640
G1 X127.583 Y103.078 E0.02196
G1 X127.009 Y103.480 E0.02196
G1 X126.374 Y103.776 E0.02196
G1 X125.698 Y103.957 E0.02196
G1 X125.000 Y104.018 E0.02196
G1 X124.302 Y103.957 E0.02196
G1 X123.626 Y103.776 E0.02196
G1 X122.991 Y103.480 E0.02196
G1 X122.417 Y103.078 E0.02196
G1 X121.922 Y102.583 E0.02196
G1 X121.520 Y102.009 E0.02196
G1 X121.224 Y101.374 E0.02196
G1 X121.066 Y100.782 E0.01923
G1 X121.430 Y100.684 F10800.000
G1 F1200
G1 X121.361 Y100.000 E0.02156
G1 X121.416 Y99.368 E0.01989
G1 X121.580 Y98.755 E0.01989
G1 X121.848 Y98.180 E0.01989
G1 X122.212 Y97.661 E0.01989
G1 X122.661 Y97.212 E0.01989
G1 X123.180 Y96.848 E0.01989
G1 X123.755 Y96.580 E0.01989
G1 X124.368 Y96.416 E0.01989
G1 X125.000 Y96.361 E0.01989
G1 X125.632 Y96.416 E0.01989
G1 X126.245 Y96.580 E0.01989
G1 X126.820 Y96.848 E0.01989
G1 X127.339 Y97.212 E0.01989
G1 X127.788 Y97.661 E0.01989
G1 X128.152 Y98.180 E0.01989
G1 X128.420 Y98.755 E0.01989
G1 X128.584 Y99.368 E0.01989
G1 X128.639 Y100.000 E0.01989
G1 X128.584 Y100.632 E0.01989
G1 X128.420 Y101.245 E0.01989
G1 X128.152 Y101.820 E0.01989
G1 X127.886 Y102.199 E0.01452
G1 X127.788 Y102.339 E0.00537
G1 X127.339 Y102.788 E0.01989
G1 X126.820 Y103.152 E0.01989
G1 X126.245 Y103.420 E0.01989
G1 X125.632 Y103.584 E0.01989
G1 X125.000 Y103.639 E0.01989
G1 X124.368 Y103.584 E0.01989
G1 X123.755 Y103.420 E0.01989
G1 X123.180 Y103.152 E0.01989
G1 X122.661 Y102.788 E0.01989
G1 X122.212 Y102.339 E0.01989
G1 X121.848 Y101.820 E0.01989
G1 X121.580 Y101.245 E0.01989
G1 X121.445 Y100.742 E0.01632
G1 X121.789 Y100.566 F10800.000
G1 F1200
G1 X121.739 Y100.000 E0.01782
G1 X121.789 Y99.434 E0.01782
G1 X121.936 Y98.885 E0.01782
G1 X122.176 Y98.370 E0.01782
G1 X122.502 Y97.904 E0.01782
G1 X122.904 Y97.502 E0.01782
G1 X123.370 Y97.176 E0.01782
G1 X123.885 Y96.936 E0.01782
G1 X124.434 Y96.789 E0.01782
G1 X125.000 Y96.739 E0.01782
G1 X125.566 Y96.789 E0.01782
G1 X126.115 Y96.936 E0.01782
G1 X126.630 Y97.176 E0.01782
G1 X127.096 Y97.502 E0.01782
G1 X127.498 Y97.904 E0.01782
G1 X127.824 Y98.370 E0.01782
G1 X128.064 Y98.885 E0.01782
G1 X128.211 Y99.434 E0.01782
G1 X128.261 Y100.000 E0.01782
G1 X128.211 Y100.566 E0.01782
G1 X128.064 Y101.115 E0.01782
G1 X127.824 Y101.630 E0.01782
G1 X127.577 Y101.983 E0.01349
G1 X127.498 Y102.096 E0.00433
G1 X127.096 Y102.498 E0.01782
G1 X126.630 Y102.824 E0.01782
G1 X126.115 Y103.064 E0.01782
G1 X125.566 Y103.211 E0.01782
G1 X125.000 Y103.261 E0.01782
G1 X124.434 Y103.211 E0.01782
G1 X123.885 Y103.064 E0.01782
G1 X123.370 Y102.824 E0.01782
G1 X122.904 Y102.498 E0.01782
G1 X122.502 Y102.096 E0.01782
G1 X122.176 Y101.630 E0.01782
G1 X121.936 Y101.115 E0.01782
G1 X121.804 Y100.624 E0.01594
G1 X121.413 Y100.429 F10800.000
G1 F8640
G1 X121.739 Y100.000 E-0.14491
G1 X121.789 Y99.434 E-0.13124
G1 X121.936 Y98.885 E-0.13124
G1 X122.176 Y98.370 E-0.13124
G1 X122.502 Y97.904 E-0.13124
G1 X122.778 Y97.628 E-0.09012
G1 E-0.04000 F2100.00000
G1 Z0.800 F10800.000
G1 X144.508 Y104.384
G1 Z0.200
G1 E0.80000 F2100.00000
G1 F1200
G1 X144.668 Y103.787 E0.01938
G1 X144.929 Y103.227 E0.01938
G1 X145.283 Y102.720 E0.01938
G1 X145.720 Y102.283 E0.01938
G1 X146.227 Y101.929 E0.01938
G1 X146.787 Y101.668 E0.01938
G1 X147.384 Y101.508 E0.01938
G1 X147.897 Y101.463 E0.01613
G1 X148.596 Y101.502 E0.02195
G1 X149.213 Y101.668 E0.02004
G1 X149.773 Y101.929 E0.01938
G1 X150.280 Y102.283 E0.01938
G1 X150.717 Y102.720 E0.01938
G1 X151.071 Y103.227 E0.01938
G1 X151.332 Y103.787 E0.01938
G1 X151.492 Y104.384 E0.01938
G1 X151.546 Y105.000 E0.01938
G1 X151.492 Y105.616 E0.01938
G1 X151.332 Y106.213 E0.01938
G1 X151.071 Y106.773 E0.01938
G1 X150.717 Y107.280 E0.01938
G1 X150.353 Y107.643 E0.01613
G1 X149.792 Y108.062 E0.02195
G1 X149.213 Y108.332 E0.02004
G1 X148.616 Y108.492 E0.01938
G1 X148.000 Y108.546 E0.01938
G1 X147.384 Y108.492 E0.01938
G1 X146.787 Y108.332 E0.01938
G1 X146.227 Y108.071 E0.01938
G1 X145.720 Y107.717 E0.01938
G1 X145.283 Y107.280 E0.01938
G1 X144.929 Y106.773 E0.01938
G1 X144.668 Y106.213 E0.01938
G1 X144.508 Y105.616 E0.01938
G1 X144.454 Y105.000 E0.01938
G1 X144.502 Y104.444 E0.01750
G1 X144.878 Y104.477 F10800.000
G1 F1200
G1 X145.023 Y103.917 E0.01815
G1 X145.257 Y103.416 E0.01731
G1 X145.573 Y102.964 E0.01731
G1 X145.964 Y102.573 E0.01731
G1 X146.416 Y102.257 E0.01731
G1 X146.917 Y102.023 E0.01731
G1 X147.450 Y101.880 E0.01731
G1 X147.903 Y101.841 E0.01425
G1 X148.536 Y101.876 E0.01988
G1 X149.083 Y102.023 E0.01779
G1 X149.584 Y102.257 E0.01731
G1 X150.036 Y102.573 E0.01731
G1 X150.427 Y102.964 E0.01731
G1 X150.743 Y103.416 E0.01731
G1 X150.977 Y103.917 E0.01731
G1 X151.120 Y104.450 E0.01731
G1 X151.168 Y105.000 E0.01731
G1 X151.120 Y105.550 E0.01731
G1 X150.977 Y106.083 E0.01731
G1 X150.743 Y106.584 E0.01731
G1 X150.427 Y107.036 E0.01731
G1 X150.105 Y107.358 E0.01425
G1 X149.598 Y107.737 E0.01988
G1 X149.083 Y107.977 E0.01778
G1 X148.550 Y108.120 E0.01731
G1 X148.000 Y108.168 E0.01731
G1 X147.450 Y108.120 E0.01731
G1 X146.917 Y107.977 E0.01731
G1 X146.416 Y107.743 E0.01731
G1 X145.964 Y107.427 E0.01731
G1 X145.573 Y107.036 E0.01731
G1 X145.257 Y106.584 E0.01731
G1 X145.023 Y106.083 E0.01731
G1 X144.880 Y105.550 E0.01731
G1 X144.832 Y105.000 E0.01731
G1 X144.873 Y104.537 E0.01459
G1 X145.248 Y104.569 F10800.000
G1 F1200
G1 X145.379 Y104.046 E0.01692
G1 X145.584 Y103.605 E0.01524
G1 X145.863 Y103.207 E0.01524
G1 X146.207 Y102.863 E0.01524
G1 X146.605 Y102.584 E0.01524
G1 X147.046 Y102.379 E0.01524
G1 X147.516 Y102.253 E0.01524
G1 X147.908 Y102.219 E0.01236
G1 X148.476 Y102.251 E0.01781
G1 X148.954 Y102.379 E0.01553
G1 X149.395 Y102.584 E0.01524
G1 X149.793 Y102.863 E0.01524
G1 X150.137 Y103.207 E0.01524
G1 X150.416 Y103.605 E0.01524
G1 X150.621 Y104.046 E0.01524
G1 X150.747 Y104.516 E0.01524
G1 X150.789 Y105.000 E0.01524
G1 X150.747 Y105.484 E0.01524
G1 X150.621 Y105.954 E0.01524
G1 X150.416 Y106.395 E0.01524
G1 X150.137 Y106.793 E0.01524
G1 X149.858 Y107.072 E0.01236
G1 X149.403 Y107.412 E0.01781
G1 X148.954 Y107.621 E0.01553
G1 X148.484 Y107.747 E0.01524
G1 X148.000 Y107.789 E0.01524
G1 X147.516 Y107.747 E0.01524
G1 X147.046 Y107.621 E0.01524
G1 X146.605 Y107.416 E0.01524
G1 X146.207 Y107.137 E0.01524
G1 X145.863 Y106.793 E0.01524
G1 X145.584 Y106.395 E0.01524
G1 X145.379 Y105.954 E0.01524
G1 X145.253 Y105.484 E0.01524
G1 X145.211 Y105.000 E0.01524
G1 X145.243 Y104.629 E0.01167
G1 X145.626 Y104.581 F10800.000
G1 F1200
G1 X145.735 Y104.175 E0.01318
G1 X145.912 Y103.795 E0.01318
G1 X146.153 Y103.450 E0.01318
G1 X146.450 Y103.153 E0.01318
G1 X146.795 Y102.912 E0.01318
G1 X147.175 Y102.735 E0.01318
G1 X147.581 Y102.626 E0.01318
G1 X147.914 Y102.597 E0.01048
G1 X148.415 Y102.625 E0.01574
G1 X148.825 Y102.735 E0.01328
G1 X149.205 Y102.912 E0.01318
G1 X149.550 Y103.153 E0.01318
G1 X149.847 Y103.450 E0.01318
G1 X150.088 Y103.795 E0.01318
G1 X150.265 Y104.175 E0.01318
G1 X150.374 Y104.581 E0.01318
G1 X150.411 Y105.000 E0.01318
G1 X150.374 Y105.419 E0.01318
G1 X150.265 Y105.825 E0.01318
G1 X150.088 Y106.205 E0.01318
G1 X149.847 Y106.550 E0.01318
G1 X149.610 Y106.786 E0.01048
G1 X149.208 Y107.086 E0.01574
G1 X148.825 Y107.265 E0.01328
