; generated by Slic3r Prusa Edition 1.42.0-beta2+linux64 on 2019-06-25 at 21:33:19

; 

; external perimeters extrusion width = 0.45mm
; perimeters extrusion width = 0.45mm
; infill extrusion width = 0.45mm
; solid infill extrusion width = 0.45mm
; top infill extrusion width = 0.40mm
; support material extrusion width = 0.35mm
; first layer extrusion width = 0.42mm

M73 P0 R42
M73 Q0 S43
M201 X1000 Y1000 Z1000 E5000 ; sets maximum accelerations, mm/sec^2
M203 X200 Y200 Z12 E120 ; sets maximum feedrates, mm/sec
M204 P1250 R1250 T1250 ; sets acceleration (P, T) and retract acceleration (R), mm/sec^2
M205 X8.00 Y8.00 Z0.40 E1.50 ; sets the jerk limits, mm/sec
M205 S0 T0 ; sets the minimum extruding and travel feed rate, mm/sec
M107
M115 U3.6.0 ; tell printer latest fw version
M83  ; extruder relative mode
M104 S215 ; set extruder temp
M140 S60 ; set bed temp
M190 S60 ; wait for bed temp
M109 S215 ; wait for extruder temp
G28 W ; home all without mesh bed level
G80 ; mesh bed leveling
G1 Y-3.0 F1000.0 ; go outside print area
G92 E0.0
G1 X60.0 E9.0  F1000.0 ; intro line
M73 Q0 S42
M73 P0 R42
G1 X100.0 E12.5  F1000.0 ; intro line
G92 E0.0
M221 S95
M900 K30 ; Filament gcode
G21 ; set units to millimeters
G90 ; use absolute coordinates
M83 ; use relative distances for extrusion
;BEFORE_LAYER_CHANGE
G92 E0.0
;0.2


G1 E-0.80000 F2100.00000
G1 Z0.600 F10800.000
;AFTER_LAYER_CHANGE
;0.2
G1 X86.435 Y85.004
G1 Z0.200
G1 E0.80000 F2100.00000
M204 S1000
G1 F1200
G1 X86.881 Y84.663 E0.01760
G1 X87.406 Y84.445 E0.01783
G1 X87.966 Y84.370 E0.01771
G1 X154.345 Y84.370 E2.08127
G1 X162.306 Y84.581 E0.24970
G1 X162.903 Y84.792 E0.01987
G1 X163.418 Y85.168 E0.01998
G1 X163.802 Y85.676 E0.01998
G1 X164.023 Y86.270 E0.01987
G1 X164.070 Y122.878 E1.14781
G1 X163.985 Y123.429 E0.01749
G1 X163.762 Y123.940 E0.01749
G1 X163.421 Y124.377 E0.01737
G1 X162.977 Y124.715 E0.01749
G1 X162.456 Y124.932 E0.01771
G1 X161.892 Y125.008 E0.01783
G1 X96.996 Y125.008 E2.03478
G1 X87.723 Y124.824 E0.29081
G1 X87.226 Y124.706 E0.01601
G1 X86.773 Y124.479 E0.01589
G1 X86.382 Y124.150 E0.01601
G1 X86.079 Y123.744 E0.01589
G1 X85.864 Y123.226 E0.01760
G1 X85.787 Y122.666 E0.01771
G1 X85.787 Y86.514 E1.13350
G1 X85.870 Y85.959 E0.01760
G1 X86.090 Y85.447 E0.01749
G1 X86.398 Y85.051 E0.01572
G1 F8640
G1 X86.881 Y84.663 E-0.14305
G1 X87.406 Y84.445 E-0.13128
G1 X87.966 Y84.370 E-0.13044
G1 X89.504 Y84.370 E-0.35523
G1 E-0.04000 F2100.00000
G1 Z0.800 F10800.000
G1 X87.975 Y86.558
G1 Z0.200
G1 E0.80000 F2100.00000
G1 F1200
G1 X87.975 Y97.272 E0.33592
G1 X88.729 Y97.272 E0.02365
G1 X88.729 Y86.728 E0.33060
G1 X89.483 Y86.728 E0.02365
G1 X89.483 Y97.272 E0.33060
G1 X90.238 Y97.272 E0.02365
G1 X90.238 Y86.728 E0.33060
G1 X90.992 Y86.728 E0.02365
G1 X90.992 Y97.272 E0.33060
G1 X91.746 Y97.272 E0.02365
G1 X91.746 Y86.728 E0.33060
G1 X92.500 Y86.728 E0.02365
G1 X92.500 Y91.626 E0.15358
G1 X92.515 Y91.611 E0.00066
G1 X93.254 Y91.611 E0.02318
G1 X93.254 Y86.728 E0.15312
G1 X94.008 Y86.728 E0.02365
G1 X94.008 Y91.611 E0.15312
G1 X94.762 Y91.611 E0.02365
G1 X94.762 Y86.728 E0.15312
G1 X95.517 Y86.728 E0.02365
G1 X95.517 Y91.611 E0.15312
G1 X96.271 Y91.611 E0.02365
G1 X96.271 Y86.728 E0.15312
G1 X97.025 Y86.728 E0.02365
G1 X97.025 Y91.781 E0.15844
G1 F8640
G1 X97.025 Y88.490 E-0.76000
G1 E-0.04000 F2100.00000
G1 Z0.800 F10800.000
G1 X87.975 Y114.243
G1 Z0.200
G1 E0.80000 F2100.00000
G1 F1200
G1 X87.975 Y122.650 E0.26358
G1 X88.729 Y122.650 E0.02365
G1 X88.729 Y114.413 E0.25826
G1 X89.483 Y114.413 E0.02365
G1 X89.483 Y122.650 E0.25826
G1 X90.238 Y122.650 E0.02365
G1 X90.238 Y114.413 E0.25826
G1 X90.992 Y114.413 E0.02365
G1 X90.992 Y122.650 E0.25826
G1 X91.746 Y122.650 E0.02365
G1 X91.746 Y114.413 E0.25826
G1 X92.111 Y114.413 E0.01146
G1 X92.111 Y117.985 E0.11201
G1 X92.500 Y118.374 E0.01723
G1 X92.500 Y122.650 E0.13407
G1 X93.254 Y122.650 E0.02365
G1 X93.254 Y118.389 E0.13361
G1 X94.008 Y118.389 E0.02365
G1 X94.008 Y122.650 E0.13361
G1 X94.762 Y122.650 E0.02365
G1 X94.762 Y118.389 E0.13361
G1 X95.517 Y118.389 E0.02365
G1 X95.517 Y122.650 E0.13361
G1 X96.271 Y122.650 E0.02365
G1 X96.271 Y118.389 E0.13361
G1 X97.025 Y118.389 E0.02365
G1 X97.025 Y122.820 E0.13893
G1 F8640
G1 X97.025 Y119.528 E-0.76000
G1 E-0.04000 F2100.00000
G1 Z0.800 F10800.000
G1 X121.158 Y98.152
G1 Z0.200
G1 E0.80000 F2100.00000
G1 F1200
G1 X121.158 Y101.446 E0.10328
G1 X121.442 Y102.054 E0.02104
G1 X121.852 Y102.641 E0.02246
G1 X121.912 Y102.701 E0.00265
G1 X121.912 Y97.299 E0.16937
G1 X122.359 Y96.852 E0.01981
G1 X122.666 Y96.637 E0.01177
G1 X122.666 Y103.363 E0.21088
G1 X122.946 Y103.558 E0.01069
G1 X123.421 Y103.780 E0.01643
G1 X123.421 Y96.220 E0.23703
G1 X123.595 Y96.139 E0.00603
G1 X124.175 Y95.984 E0.01883
G1 X124.175 Y104.016 E0.25187
G1 X124.287 Y104.046 E0.00363
G1 X124.929 Y104.103 E0.02022
G1 X124.929 Y95.897 E0.25727
G1 X125.683 Y95.951 E0.02371
G1 X125.683 Y104.049 E0.25391
G1 X126.405 Y103.861 E0.02340
G1 X126.437 Y103.846 E0.00110
G1 X126.437 Y96.154 E0.24119
G1 X127.054 Y96.442 E0.02135
G1 X127.191 Y96.538 E0.00524
G1 X127.191 Y103.462 E0.21713
G1 X127.641 Y103.148 E0.01722
G1 X127.945 Y102.843 E0.01350
G1 X127.945 Y97.157 E0.17829
G1 X128.148 Y97.359 E0.00896
G1 X128.558 Y97.946 E0.02246
G1 X128.700 Y98.249 E0.01048
G1 X128.700 Y102.148 E0.12228
G1 F8640
G1 X128.700 Y98.857 E-0.76000
G1 E-0.04000 F2100.00000
G1 Z0.800 F10800.000
G1 X154.341 Y86.558
G1 Z0.200
G1 E0.80000 F2100.00000
G1 F1200
G1 X154.341 Y91.611 E0.15844
G1 X155.095 Y91.611 E0.02365
G1 X155.095 Y86.728 E0.15312
G1 X155.849 Y86.728 E0.02365
G1 X155.849 Y91.611 E0.15312
G1 X156.604 Y91.611 E0.02365
G1 X156.604 Y86.728 E0.15312
G1 X157.358 Y86.728 E0.02365
G1 X157.358 Y91.611 E0.15312
G1 X157.485 Y91.611 E0.00400
G1 X157.889 Y92.015 E0.01788
G1 X157.889 Y97.272 E0.16484
G1 X158.112 Y97.272 E0.00700
G1 X158.112 Y86.728 E0.33060
G1 X158.866 Y86.728 E0.02365
G1 X158.866 Y97.272 E0.33060
G1 X159.620 Y97.272 E0.02365
G1 X159.620 Y86.728 E0.33060
G1 X160.374 Y86.728 E0.02365
G1 X160.374 Y97.272 E0.33060
G1 X161.128 Y97.272 E0.02365
G1 X161.128 Y86.728 E0.33060
G1 X161.883 Y86.728 E0.02365
G1 X161.883 Y97.442 E0.33592
G1 F8640
G1 X161.883 Y94.150 E-0.76000
G1 E-0.04000 F2100.00000
G1 Z0.800 F10800.000
G1 X154.341 Y118.219
G1 Z0.200
G1 E0.80000 F2100.00000
G1 F1200
G1 X154.341 Y122.650 E0.13893
G1 X155.095 Y122.650 E0.02365
G1 X155.095 Y118.389 E0.13361
G1 X155.849 Y118.389 E0.02365
G1 X155.849 Y122.650 E0.13361
G1 X156.604 Y122.650 E0.02365
G1 X156.604 Y118.389 E0.13361
G1 X157.358 Y118.389 E0.02365
G1 X157.358 Y122.650 E0.13361
G1 X158.112 Y122.650 E0.02365
G1 X158.112 Y114.413 E0.25826
G1 X158.866 Y114.413 E0.02365
G1 X158.866 Y122.650 E0.25826
G1 X159.620 Y122.650 E0.02365
G1 X159.620 Y114.413 E0.25826
G1 X160.374 Y114.413 E0.02365
G1 X160.374 Y122.650 E0.25826
G1 X161.128 Y122.650 E0.02365
G1 X161.128 Y114.413 E0.25826
G1 X161.883 Y114.413 E0.02365
G1 X161.883 Y122.820 E0.26358
G1 F8640
G1 X161.883 Y119.528 E-0.76000
G1 E-0.04000 F2100.00000
G1 Z0.800 F10800.000
G1 X105.332 Y106.213
G1 Z0.200
G1 E0.80000 F2100.00000
G1 F1200
G1 X105.071 Y106.773 E0.01938
G1 X104.717 Y107.280 E0.01938
G1 X104.280 Y107.717 E0.01938
G1 X103.773 Y108.071 E0.01938
G1 X103.213 Y108.332 E0.01938
G1 X102.616 Y108.492 E0.01938
G1 X102.000 Y108.546 E0.01938
G1 X101.384 Y108.492 E0.01938
G1 X100.787 Y108.332 E0.01938
G1 X100.227 Y108.071 E0.01938
G1 X99.720 Y107.717 E0.01938
G1 X99.283 Y107.280 E0.01938
G1 X98.929 Y106.773 E0.01938
G1 X98.668 Y106.213 E0.01938
G1 X98.508 Y105.616 E0.01938
G1 X98.454 Y105.000 E0.01938
G1 X98.508 Y104.384 E0.01938
G1 X98.668 Y103.787 E0.01938
G1 X98.929 Y103.227 E0.01938
G1 X99.283 Y102.720 E0.01938
G1 X99.720 Y102.283 E0.01938
G1 X100.227 Y101.929 E0.01938
G1 X100.787 Y101.668 E0.01938
G1 X101.384 Y101.508 E0.01938
G1 X101.897 Y101.463 E0.01613
G1 X102.596 Y101.502 E0.02195
G1 X103.213 Y101.668 E0.02004
G1 X103.773 Y101.929 E0.01938
G1 X104.280 Y102.283 E0.01938
G1 X104.717 Y102.720 E0.01938
G1 X105.071 Y103.227 E0.01938
G1 X105.332 Y103.787 E0.01938
G1 X105.492 Y104.384 E0.01938
G1 X105.546 Y105.000 E0.01938
G1 X105.492 Y105.616 E0.01938
G1 X105.348 Y106.155 E0.01750
G1 X104.984 Y106.057 F10800.000
G1 F1200
G1 X104.743 Y106.584 E0.01815
G1 X104.427 Y107.036 E0.01731
G1 X104.036 Y107.427 E0.01731
G1 X103.584 Y107.743 E0.01731
G1 X103.083 Y107.977 E0.01731
G1 X102.550 Y108.120 E0.01731
G1 X102.000 Y108.168 E0.01731
G1 X101.450 Y108.120 E0.01731
G1 X100.917 Y107.977 E0.01731
G1 X100.416 Y107.743 E0.01731
G1 X99.964 Y107.427 E0.01731
G1 X99.573 Y107.036 E0.01731
G1 X99.257 Y106.584 E0.01731
G1 X99.023 Y106.083 E0.01731
G1 X98.880 Y105.550 E0.01731
G1 X98.832 Y105.000 E0.01731
G1 X98.880 Y104.450 E0.01731
G1 X99.023 Y103.917 E0.01731
G1 X99.257 Y103.416 E0.01731
G1 X99.573 Y102.964 E0.01731
G1 X99.964 Y102.573 E0.01731
G1 X100.416 Y102.257 E0.01731
G1 X100.917 Y102.023 E0.01731
G1 X101.450 Y101.880 E0.01731
G1 X101.903 Y101.841 E0.01425
G1 X102.536 Y101.876 E0.01988
G1 X103.083 Y102.023 E0.01779
G1 X103.584 Y102.257 E0.01731
G1 X104.036 Y102.573 E0.01731
G1 X104.427 Y102.964 E0.01731
G1 X104.743 Y103.416 E0.01731
G1 X104.977 Y103.917 E0.01731
G1 X105.120 Y104.450 E0.01731
G1 X105.168 Y105.000 E0.01731
G1 X105.120 Y105.550 E0.01731
G1 X104.999 Y105.999 E0.01459
G1 X104.635 Y105.902 F10800.000
G1 F1200
G1 X104.416 Y106.395 E0.01692
G1 X104.137 Y106.793 E0.01524
G1 X103.793 Y107.137 E0.01524
G1 X103.395 Y107.416 E0.01524
G1 X102.954 Y107.621 E0.01524
G1 X102.484 Y107.747 E0.01524
G1 X102.000 Y107.789 E0.01524
G1 X101.516 Y107.747 E0.01524
G1 X101.046 Y107.621 E0.01524
G1 X100.605 Y107.416 E0.01524
G1 X100.207 Y107.137 E0.01524
G1 X99.863 Y106.793 E0.01524
G1 X99.584 Y106.395 E0.01524
G1 X99.379 Y105.954 E0.01524
G1 X99.253 Y105.484 E0.01524
G1 X99.211 Y105.000 E0.01524
G1 X99.253 Y104.516 E0.01524
G1 X99.379 Y104.046 E0.01524
G1 X99.584 Y103.605 E0.01524
G1 X99.863 Y103.207 E0.01524
G1 X100.207 Y102.863 E0.01524
G1 X100.605 Y102.584 E0.01524
G1 X101.046 Y102.379 E0.01524
G1 X101.516 Y102.253 E0.01524
G1 X101.908 Y102.219 E0.01236
G1 X102.476 Y102.251 E0.01781
G1 X102.954 Y102.379 E0.01553
G1 X103.395 Y102.584 E0.01524
G1 X103.793 Y102.863 E0.01524
G1 X104.137 Y103.207 E0.01524
G1 X104.416 Y103.605 E0.01524
G1 X104.621 Y104.046 E0.01524
G1 X104.747 Y104.516 E0.01524
G1 X104.789 Y105.000 E0.01524
G1 X104.747 Y105.484 E0.01524
G1 X104.651 Y105.844 E0.01167
G1 X104.265 Y105.825 F10800.000
G1 F1200
G1 X104.088 Y106.205 E0.01318
G1 X103.847 Y106.550 E0.01318
G1 X103.550 Y106.847 E0.01318
G1 X103.205 Y107.088 E0.01318
G1 X102.825 Y107.265 E0.01318
G1 X102.419 Y107.374 E0.01318
G1 X102.000 Y107.411 E0.01318
G1 X101.581 Y107.374 E0.01318
G1 X101.175 Y107.265 E0.01318
G1 X100.795 Y107.088 E0.01318
G1 X100.450 Y106.847 E0.01318
G1 X100.153 Y106.550 E0.01318
G1 X99.912 Y106.205 E0.01318
G1 X99.735 Y105.825 E0.01318
G1 X99.626 Y105.419 E0.01318
G1 X99.589 Y105.000 E0.01318
G1 X99.626 Y104.581 E0.01318
G1 X99.735 Y104.175 E0.01318
G1 X99.912 Y103.795 E0.01318
G1 X100.153 Y103.450 E0.01318
G1 X100.450 Y103.153 E0.01318
G1 X100.795 Y102.912 E0.01318
G1 X101.175 Y102.735 E0.01318
G1 X101.581 Y102.626 E0.01318
G1 X101.914 Y102.597 E0.01048
G1 X102.415 Y102.625 E0.01574
G1 X102.825 Y102.735 E0.01328
G1 X103.205 Y102.912 E0.01318
G1 X103.550 Y103.153 E0.01318
G1 X103.847 Y103.450 E0.01318
G1 X104.088 Y103.795 E0.01318
G1 X104.265 Y104.175 E0.01318
G1 X104.374 Y104.581 E0.01318
G1 X104.411 Y105.000 E0.01318
G1 X104.374 Y105.419 E0.01318
G1 X104.281 Y105.767 E0.01129
G1 X104.523 Y106.131 F10800.000
G1 F8640
G1 X104.088 Y106.205 E-0.11070
G1 X103.847 Y106.550 E-0.09703
G1 X103.550 Y106.847 E-0.09703
G1 X103.205 Y107.088 E-0.09703
G1 X102.825 Y107.265 E-0.09703
G1 X102.419 Y107.374 E-0.09703
G1 X102.000 Y107.411 E-0.09703
G1 X101.710 Y107.385 E-0.06710
G1 E-0.04000 F2100.00000
G1 Z0.800 F10800.000
G1 X119.224 Y102.102
G1 Z0.200
G1 E0.80000 F2100.00000
G1 F1200
G1 X118.947 Y101.067 E0.03359
G1 X118.854 Y100.000 E0.03359
G1 X118.947 Y98.933 E0.03359
G1 X119.224 Y97.898 E0.03359
G1 X119.677 Y96.927 E0.03359
G1 X120.292 Y96.049 E0.03359
G1 X121.049 Y95.292 E0.03359
G1 X121.927 Y94.677 E0.03359
G1 X122.898 Y94.224 E0.03359
G1 X123.933 Y93.947 E0.03359
G1 X125.000 Y93.854 E0.03359
G1 X126.067 Y93.947 E0.03359
G1 X127.102 Y94.224 E0.03359
G1 X128.073 Y94.677 E0.03359
G1 X128.951 Y95.292 E0.03359
G1 X129.708 Y96.049 E0.03359
G1 X130.143 Y96.670 E0.02376
G1 X130.323 Y96.927 E0.00983
G1 X130.776 Y97.898 E0.03359
G1 X131.053 Y98.933 E0.03359
G1 X131.146 Y100.000 E0.03359
G1 X131.053 Y101.067 E0.03359
G1 X130.776 Y102.102 E0.03359
G1 X130.323 Y103.073 E0.03359
G1 X129.708 Y103.951 E0.03359
G1 X128.951 Y104.708 E0.03359
G1 X128.073 Y105.323 E0.03359
G1 X127.102 Y105.776 E0.03359
G1 X126.067 Y106.053 E0.03359
G1 X125.000 Y106.146 E0.03359
G1 X123.933 Y106.053 E0.03359
G1 X122.898 Y105.776 E0.03359
G1 X121.927 Y105.323 E0.03359
G1 X121.049 Y104.708 E0.03359
G1 X120.292 Y103.951 E0.03359
G1 X119.677 Y103.073 E0.03359
G1 X119.250 Y102.157 E0.03171
G1 X119.591 Y101.997 F10800.000
G1 F1200
G1 X119.320 Y101.002 E0.03236
G1 X119.232 Y100.000 E0.03152
G1 X119.320 Y98.998 E0.03152
G1 X119.580 Y98.027 E0.03152
G1 X120.005 Y97.116 E0.03152
G1 X120.582 Y96.293 E0.03152
G1 X121.293 Y95.582 E0.03152
G1 X122.116 Y95.005 E0.03152
G1 X123.027 Y94.580 E0.03152
G1 X123.998 Y94.320 E0.03152
G1 X125.000 Y94.232 E0.03152
G1 X126.002 Y94.320 E0.03152
G1 X126.973 Y94.580 E0.03152
G1 X127.884 Y95.005 E0.03152
G1 X128.708 Y95.582 E0.03152
G1 X129.418 Y96.293 E0.03152
G1 X129.834 Y96.886 E0.02273
G1 X129.995 Y97.116 E0.00879
G1 X130.420 Y98.027 E0.03152
G1 X130.680 Y98.998 E0.03152
G1 X130.768 Y100.000 E0.03152
G1 X130.680 Y101.002 E0.03152
G1 X130.420 Y101.973 E0.03152
G1 X129.995 Y102.884 E0.03152
G1 X129.418 Y103.707 E0.03152
G1 X128.707 Y104.418 E0.03152
G1 X127.884 Y104.995 E0.03152
G1 X126.973 Y105.420 E0.03152
G1 X126.002 Y105.680 E0.03152
G1 X125.000 Y105.768 E0.03152
G1 X123.998 Y105.680 E0.03152
G1 X123.027 Y105.420 E0.03152
G1 X122.116 Y104.995 E0.03152
G1 X121.293 Y104.418 E0.03152
G1 X120.582 Y103.707 E0.03152
G1 X120.005 Y102.884 E0.03152
G1 X119.617 Y102.052 E0.02880
G1 X119.959 Y101.892 F10800.000
G1 F1200
G1 X119.693 Y100.936 E0.03112
G1 X119.611 Y100.000 E0.02945
G1 X119.693 Y99.064 E0.02945
G1 X119.936 Y98.157 E0.02945
G1 X120.333 Y97.305 E0.02945
G1 X120.872 Y96.536 E0.02945
G1 X121.536 Y95.872 E0.02945
G1 X122.305 Y95.333 E0.02945
G1 X123.157 Y94.936 E0.02945
G1 X124.064 Y94.693 E0.02945
G1 X125.000 Y94.611 E0.02945
G1 X125.936 Y94.693 E0.02945
G1 X126.843 Y94.936 E0.02945
G1 X127.695 Y95.333 E0.02945
G1 X128.464 Y95.872 E0.02946
G1 X129.128 Y96.536 E0.02945
G1 X129.525 Y97.103 E0.02170
G1 X129.667 Y97.305 E0.00776
G1 X130.064 Y98.157 E0.02945
G1 X130.307 Y99.064 E0.02945
G1 X130.389 Y100.000 E0.02945
G1 X130.307 Y100.936 E0.02945
G1 X130.064 Y101.843 E0.02945
G1 X129.667 Y102.695 E0.02945
G1 X129.128 Y103.464 E0.02945
G1 X128.464 Y104.128 E0.02945
G1 X127.695 Y104.667 E0.02945
G1 X126.843 Y105.064 E0.02945
G1 X125.936 Y105.307 E0.02945
G1 X125.000 Y105.389 E0.02945
G1 X124.064 Y105.307 E0.02945
G1 X123.157 Y105.064 E0.02945
G1 X122.305 Y104.667 E0.02945
G1 X121.536 Y104.128 E0.02945
G1 X120.872 Y103.464 E0.02945
G1 X120.333 Y102.695 E0.02945
G1 X119.984 Y101.947 E0.02588
G1 X120.326 Y101.787 F10800.000
G1 F1200
G1 X120.291 Y101.714 E0.00254
G1 X120.065 Y100.870 E0.02739
G1 X119.989 Y100.000 E0.02739
G1 X120.065 Y99.130 E0.02739
G1 X120.291 Y98.286 E0.02739
G1 X120.661 Y97.495 E0.02739
G1 X121.162 Y96.779 E0.02739
G1 X121.779 Y96.162 E0.02739
G1 X122.495 Y95.661 E0.02739
G1 X123.286 Y95.291 E0.02739
G1 X124.130 Y95.065 E0.02739
G1 X125.000 Y94.989 E0.02739
G1 X125.870 Y95.065 E0.02739
G1 X126.714 Y95.291 E0.02739
G1 X127.505 Y95.661 E0.02739
G1 X128.221 Y96.162 E0.02739
G1 X128.838 Y96.779 E0.02739
G1 X129.216 Y97.319 E0.02066
G1 X129.339 Y97.495 E0.00672
G1 X129.709 Y98.286 E0.02739
G1 X129.935 Y99.130 E0.02739
G1 X130.011 Y100.000 E0.02739
G1 X129.935 Y100.870 E0.02739
G1 X129.709 Y101.714 E0.02739
G1 X129.339 Y102.505 E0.02739
