; generated by SuperSlicer 2.3.55 on 2021-06-18 at 11:33:24 UTC

; 

; external perimeters extrusion width = 0.45mm
; perimeters extrusion width = 0.45mm
; infill extrusion width = 0.45mm
; solid infill extrusion width = 0.45mm
; top infill extrusion width = 0.40mm
; support material extrusion width = 0.35mm
; first layer extrusion width = 0.42mm

; object:{"name":"switchmount","id":"switchmount.STL id:0 copy 0","object_center":[125.000000,105.000000,0.000000],"boundingbox_center":[125.000000,105.000000,6.500000],"boundingbox_size":[65.000000,26.000000,13.000000]}
; Total objects to print: 1
M486 T1
; plater:{"center":[125.000000,105.000000,0.000000],"boundingbox_center":[125.000000,105.000000,6.500000],"boundingbox_size":[65.000000,26.000000,13.000000]}

M73 P0 R31
M73 Q0 S32
;TYPE:Custom
M862.3 P "MK3S" ; printer model check
M862.1 P0.4 ; nozzle diameter check
M115 U3.9.2 ; tell printer latest fw version
G90 ; use absolute coordinates
M83 ; extruder relative mode
M104 S215 ; set extruder temp
M140 S60 ; set bed temp
M190 S60 ; wait for bed temp
M109 S215 ; wait for extruder temp
G28 W ; home all without mesh bed level
G80 ; mesh bed leveling
G1 Y-3.0 F1000.0 ; go outside print area
G92 E0.0
G1 X60.0 E9.0 F1000.0 ; intro line
G1 X100.0 E12.5 F1000.0 ; intro line
G92 E0.0
M221 S95

; Don't change E values below. Excessive value can damage the printer.

M107
G21 ; set units to millimeters
G90 ; use absolute coordinates
M83 ; use relative distances for extrusion
M900 K0.05 ; Filament gcode LA 1.5
M900 K30 ; Filament gcode LA 1.0
;LAYER_CHANGE
;Z:0.2
;HEIGHT:0.2
;BEFORE_LAYER_CHANGE
;0.2


G1 E-0.80000 F2100.000
G1 Z0.400000 F10800.000
;AFTER_LAYER_CHANGE
;0.2
G1 X87.411 Y87.542
G1 Z0.200000
G1 E0.80000 F2100.000
;TYPE:Skirt
;WIDTH:0.42
G1 F1200.000
G1 X88.053 Y86.901 E0.02843
G1 X88.771 Y86.347 E0.02843
G1 X89.552 Y85.887 E0.02843
G1 X91.090 Y85.318 E0.05139
G1 X92.716 Y85.112 E0.05139
G1 X157.207 Y85.111 E2.02206
G1 X158.537 Y85.237 E0.04189
G1 X159.821 Y85.606 E0.04189
G1 X161.014 Y86.207 E0.04189
G1 X162.071 Y87.013 E0.04169
G1 X162.965 Y88.006 E0.04189
G1 X163.660 Y89.147 E0.04189
G1 X164.130 Y90.391 E0.04169
G1 X164.364 Y91.706 E0.04189
G1 X164.389 Y117.707 E0.81522
G1 X164.337 Y118.559 E0.02678
G1 X164.178 Y119.425 E0.02760
G1 X163.915 Y120.265 E0.02760
G1 X163.548 Y121.073 E0.02781
G1 X163.088 Y121.823 E0.02760
G1 X162.536 Y122.517 E0.02781
G1 X161.907 Y123.133 E0.02760
G1 X161.207 Y123.668 E0.02760
G1 X160.448 Y124.113 E0.02760
G1 X158.904 Y124.684 E0.05160
G1 X157.278 Y124.888 E0.05139
G1 X92.495 Y124.882 E2.03120
G1 X91.548 Y124.779 E0.02988
G1 X90.622 Y124.551 E0.02988
G1 X89.741 Y124.205 E0.02968
G1 X88.907 Y123.743 E0.02988
G1 X88.142 Y123.175 E0.02988
G1 X87.463 Y122.516 E0.02968
G1 X86.873 Y121.767 E0.02988
G1 X86.387 Y120.948 E0.02988
G1 X85.829 Y119.455 E0.04995
G1 X85.614 Y117.884 E0.04974
G1 X85.641 Y91.652 E0.82248
G1 X85.781 Y90.749 E0.02864
G1 X86.032 Y89.878 E0.02843
G1 X86.391 Y89.045 E0.02843
G1 X86.852 Y88.264 E0.02843
G1 X87.375 Y87.589 E0.02676
;WIPE_START
G1 F8640.000
G1 X88.053 Y86.901 E-0.22315
G1 X88.771 Y86.347 E-0.20940
G1 X89.552 Y85.887 E-0.20940
G1 X90.032 Y85.709 E-0.11806
;WIPE_END
G1 E-0.04000 F2100.000
G1 Z1.000000 F10800.000
M73 P1 R31
G1 X87.332 Y93.480
G1 Z0.200000
G1 E0.80000 F2100.000
G1 F1200.000
G1 X87.346 Y91.870 E0.05048
G1 X87.453 Y91.170 E0.02220
G1 X87.623 Y90.588 E0.01901
G1 X87.924 Y89.889 E0.02385
M73 Q1 S32
G1 X88.291 Y89.284 E0.02221
G1 X88.686 Y88.795 E0.01971
M73 P1 R30
G1 X89.658 Y87.883 E0.04177
G1 X90.477 Y87.380 E0.03015
G1 X91.076 Y87.128 E0.02037
G1 X92.134 Y86.870 E0.03413
G1 X93.980 Y86.832 E0.05789
;WIPE_START
G1 F8640.000
G1 X92.134 Y86.870 E-0.42632
G1 X91.076 Y87.128 E-0.25138
G1 X90.748 Y87.266 E-0.08230
;WIPE_END
G1 E-0.04000 F2100.000
G1 Z0.600000 F10800.000
G1 X95.078 Y87.209
G1 Z0.200000
G1 E0.80000 F2100.000
G1 F1200.000
G1 X92.672 Y87.209 E0.07545
G1 X91.659 Y87.343 E0.03201
G1 X90.684 Y87.699 E0.03255
G1 X90.198 Y87.967 E0.01740
G1 X89.670 Y88.357 E0.02058
G1 X88.974 Y89.040 E0.03059
G1 X88.619 Y89.474 E0.01758
G1 X88.260 Y90.060 E0.02154
G1 X87.978 Y90.716 E0.02240
G1 X87.819 Y91.265 E0.01792
G1 X87.720 Y91.913 E0.02057
G1 X87.719 Y94.602 E0.08429
;WIPE_START
G1 F8640.000
G1 X87.720 Y91.913 E-0.62074
G1 X87.811 Y91.317 E-0.13926
;WIPE_END
G1 E-0.04000 F2100.000
G1 Z0.600000 F10800.000
G1 X92.611 Y97.898
G1 Z0.200000
G1 E0.80000 F2100.000
G1 F1200.000
G1 X92.611 Y92.332 E0.17451
G1 X92.832 Y92.111 E0.00979
G1 X98.398 Y92.111 E0.17451
G1 X98.348 Y91.734 E0.01193
G1 X92.757 Y91.734 E0.17531
G1 X92.619 Y91.792 E0.00470
G1 X92.292 Y92.119 E0.01450
G1 X92.234 Y92.257 E0.00470
G1 X92.234 Y97.848 E0.17531
G1 X91.857 Y97.799 E0.01193
G1 X91.857 Y92.220 E0.17491
G1 X91.999 Y91.878 E0.01160
G1 X92.378 Y91.499 E0.01683
G1 X92.720 Y91.357 E0.01160
G1 X98.299 Y91.357 E0.17491
G1 X98.249 Y90.981 E0.01192
G1 X92.702 Y90.980 E0.17394
G1 X92.153 Y91.196 E0.01847
G1 X91.719 Y91.625 E0.01914
G1 X91.516 Y92.020 E0.01393
G1 X91.480 Y92.202 E0.00580
G1 X91.480 Y97.749 E0.17394
G1 X91.103 Y97.631 E0.01239
G1 X91.103 Y92.192 E0.17053
G1 X91.164 Y91.884 E0.00985
G1 X91.387 Y91.436 E0.01569
G1 X91.878 Y90.934 E0.02204
G1 X92.126 Y90.771 E0.00927
G1 X92.692 Y90.603 E0.01853
G1 X98.131 Y90.603 E0.17053
G1 X97.975 Y90.226 E0.01280
G1 X92.688 Y90.226 E0.16578
G1 X92.350 Y90.280 E0.01072
G1 X91.977 Y90.425 E0.01254
G1 X91.629 Y90.651 E0.01303
G1 X91.082 Y91.215 E0.02464
G1 X90.811 Y91.753 E0.01887
G1 X90.741 Y92.031 E0.00899
G1 X90.726 Y97.475 E0.17069
G1 X90.349 Y97.319 E0.01279
G1 X90.350 Y92.162 E0.16169
G1 X90.457 Y91.624 E0.01722
G1 X90.609 Y91.264 E0.01225
G1 X90.905 Y90.840 E0.01621
G1 X91.381 Y90.367 E0.02103
G1 X91.827 Y90.079 E0.01664
G1 X92.261 Y89.913 E0.01457
G1 X92.685 Y89.849 E0.01347
G1 X97.819 Y89.849 E0.16095
G1 X97.657 Y89.472 E0.01287
G1 X92.461 Y89.489 E0.16292
G1 X92.170 Y89.547 E0.00929
G1 X91.430 Y89.865 E0.02525
G1 X91.133 Y90.082 E0.01153
G1 X90.632 Y90.579 E0.02212
G1 X90.273 Y91.093 E0.01968
G1 X90.103 Y91.494 E0.01363
G1 X89.975 Y92.110 E0.01975
G1 X89.974 Y97.158 E0.15828
G1 X89.597 Y96.869 E0.01488
G1 X89.598 Y92.090 E0.14986
G1 X89.661 Y91.666 E0.01345
G1 X89.937 Y90.922 E0.02487
G1 X90.360 Y90.318 E0.02312
G1 X90.887 Y89.797 E0.02324
G1 X91.225 Y89.549 E0.01316
G1 X91.854 Y89.252 E0.02180
G1 X92.407 Y89.116 E0.01786
G1 X97.367 Y89.095 E0.15553
G1 X97.078 Y88.718 E0.01490
G1 X92.681 Y88.718 E0.13788
G1 X92.358 Y88.742 E0.01016
G1 X91.722 Y88.899 E0.02053
G1 X91.026 Y89.229 E0.02415
G1 X90.654 Y89.500 E0.01443
G1 X89.851 Y90.343 E0.03650
G1 X89.603 Y90.747 E0.01488
G1 X89.292 Y91.588 E0.02812
G1 X89.222 Y92.064 E0.01508
G1 X89.221 Y96.581 E0.14161
G1 X88.845 Y96.292 E0.01485
G1 X88.846 Y92.030 E0.13365
G1 X88.922 Y91.513 E0.01639
G1 X89.267 Y90.575 E0.03130
G1 X89.799 Y89.814 E0.02913
G1 X90.408 Y89.214 E0.02680
G1 X90.822 Y88.911 E0.01610
G1 X91.189 Y88.712 E0.01309
G1 X91.933 Y88.441 E0.02482
G1 X92.679 Y88.341 E0.02360
G1 X96.789 Y88.341 E0.12888
G1 X96.306 Y87.964 E0.01920
G1 X92.269 Y87.993 E0.12659
G1 X91.480 Y88.185 E0.02546
G1 X91.017 Y88.376 E0.01571
G1 X90.143 Y88.944 E0.03268
G1 X89.221 Y89.928 E0.04229
G1 X88.926 Y90.413 E0.01778
G1 X88.553 Y91.437 E0.03417
G1 X88.470 Y91.996 E0.01772
G1 X88.470 Y95.814 E0.11972
G1 X88.095 Y95.326 E0.01928
G1 X88.096 Y91.942 E0.10610
G1 X88.187 Y91.343 E0.01901
G1 X88.332 Y90.845 E0.01625
G1 X88.596 Y90.231 E0.02095
G1 X88.927 Y89.691 E0.01986
G1 X89.248 Y89.298 E0.01592
G1 X89.916 Y88.642 E0.02935
G1 X90.404 Y88.283 E0.01899
G1 X90.857 Y88.035 E0.01620
G1 X91.351 Y87.830 E0.01676
G1 X92.218 Y87.619 E0.02800
G1 X95.815 Y87.587 E0.11277
;WIPE_START
G1 F8640.000
G1 X92.524 Y87.617 E-0.76000
;WIPE_END
G1 E-0.04000 F2100.000
G1 Z0.600000 F10800.000
G1 X92.611 Y112.102
G1 Z0.200000
G1 E0.80000 F2100.000
G1 F1200.000
G1 X92.611 Y117.668 E0.17451
G1 X92.832 Y117.889 E0.00979
G1 X98.398 Y117.889 E0.17451
G1 X98.348 Y118.266 E0.01193
G1 X92.757 Y118.266 E0.17531
G1 X92.619 Y118.208 E0.00470
G1 X92.292 Y117.881 E0.01450
G1 X92.234 Y117.743 E0.00470
G1 X92.234 Y112.152 E0.17531
G1 X91.857 Y112.201 E0.01193
G1 X91.857 Y117.780 E0.17491
G1 X91.999 Y118.122 E0.01160
G1 X92.378 Y118.501 E0.01683
G1 X92.720 Y118.643 E0.01160
G1 X98.299 Y118.643 E0.17491
G1 X98.249 Y119.020 E0.01193
G1 X92.702 Y119.020 E0.17394
G1 X92.520 Y118.984 E0.00580
G1 X92.125 Y118.781 E0.01393
G1 X91.696 Y118.347 E0.01914
G1 X91.480 Y117.798 E0.01847
G1 X91.480 Y112.251 E0.17394
G1 X91.103 Y112.369 E0.01239
G1 X91.103 Y117.808 E0.17053
G1 X91.271 Y118.374 E0.01853
G1 X91.434 Y118.622 E0.00927
G1 X92.109 Y119.221 E0.02831
G1 X92.692 Y119.397 E0.01911
G1 X98.131 Y119.397 E0.17053
G1 X97.975 Y119.774 E0.01280
G1 X92.688 Y119.774 E0.16578
G1 X92.253 Y119.689 E0.01389
G1 X91.715 Y119.418 E0.01887
G1 X90.999 Y118.661 E0.03268
G1 X90.780 Y118.150 E0.01745
G1 X90.726 Y117.812 E0.01072
G1 X90.726 Y112.525 E0.16578
G1 X90.349 Y112.681 E0.01279
G1 X90.349 Y117.815 E0.16096
G1 X90.413 Y118.239 E0.01347
G1 X90.682 Y118.865 E0.02135
G1 X90.867 Y119.119 E0.00987
G1 X91.508 Y119.733 E0.02782
G1 X92.154 Y120.054 E0.02264
G1 X92.465 Y120.130 E0.01001
G1 X97.819 Y120.151 E0.16788
G1 X97.657 Y120.528 E0.01287
G1 X92.397 Y120.501 E0.16493
G1 X91.608 Y120.235 E0.02610
G1 X91.079 Y119.868 E0.02018
G1 X90.582 Y119.367 E0.02212
G1 X90.365 Y119.070 E0.01153
G1 X90.047 Y118.330 E0.02525
G1 X89.989 Y118.039 E0.00929
G1 X89.972 Y112.843 E0.16294
G1 X89.595 Y113.132 E0.01490
G1 X89.595 Y117.822 E0.14705
G1 X89.752 Y118.646 E0.02630
G1 X90.049 Y119.275 E0.02180
G1 X90.298 Y119.614 E0.01320
G1 X91.080 Y120.354 E0.03375
G1 X91.906 Y120.767 E0.02897
G1 X92.329 Y120.872 E0.01367
G1 X97.368 Y120.905 E0.15797
G1 X97.079 Y121.282 E0.01488
G1 X92.637 Y121.281 E0.13926
M73 P2 R30
G1 X91.783 Y121.123 E0.02722
G1 X91.271 Y120.909 E0.01741
G1 X90.573 Y120.428 E0.02658
G1 X90.013 Y119.861 E0.02499
G1 X89.732 Y119.479 E0.01486
G1 X89.399 Y118.778 E0.02433
G1 X89.242 Y118.142 E0.02053
G1 X89.218 Y113.421 E0.14803
G1 X88.842 Y113.710 E0.01489
G1 X88.841 Y117.843 E0.12959
G1 X88.869 Y118.195 E0.01107
G1 X89.042 Y118.899 E0.02274
G1 X89.416 Y119.685 E0.02727
G1 X89.729 Y120.109 E0.01652
G1 X90.652 Y120.976 E0.03972
G1 X91.103 Y121.247 E0.01650
G1 X91.662 Y121.480 E0.01896
G1 X92.194 Y121.614 E0.01722
G1 X92.626 Y121.658 E0.01362
G1 X96.789 Y121.658 E0.13053
M73 Q2 S32
G1 X96.308 Y122.035 E0.01917
G1 X92.607 Y122.035 E0.11605
G1 X92.112 Y121.982 E0.01559
G1 X91.539 Y121.836 E0.01855
G1 X90.937 Y121.586 E0.02044
G1 X90.452 Y121.295 E0.01773
G1 X90.065 Y120.985 E0.01556
G1 X89.444 Y120.357 E0.02768
G1 X89.100 Y119.891 E0.01815
G1 X88.876 Y119.483 E0.01460
G1 X88.585 Y118.701 E0.02616
G1 X88.464 Y117.850 E0.02694
G1 X88.465 Y114.192 E0.11470
G1 X88.088 Y114.683 E0.01941
G1 X88.087 Y117.857 E0.09952
G1 X88.120 Y118.283 E0.01337
G1 X88.330 Y119.149 E0.02797
G1 X88.784 Y120.097 E0.03294
G1 X89.160 Y120.605 E0.01982
G1 X89.808 Y121.261 E0.02891
G1 X90.240 Y121.607 E0.01737
G1 X90.769 Y121.923 E0.01933
G1 X91.712 Y122.282 E0.03162
G1 X92.594 Y122.412 E0.02795
G1 X95.817 Y122.412 E0.10105
G1 X95.082 Y122.789 F10800.000
G1 F1200.000
G1 X92.582 Y122.789 E0.07837
G1 X91.620 Y122.647 E0.03050
G1 X90.602 Y122.261 E0.03414
G1 X90.030 Y121.920 E0.02089
G1 X89.566 Y121.551 E0.01859
G1 X88.876 Y120.853 E0.03078
G1 X88.479 Y120.319 E0.02086
G1 X88.199 Y119.816 E0.01806
G1 X87.843 Y118.841 E0.03252
G1 X87.710 Y117.864 E0.03092
G1 X87.711 Y115.419 E0.07669
;WIPE_START
G1 F8640.000
G1 X87.710 Y117.864 E-0.56474
G1 X87.824 Y118.702 E-0.19526
;WIPE_END
G1 E-0.04000 F2100.000
G1 Z0.600000 F10800.000
G1 X87.333 Y116.517
G1 Z0.200000
G1 E0.80000 F2100.000
G1 F1200.000
G1 X87.375 Y118.407 E0.05927
G1 X87.636 Y119.446 E0.03360
G1 X87.880 Y120.023 E0.01964
G1 X88.384 Y120.844 E0.03019
G1 X89.312 Y121.830 E0.04247
G1 X89.831 Y122.241 E0.02077
G1 X90.435 Y122.599 E0.02200
G1 X91.527 Y123.013 E0.03663
G1 X92.549 Y123.165 E0.03238
G1 X93.999 Y123.165 E0.04548
;WIPE_START
G1 F8640.000
G1 X92.549 Y123.165 E-0.33490
G1 X91.527 Y123.013 E-0.23849
G1 X90.772 Y122.727 E-0.18661
;WIPE_END
G1 E-0.04000 F2100.000
G1 Z0.600000 F10800.000
G1 X151.602 Y92.111
G1 Z0.200000
G1 E0.80000 F2100.000
G1 F1200.000
G1 X157.168 Y92.111 E0.17451
G1 X157.389 Y92.332 E0.00979
G1 X157.389 Y97.898 E0.17451
G1 X157.766 Y97.848 E0.01193
G1 X157.766 Y92.257 E0.17531
G1 X157.708 Y92.119 E0.00470
G1 X157.381 Y91.792 E0.01450
G1 X157.243 Y91.734 E0.00470
G1 X151.652 Y91.734 E0.17531
G1 X151.701 Y91.357 E0.01193
G1 X157.280 Y91.357 E0.17491
G1 X157.622 Y91.499 E0.01160
G1 X158.001 Y91.878 E0.01683
G1 X158.143 Y92.220 E0.01160
G1 X158.143 Y97.799 E0.17491
G1 X158.520 Y97.749 E0.01193
G1 X158.520 Y92.202 E0.17394
M73 Q2 S31
G1 X158.484 Y92.020 E0.00580
G1 X158.281 Y91.625 E0.01393
G1 X157.847 Y91.196 E0.01914
G1 X157.335 Y90.984 E0.01735
G1 X151.750 Y90.984 E0.17511
G1 X151.868 Y90.604 E0.01246
G1 X157.326 Y90.604 E0.17112
G1 X157.598 Y90.658 E0.00870
G1 X158.135 Y90.946 E0.01911
G1 X158.694 Y91.560 E0.02604
G1 X158.836 Y91.884 E0.01109
G1 X158.897 Y92.192 E0.00985
G1 X158.897 Y97.631 E0.17053
G1 X159.274 Y97.475 E0.01280
G1 X159.274 Y92.188 E0.16578
G1 X159.186 Y91.744 E0.01418
G1 X159.025 Y91.378 E0.01254
G1 X158.824 Y91.101 E0.01073
G1 X158.130 Y90.480 E0.02922
G1 X157.712 Y90.299 E0.01428
G1 X157.321 Y90.226 E0.01245
G1 X152.025 Y90.226 E0.16607
G1 X152.181 Y89.849 E0.01280
G1 X157.319 Y89.849 E0.16110
G1 X157.739 Y89.913 E0.01333
G1 X158.369 Y90.184 E0.02149
G1 X159.133 Y90.881 E0.03241
G1 X159.354 Y91.194 E0.01204
G1 X159.562 Y91.676 E0.01645
G1 X159.651 Y92.167 E0.01564
G1 X159.650 Y97.319 E0.16154
G1 X160.027 Y97.158 E0.01285
G1 X160.004 Y91.917 E0.16431
G1 X159.943 Y91.634 E0.00907
G1 X159.687 Y91.018 E0.02093
G1 X159.418 Y90.633 E0.01472
G1 X158.929 Y90.140 E0.02176
G1 X158.315 Y89.729 E0.02319
G1 X157.539 Y89.489 E0.02545
G1 X152.343 Y89.472 E0.16292
G1 X152.633 Y89.095 E0.01490
G1 X157.317 Y89.095 E0.14689
G1 X157.830 Y89.160 E0.01619
G1 X158.185 Y89.268 E0.01163
G1 X158.708 Y89.507 E0.01804
G1 X159.192 Y89.870 E0.01897
G1 X159.715 Y90.401 E0.02336
G1 X160.021 Y90.841 E0.01682
G1 X160.232 Y91.315 E0.01627
G1 X160.376 Y91.856 E0.01753
G1 X160.404 Y96.869 E0.15719
G1 X160.780 Y96.580 E0.01487
G1 X160.781 Y92.116 E0.13997
G1 X160.588 Y91.188 E0.02970
G1 X160.391 Y90.735 E0.01551
G1 X160.017 Y90.174 E0.02112
G1 X159.456 Y89.600 E0.02517
G1 X158.934 Y89.203 E0.02057
G1 X158.327 Y88.919 E0.02100
G1 X157.904 Y88.790 E0.01388
G1 X157.319 Y88.718 E0.01847
G1 X152.922 Y88.718 E0.13787
G1 X153.211 Y88.341 E0.01490
G1 X157.646 Y88.363 E0.13905
G1 X158.470 Y88.569 E0.02664
G1 X158.867 Y88.738 E0.01353
G1 X159.453 Y89.101 E0.02160
G1 X159.719 Y89.330 E0.01101
G1 X160.183 Y89.795 E0.02059
G1 X160.584 Y90.314 E0.02058
G1 X160.938 Y91.049 E0.02556
G1 X161.120 Y91.733 E0.02221
G1 X161.156 Y96.291 E0.14293
G1 X161.533 Y95.811 E0.01912
G1 X161.534 Y92.073 E0.11722
G1 X161.492 Y91.671 E0.01267
G1 X161.289 Y90.910 E0.02471
G1 X161.066 Y90.399 E0.01746
G1 X160.455 Y89.534 E0.03320
G1 X159.982 Y89.060 E0.02100
G1 X159.332 Y88.562 E0.02568
G1 X158.612 Y88.220 E0.02498
G1 X158.052 Y88.051 E0.01836
G1 X157.323 Y87.964 E0.02303
G1 X153.694 Y87.964 E0.11378
G1 X154.185 Y87.587 E0.01942
G1 X157.324 Y87.587 E0.09843
G1 X158.372 Y87.741 E0.03320
G1 X159.191 Y88.057 E0.02753
G1 X159.909 Y88.501 E0.02648
G1 X160.949 Y89.527 E0.04579
G1 X161.401 Y90.224 E0.02606
G1 X161.760 Y91.133 E0.03063
G1 X161.908 Y92.009 E0.02786
G1 X161.909 Y95.321 E0.10385
G1 X162.285 Y94.591 F10800.000
G1 F1200.000
G1 X162.285 Y91.987 E0.08166
G1 X162.123 Y91.030 E0.03042
G1 X161.736 Y90.052 E0.03299
G1 X161.533 Y89.698 E0.01278
G1 X160.998 Y89.010 E0.02731
G1 X160.494 Y88.506 E0.02238
G1 X159.740 Y87.928 E0.02977
G1 X159.365 Y87.723 E0.01341
G1 X158.511 Y87.389 E0.02874
G1 X157.776 Y87.239 E0.02351
G1 X157.326 Y87.209 E0.01416
G1 X154.922 Y87.209 E0.07537
;WIPE_START
G1 F8640.000
G1 X157.326 Y87.209 E-0.55508
G1 X157.776 Y87.239 E-0.10425
G1 X158.204 Y87.326 E-0.10067
;WIPE_END
G1 E-0.04000 F2100.000
G1 Z0.600000 F10800.000
G1 X156.020 Y86.832
G1 Z0.200000
