; generated by SuperSlicer 2.3.55 on 2021-06-17 at 10:43:11 UTC

; 

; external perimeters extrusion width = 0.45mm
; perimeters extrusion width = 0.45mm
; infill extrusion width = 0.45mm
; solid infill extrusion width = 0.45mm
; top infill extrusion width = 0.40mm
; support material extrusion width = 0.35mm
; first layer extrusion width = 0.42mm

; object:{"name":"tagcameramounting","id":"tagcameramounting.STL id:0 copy 0","object_center":[125.000000,105.000000,0.000000],"boundingbox_center":[125.000000,105.000000,11.750000],"boundingbox_size":[86.373718,41.247444,23.500000]}
; Total objects to print: 1
M486 T1
; plater:{"center":[125.000000,105.000000,0.000000],"boundingbox_center":[125.000000,105.000000,11.750000],"boundingbox_size":[86.373718,41.247444,23.500000]}

M73 P0 R66
M73 Q0 S70
;TYPE:Custom
M862.3 P "MK3S" ; printer model check
M862.1 P0.4 ; nozzle diameter check
M115 U3.9.2 ; tell printer latest fw version
G90 ; use absolute coordinates
M83 ; extruder relative mode
M104 S215 ; set extruder temp
M140 S60 ; set bed temp
M190 S60 ; wait for bed temp
M109 S215 ; wait for extruder temp
G28 W ; home all without mesh bed level
G80 ; mesh bed leveling
G1 Y-3.0 F1000.0 ; go outside print area
G92 E0.0
G1 X60.0 E9.0 F1000.0 ; intro line
G1 X100.0 E12.5 F1000.0 ; intro line
G92 E0.0
M221 S95

; Don't change E values below. Excessive value can damage the printer.

M107
G21 ; set units to millimeters
G90 ; use absolute coordinates
M83 ; use relative distances for extrusion
M900 K0.05 ; Filament gcode LA 1.5
M900 K30 ; Filament gcode LA 1.0
M107
;LAYER_CHANGE
;Z:0.2
;HEIGHT:0.2
;BEFORE_LAYER_CHANGE
;0.2


G1 E-0.80000 F2100.000
G1 Z0.400000 F10800.000
;AFTER_LAYER_CHANGE
;0.2
G1 X76.790 Y80.058
G1 Z0.200000
G1 E0.80000 F2100.000
;TYPE:Skirt
;WIDTH:0.42
G1 F1200.000
M204 P1000
G1 X77.994 Y78.956 E0.05119
G1 X78.924 Y78.384 E0.03424
G1 X79.930 Y77.960 E0.03424
G1 X80.983 Y77.694 E0.03403
G1 X82.069 Y77.589 E0.03424
G1 X147.943 Y77.588 E2.06544
G1 X151.538 Y77.829 E0.11296
G1 X155.378 Y78.643 E0.12309
G1 X158.284 Y79.646 E0.09637
G1 X161.083 Y81.009 E0.09761
G1 X164.355 Y83.143 E0.12247
G1 X167.093 Y85.545 E0.11421
G1 X169.628 Y88.499 E0.12206
G1 X171.575 Y91.522 E0.11273
G1 X172.920 Y94.285 E0.09636
G1 X173.936 Y97.235 E0.09782
G1 X174.736 Y101.038 E0.12185
G1 X174.975 Y104.619 E0.11255
G1 X174.965 Y105.758 E0.03569
G1 X174.748 Y108.870 E0.09782
G1 X173.945 Y112.740 E0.12393
G1 X172.723 Y116.149 E0.11356
G1 X171.350 Y118.899 E0.09636
G1 X169.621 Y121.512 E0.09824
G1 X167.079 Y124.469 E0.12227
G1 X164.238 Y126.943 E0.11814
G1 X161.370 Y128.839 E0.10778
G1 X157.844 Y130.520 E0.12248
G1 X154.935 Y131.491 E0.09615
G1 X151.904 Y132.109 E0.09699
G1 X148.142 Y132.409 E0.11832
G1 X81.915 Y132.406 E2.07651
G1 X80.315 Y132.157 E0.05078
G1 X78.811 Y131.556 E0.05078
G1 X77.485 Y130.638 E0.05057
G1 X76.393 Y129.443 E0.05078
G1 X75.830 Y128.530 E0.03361
G1 X75.409 Y127.544 E0.03361
G1 X75.140 Y126.507 E0.03361
G1 X75.028 Y125.440 E0.03361
G1 X75.028 Y84.551 E1.28205
G1 X75.264 Y82.936 E0.05119
G1 X75.862 Y81.409 E0.05139
G1 X76.756 Y80.108 E0.04951
;WIPE_START
G1 F8640.000
G1 X77.994 Y78.956 E-0.39047
G1 X78.924 Y78.384 E-0.25212
G1 X79.393 Y78.187 E-0.11741
;WIPE_END
G1 E-0.04000 F2100.000
G1 Z1.000000 F10800.000
G1 X76.746 Y85.959
G1 Z0.200000
G1 E0.80000 F2100.000
G1 F1200.000
G1 X76.789 Y84.064 E0.05942
G1 X77.037 Y83.063 E0.03234
G1 X77.266 Y82.511 E0.01875
G1 X77.724 Y81.732 E0.02832
G1 X78.620 Y80.747 E0.04175
G1 X79.500 Y80.068 E0.03486
G1 X80.612 Y79.561 E0.03830
G1 X81.745 Y79.325 E0.03631
G1 X83.394 Y79.309 E0.05170
;WIPE_START
G1 F8640.000
G1 X81.745 Y79.325 E-0.38070
G1 X80.612 Y79.561 E-0.26739
G1 X80.171 Y79.762 E-0.11191
;WIPE_END
G1 E-0.04000 F2100.000
G1 Z0.600000 F10800.000
G1 X84.491 Y79.686
G1 Z0.200000
G1 E0.80000 F2100.000
G1 F1200.000
G1 X82.069 Y79.686 E0.07596
G1 X81.443 Y79.743 E0.01969
G1 X80.732 Y79.918 E0.02296
G1 X80.006 Y80.219 E0.02463
G1 X79.417 Y80.574 E0.02158
G1 X78.886 Y81.015 E0.02163
G1 X78.032 Y81.950 E0.03971
G1 X77.601 Y82.684 E0.02669
G1 X77.386 Y83.207 E0.01771
G1 X77.160 Y84.133 E0.02990
G1 X77.123 Y89.603 E0.17150
G1 X77.248 Y90.583 E0.03097
G1 X77.432 Y91.166 E0.01918
G1 X77.760 Y91.879 E0.02461
G1 X78.415 Y92.766 E0.03456
G1 X79.374 Y93.648 E0.04085
G1 X79.987 Y94.023 E0.02254
G1 X80.725 Y94.332 E0.02511
G1 X81.407 Y94.503 E0.02204
G1 X82.012 Y94.566 E0.01907
G1 X84.493 Y94.566 E0.07779
G1 X85.228 Y94.189 F10800.000
G1 F1200.000
G1 X82.049 Y94.189 E0.09969
G1 X81.475 Y94.132 E0.01807
G1 X80.847 Y93.975 E0.02030
G1 X80.156 Y93.687 E0.02347
G1 X79.578 Y93.331 E0.02128
G1 X78.686 Y92.504 E0.03813
G1 X78.302 Y92.031 E0.01910
G1 X78.083 Y91.683 E0.01291
G1 X77.781 Y91.024 E0.02272
G1 X77.614 Y90.495 E0.01740
G1 X77.513 Y89.875 E0.01969
G1 X77.500 Y84.613 E0.16497
G1 X77.617 Y83.747 E0.02739
G1 X77.741 Y83.334 E0.01354
G1 X78.116 Y82.512 E0.02832
G1 X78.639 Y81.798 E0.02776
G1 X79.647 Y80.873 E0.04288
G1 X80.187 Y80.551 E0.01972
G1 X80.853 Y80.275 E0.02260
G1 X81.508 Y80.115 E0.02114
G1 X82.073 Y80.063 E0.01781
G1 X85.228 Y80.063 E0.09892
G1 X85.720 Y80.440 E0.01942
G1 X82.078 Y80.440 E0.11418
G1 X81.548 Y80.490 E0.01670
G1 X80.972 Y80.633 E0.01861
G1 X80.354 Y80.889 E0.02096
G1 X79.861 Y81.184 E0.01802
G1 X79.426 Y81.541 E0.01764
G1 X78.648 Y82.385 E0.03599
G1 X78.281 Y83.012 E0.02281
G1 X77.978 Y83.860 E0.02823
G1 X77.877 Y84.630 E0.02435
G1 X77.888 Y89.839 E0.16331
G1 X77.979 Y90.397 E0.01774
G1 X78.131 Y90.882 E0.01591
G1 X78.411 Y91.498 E0.02123
G1 X78.764 Y92.021 E0.01978
G1 X79.799 Y93.025 E0.04522
G1 X80.327 Y93.350 E0.01943
G1 X80.978 Y93.621 E0.02211
G1 X81.552 Y93.763 E0.01853
G1 X82.056 Y93.812 E0.01588
G1 X85.720 Y93.812 E0.11488
G1 X86.202 Y93.435 E0.01919
G1 X82.064 Y93.435 E0.12974
G1 X81.117 Y93.270 E0.03013
G1 X80.518 Y93.024 E0.02033
G1 X80.038 Y92.733 E0.01760
G1 X79.711 Y92.462 E0.01330
G1 X78.945 Y91.634 E0.03537
G1 X78.484 Y90.749 E0.03130
G1 X78.264 Y89.804 E0.03040
G1 X78.254 Y84.636 E0.16205
G1 X78.437 Y83.628 E0.03212
G1 X78.760 Y82.904 E0.02485
G1 X79.195 Y82.308 E0.02314
G1 X80.081 Y81.490 E0.03781
G1 X80.522 Y81.227 E0.01610
G1 X81.092 Y80.990 E0.01936
G1 X81.614 Y80.861 E0.01686
G1 X82.083 Y80.817 E0.01477
G1 X86.202 Y80.817 E0.12913
G1 X86.491 Y81.194 E0.01490
G1 X82.088 Y81.194 E0.13807
G1 X81.251 Y81.335 E0.02661
G1 X80.418 Y81.719 E0.02876
G1 X79.984 Y82.050 E0.01711
G1 X79.279 Y82.799 E0.03224
G1 X78.968 Y83.322 E0.01910
G1 X78.805 Y83.717 E0.01338
G1 X78.631 Y84.641 E0.02949
G1 X78.636 Y89.732 E0.15962
G1 X78.823 Y90.581 E0.02727
G1 X79.064 Y91.120 E0.01851
G1 X79.348 Y91.544 E0.01599
G1 X79.965 Y92.184 E0.02788
G1 X80.684 Y92.686 E0.02748
G1 X81.235 Y92.912 E0.01867
G1 X81.682 Y93.020 E0.01443
G1 X82.077 Y93.058 E0.01243
G1 X86.491 Y93.058 E0.13841
G1 X86.781 Y92.681 E0.01490
G1 X81.747 Y92.649 E0.15783
G1 X81.356 Y92.555 E0.01262
G1 X80.853 Y92.349 E0.01704
G1 X80.470 Y92.114 E0.01407
G1 X79.686 Y91.361 E0.03408
G1 X79.402 Y90.951 E0.01566
G1 X79.179 Y90.457 E0.01699
G1 X79.012 Y89.703 E0.02419
G1 X79.027 Y84.401 E0.16627
G1 X79.160 Y83.844 E0.01793
G1 X79.583 Y83.022 E0.02900
G1 X80.244 Y82.324 E0.03014
G1 X80.628 Y82.032 E0.01511
G1 X81.363 Y81.695 E0.02537
G1 X81.764 Y81.601 E0.01291
G1 X86.781 Y81.571 E0.15729
G1 X87.070 Y81.948 E0.01490
G1 X81.828 Y81.973 E0.16436
G1 X81.071 Y82.218 E0.02495
G1 X80.504 Y82.597 E0.02140
G1 X79.880 Y83.254 E0.02840
G1 X79.643 Y83.662 E0.01478
G1 X79.495 Y84.031 E0.01247
G1 X79.385 Y84.661 E0.02004
G1 X79.388 Y89.675 E0.15723
G1 X79.445 Y90.043 E0.01168
G1 X79.729 Y90.765 E0.02431
G1 X79.977 Y91.122 E0.01363
G1 X80.492 Y91.644 E0.02299
G1 X81.023 Y92.012 E0.02026
G1 X81.828 Y92.280 E0.02660
G1 X87.070 Y92.304 E0.16436
G1 X87.232 Y91.927 E0.01287
G1 X81.896 Y91.909 E0.16731
G1 X81.537 Y91.820 E0.01160
G1 X81.060 Y91.602 E0.01644
G1 X80.308 Y90.927 E0.03169
G1 X79.992 Y90.450 E0.01793
G1 X79.831 Y90.034 E0.01399
G1 X79.766 Y89.669 E0.01160
G1 X79.762 Y84.662 E0.15701
G1 X79.853 Y84.148 E0.01635
G1 X80.188 Y83.473 E0.02364
G1 X80.763 Y82.871 E0.02609
G1 X81.048 Y82.658 E0.01117
G1 X81.589 Y82.415 E0.01861
G1 X81.878 Y82.347 E0.00929
G1 X87.232 Y82.325 E0.16788
G1 X87.388 Y82.702 E0.01280
G1 X81.944 Y82.718 E0.17069
G1 X81.252 Y82.975 E0.02317
G1 X80.495 Y83.692 E0.03268
G1 X80.212 Y84.264 E0.02003
G1 X80.139 Y84.664 E0.01274
G1 X80.141 Y89.635 E0.15585
G1 X80.193 Y89.926 E0.00928
G1 X80.412 Y90.438 E0.01745
G1 X81.042 Y91.125 E0.02923
G1 X81.666 Y91.465 E0.02229
G1 X81.981 Y91.540 E0.01015
G1 X87.390 Y91.546 E0.16959
G1 X87.544 Y91.173 E0.01266
G1 X82.106 Y91.173 E0.17053
G1 X81.522 Y90.997 E0.01911
G1 X81.335 Y90.878 E0.00697
G1 X80.859 Y90.412 E0.02088
G1 X80.728 Y90.232 E0.00696
G1 X80.523 Y89.658 E0.01913
G1 X80.516 Y84.669 E0.15643
G1 X80.578 Y84.361 E0.00985
G1 X80.800 Y83.913 E0.01569
G1 X81.457 Y83.291 E0.02835
G1 X81.815 Y83.134 E0.01225
G1 X82.106 Y83.079 E0.00927
G1 X87.544 Y83.079 E0.17053
G1 X87.662 Y83.456 E0.01239
M73 Q0 S69
G1 X82.115 Y83.456 E0.17394
G1 X81.659 Y83.610 E0.01508
G1 X81.109 Y84.130 E0.02373
G1 X80.893 Y84.678 E0.01847
G1 X80.897 Y89.611 E0.15469
G1 X81.109 Y90.123 E0.01735
G1 X81.567 Y90.581 E0.02030
G1 X82.115 Y90.796 E0.01847
G1 X87.662 Y90.796 E0.17394
G1 X87.712 Y90.419 E0.01193
G1 X82.133 Y90.419 E0.17491
G1 X81.792 Y90.277 E0.01160
G1 X81.412 Y89.898 E0.01683
G1 X81.270 Y89.556 E0.01160
G1 X81.270 Y84.696 E0.15237
G1 X81.412 Y84.355 E0.01160
G1 X81.792 Y83.975 E0.01683
G1 X82.133 Y83.834 E0.01160
G1 X87.712 Y83.834 E0.17491
G1 X87.762 Y84.211 E0.01193
G1 X82.170 Y84.211 E0.17531
G1 X82.032 Y84.268 E0.00470
G1 X81.705 Y84.595 E0.01450
G1 X81.648 Y84.734 E0.00470
G1 X81.648 Y89.519 E0.15004
G1 X81.705 Y89.658 E0.00470
G1 X82.032 Y89.984 E0.01450
G1 X82.170 Y90.042 E0.00470
G1 X87.762 Y90.042 E0.17531
G1 X87.811 Y89.665 E0.01193
G1 X82.245 Y89.665 E0.17451
G1 X82.025 Y89.444 E0.00979
G1 X82.025 Y84.809 E0.14534
G1 X82.245 Y84.588 E0.00979
G1 X87.811 Y84.588 E0.17451
;WIPE_START
G1 F8640.000
G1 X84.520 Y84.588 E-0.76000
;WIPE_END
G1 E-0.04000 F2100.000
G1 Z0.600000 F10800.000
G1 X89.551 Y94.944
G1 Z0.200000
G1 E0.80000 F2100.000
G1 F1200.000
G1 X89.714 Y94.944 E0.00512
G1 X90.096 Y95.306 E0.01652
G1 X90.839 Y95.817 E0.02825
G1 X91.794 Y96.234 E0.03268
G1 X92.847 Y96.458 E0.03377
G1 X93.450 Y96.499 E0.01895
G1 X94.173 Y96.447 E0.02273
G1 X94.765 Y96.326 E0.01894
G1 X96.207 Y95.765 E0.04853
G1 X96.604 Y95.562 E0.01397
G1 X97.063 Y95.260 E0.01723
G1 X97.874 Y94.509 E0.03466
G1 X98.134 Y94.607 E0.00871
G1 X98.374 Y94.293 E0.01237
G1 X97.746 Y94.067 E0.02094
G1 X97.367 Y94.502 E0.01808
G1 X96.934 Y94.882 E0.01806
G1 X96.137 Y95.382 E0.02949
G1 X94.694 Y95.955 E0.04871
M73 P1 R66
G1 X94.124 Y96.074 E0.01824
G1 X93.451 Y96.122 E0.02117
G1 X92.897 Y96.084 E0.01741
G1 X92.255 Y95.963 E0.02048
G1 X91.482 Y95.718 E0.02541
G1 X90.630 Y95.243 E0.03059
G1 X89.870 Y94.567 E0.03188
G1 X89.262 Y94.567 E0.01909
G1 X88.972 Y94.190 E0.01490
G1 X90.026 Y94.190 E0.03306
G1 X90.730 Y94.848 E0.03020
G1 X91.549 Y95.335 E0.02989
G1 X92.304 Y95.588 E0.02496
G1 X93.451 Y95.745 E0.03631
G1 X94.074 Y95.700 E0.01957
G1 X94.599 Y95.590 E0.01682
G1 X96.017 Y95.021 E0.04792
G1 X96.478 Y94.752 E0.01675
G1 X96.917 Y94.407 E0.01750
G1 X97.551 Y93.690 E0.03001
G1 X97.875 Y93.690 E0.01014
G1 X98.606 Y93.965 E0.02450
G1 X98.750 Y93.618 E0.01177
G1 X97.958 Y93.313 E0.02660
G1 X97.350 Y93.313 E0.01908
G1 X96.742 Y94.058 E0.03015
G1 X95.923 Y94.646 E0.03163
G1 X94.544 Y95.214 E0.04676
G1 X94.058 Y95.321 E0.01559
G1 X93.449 Y95.368 E0.01916
G1 X92.971 Y95.333 E0.01501
G1 X92.042 Y95.124 E0.02988
G1 X91.254 Y94.751 E0.02733
G1 X90.911 Y94.511 E0.01313
G1 X90.183 Y93.813 E0.03164
G1 X88.757 Y93.813 E0.04471
G1 X88.601 Y93.436 E0.01280
G1 X90.339 Y93.436 E0.05450
G1 X91.105 Y94.184 E0.03358
G1 X91.786 Y94.612 E0.02522
G1 X92.432 Y94.844 E0.02152
G1 X93.454 Y94.991 E0.03236
G1 X94.008 Y94.948 E0.01743
G1 X94.442 Y94.851 E0.01394
G1 X95.806 Y94.281 E0.04634
G1 X96.565 Y93.705 E0.02988
G1 X97.148 Y92.936 E0.03027
M73 Q1 S69
G1 X98.050 Y92.936 E0.02826
G1 X98.895 Y93.268 E0.02848
G1 X99.042 Y92.913 E0.01207
G1 X98.145 Y92.559 E0.03024
G1 X96.937 Y92.559 E0.03790
M73 P1 R65
G1 X96.345 Y93.391 E0.03202
G1 X95.656 Y93.932 E0.02748
G1 X94.343 Y94.486 E0.04467
G1 X93.455 Y94.614 E0.02813
G1 X92.516 Y94.477 E0.02977
G1 X91.930 Y94.262 E0.01955
G1 X91.329 Y93.880 E0.02234
G1 X90.495 Y93.059 E0.03670
G1 X88.444 Y93.058 E0.06429
G1 X88.288 Y92.681 E0.01280
G1 X90.651 Y92.681 E0.07409
G1 X91.508 Y93.535 E0.03792
G1 X91.901 Y93.819 E0.01521
G1 X92.546 Y94.096 E0.02200
G1 X93.457 Y94.237 E0.02891
G1 X94.252 Y94.120 E0.02519
G1 X95.577 Y93.540 E0.04536
G1 X96.185 Y93.003 E0.02541
G1 X96.702 Y92.181 E0.03044
G1 X98.249 Y92.181 E0.04853
G1 X99.160 Y92.550 E0.03079
G1 X99.209 Y92.175 E0.01188
G1 X98.629 Y91.962 E0.01938
G1 X98.363 Y91.804 E0.00969
G1 X96.436 Y91.804 E0.06042
G1 X96.279 Y92.189 E0.01302
G1 X95.948 Y92.694 E0.01895
G1 X95.410 Y93.198 E0.02312
G1 X94.184 Y93.745 E0.04209
G1 X93.459 Y93.860 E0.02301
G1 X92.644 Y93.732 E0.02587
G1 X92.051 Y93.471 E0.02032
G1 X91.741 Y93.237 E0.01217
G1 X90.807 Y92.304 E0.04137
G1 X88.234 Y92.304 E0.08068
G1 X88.185 Y91.927 E0.01192
G1 X90.964 Y91.927 E0.08713
G1 X92.236 Y93.142 E0.05517
G1 X92.696 Y93.355 E0.01588
G1 X93.462 Y93.483 E0.02434
G1 X94.070 Y93.385 E0.01932
G1 X94.979 Y93.010 E0.03084
G1 X95.259 Y92.842 E0.01021
G1 X95.591 Y92.537 E0.01415
G1 X95.910 Y92.074 E0.01764
G1 X96.144 Y91.427 E0.02154
G1 X98.481 Y91.427 E0.07329
G1 X98.777 Y91.614 E0.01096
G1 X99.259 Y91.797 E0.01617
G1 X99.308 Y91.422 E0.01188
G1 X98.891 Y91.248 E0.01417
G1 X98.618 Y91.050 E0.01057
G1 X95.787 Y91.050 E0.08876
G1 X95.768 Y91.392 E0.01073
G1 X95.667 Y91.724 E0.01090
G1 X95.200 Y92.402 E0.02581
G1 X94.838 Y92.660 E0.01392
G1 X93.955 Y93.026 E0.02997
G1 X93.463 Y93.106 E0.01564
G1 X92.800 Y92.992 E0.02109
G1 X92.400 Y92.799 E0.01392
G1 X91.120 Y91.550 E0.05608
G1 X88.135 Y91.547 E0.09360
G1 X88.095 Y91.173 E0.01179
G1 X91.276 Y91.173 E0.09973
G1 X92.631 Y92.499 E0.05945
G1 X92.907 Y92.631 E0.00959
G1 X93.488 Y92.728 E0.01848
G1 X93.817 Y92.675 E0.01045
G1 X94.675 Y92.320 E0.02910
G1 X94.965 Y92.105 E0.01131
G1 X95.333 Y91.544 E0.02106
G1 X95.408 Y91.247 E0.00959
G1 X95.410 Y90.673 E0.01800
G1 X98.774 Y90.673 E0.10548
G1 X98.934 Y90.825 E0.00692
G1 X99.311 Y91.018 E0.01327
G1 X99.254 Y90.585 E0.01370
G1 X98.930 Y90.296 E0.01361
G1 X95.033 Y90.296 E0.12220
G1 X95.025 Y91.261 E0.03024
G1 X94.952 Y91.471 E0.00698
G1 X94.732 Y91.801 E0.01242
G1 X94.518 Y91.977 E0.00870
G1 X93.686 Y92.321 E0.02822
G1 X93.410 Y92.348 E0.00870
G1 X93.021 Y92.271 E0.01242
G1 X92.776 Y92.140 E0.00870
G1 X91.432 Y90.796 E0.05960
G1 X88.145 Y90.796 E0.10307
G1 X88.194 Y90.419 E0.01193
G1 X91.588 Y90.419 E0.10641
G1 X93.023 Y91.854 E0.06363
G1 X93.456 Y91.973 E0.01407
G1 X94.348 Y91.639 E0.02985
G1 X94.623 Y91.285 E0.01407
G1 X94.656 Y89.919 E0.04283
G1 X99.086 Y89.919 E0.13892
G1 X99.178 Y90.011 E0.00406
G1 X99.056 Y89.542 E0.01519
G1 X94.279 Y89.542 E0.14979
G1 X94.279 Y91.122 E0.04954
G1 X94.152 Y91.312 E0.00717
G1 X93.475 Y91.592 E0.02297
G1 X93.250 Y91.548 E0.00717
G1 X91.745 Y90.042 E0.06677
G1 X88.244 Y90.042 E0.10975
G1 X88.319 Y89.665 E0.01206
G1 X91.901 Y89.665 E0.11229
G1 X93.436 Y91.200 E0.06808
G1 X93.902 Y91.007 E0.01580
G1 X93.902 Y89.165 E0.05777
G1 X98.900 Y89.165 E0.15672
;WIPE_START
G1 F8640.000
G1 X95.608 Y89.165 E-0.76000
;WIPE_END
G1 E-0.04000 F2100.000
G1 Z0.600000 F10800.000
G1 X83.401 Y94.943
G1 Z0.200000
G1 E0.80000 F2100.000
G1 F1200.000
G1 X82.002 Y94.943 E0.04387
G1 X80.941 Y94.789 E0.03363
G1 X79.802 Y94.353 E0.03822
G1 X79.136 Y93.942 E0.02453
G1 X78.657 Y93.541 E0.01960
G1 X78.121 Y93.004 E0.02378
G1 X77.678 Y92.454 E0.02216
G1 X77.432 Y92.065 E0.01443
G1 X77.083 Y91.308 E0.02612
G1 X76.881 Y90.670 E0.02100
G1 X76.763 Y89.960 E0.02256
G1 X76.746 Y88.296 E0.05219
;WIPE_START
G1 F8640.000
G1 X76.763 Y89.960 E-0.38436
G1 X76.881 Y90.670 E-0.16616
G1 X77.083 Y91.308 E-0.15464
G1 X77.182 Y91.524 E-0.05485
;WIPE_END
G1 E-0.04000 F2100.000
G1 Z0.600000 F10800.000
G1 X83.398 Y115.057
G1 Z0.200000
