; generated by Slic3r Prusa Edition 1.42.0-beta2+linux64 on 2019-06-18 at 12:15:06

; 

; external perimeters extrusion width = 0.45mm
; perimeters extrusion width = 0.45mm
; infill extrusion width = 0.45mm
; solid infill extrusion width = 0.45mm
; top infill extrusion width = 0.40mm
; support material extrusion width = 0.35mm
; first layer extrusion width = 0.42mm

M73 P0 R118
M73 Q0 S121
M201 X1000 Y1000 Z1000 E5000 ; sets maximum accelerations, mm/sec^2
M203 X200 Y200 Z12 E120 ; sets maximum feedrates, mm/sec
M204 P1250 R1250 T1250 ; sets acceleration (P, T) and retract acceleration (R), mm/sec^2
M205 X8.00 Y8.00 Z0.40 E1.50 ; sets the jerk limits, mm/sec
M205 S0 T0 ; sets the minimum extruding and travel feed rate, mm/sec
M107
M115 U3.6.0 ; tell printer latest fw version
M83  ; extruder relative mode
M104 S215 ; set extruder temp
M140 S60 ; set bed temp
M190 S60 ; wait for bed temp
M109 S215 ; wait for extruder temp
G28 W ; home all without mesh bed level
G80 ; mesh bed leveling
G1 Y-3.0 F1000.0 ; go outside print area
G92 E0.0
G1 X60.0 E9.0  F1000.0 ; intro line
M73 Q0 S121
M73 P0 R118
G1 X100.0 E12.5  F1000.0 ; intro line
G92 E0.0
M221 S95
M900 K30 ; Filament gcode
G21 ; set units to millimeters
G90 ; use absolute coordinates
M83 ; use relative distances for extrusion
;BEFORE_LAYER_CHANGE
G92 E0.0
;0.2


G1 E-0.80000 F2100.00000
G1 Z0.600 F10800.000
;AFTER_LAYER_CHANGE
;0.2
G1 X75.755 Y77.372
G1 Z0.200
G1 E0.80000 F2100.00000
M204 S1000
G1 F1200
G1 X76.463 Y76.908 E0.02653
G1 X77.293 Y76.746 E0.02653
G1 X151.263 Y76.917 E2.31927
G1 X151.729 Y76.982 E0.01475
G1 X161.067 Y79.383 E0.30232
G1 X166.419 Y81.720 E0.18310
G1 X166.825 Y81.957 E0.01475
G1 X171.723 Y86.822 E0.21644
G1 X172.197 Y87.587 E0.02822
G1 X174.405 Y94.612 E0.23091
G1 X174.495 Y95.089 E0.01521
G1 X174.501 Y115.210 E0.63089
G1 X174.341 Y116.016 E0.02574
G1 X169.788 Y125.238 E0.32246
G1 X169.483 Y125.692 E0.01714
G1 X166.715 Y128.398 E0.12141
G1 X161.861 Y130.841 E0.17036
G1 X161.245 Y131.032 E0.02021
G1 X78.042 Y131.227 E2.60878
G1 X77.069 Y131.216 E0.03051
G1 X76.468 Y131.067 E0.01942
G1 X75.921 Y130.747 E0.01987
G1 X75.489 Y130.284 E0.01987
G1 X75.207 Y129.716 E0.01987
G1 X75.100 Y129.095 E0.01976
G1 X75.100 Y78.902 E1.57379
G1 X75.276 Y78.074 E0.02653
G1 X75.722 Y77.422 E0.02476
G1 F8640
G1 X76.463 Y76.908 E-0.20827
G1 X77.293 Y76.746 E-0.19538
G1 X78.836 Y76.750 E-0.35635
G1 E-0.04000 F2100.00000
G1 Z0.800 F10800.000
G1 X77.288 Y78.935
G1 Z0.200
G1 E0.80000 F2100.00000
G1 F1200
G1 X77.288 Y94.262 E0.48059
G1 X78.042 Y94.262 E0.02365
G1 X78.042 Y79.104 E0.47527
G1 X78.797 Y79.104 E0.02365
G1 X78.797 Y94.262 E0.47527
G1 X79.551 Y94.262 E0.02365
G1 X79.551 Y91.640 E0.08224
G1 X80.305 Y91.640 E0.02365
G1 X80.305 Y94.262 E0.08224
G1 X81.059 Y94.262 E0.02365
G1 X81.059 Y91.640 E0.08224
G1 X81.813 Y91.640 E0.02365
G1 X81.813 Y94.262 E0.08224
G1 X82.567 Y94.262 E0.02365
G1 X82.567 Y91.640 E0.08224
G1 X83.321 Y91.640 E0.02365
G1 X83.321 Y94.262 E0.08224
G1 X84.076 Y94.262 E0.02365
G1 X84.076 Y91.640 E0.08224
G1 X84.462 Y91.640 E0.01212
G1 X84.462 Y89.890 E0.05486
G1 X84.830 Y89.890 E0.01152
G1 X84.830 Y94.262 E0.13710
G1 X85.584 Y94.262 E0.02365
G1 X85.584 Y89.890 E0.13710
G1 X86.338 Y89.890 E0.02365
G1 X86.338 Y94.262 E0.13710
G1 X87.092 Y94.262 E0.02365
G1 X87.092 Y89.890 E0.13710
G1 X87.846 Y89.890 E0.02365
G1 X87.846 Y94.262 E0.13710
G1 X88.077 Y94.262 E0.00721
G1 X88.077 Y96.570 E0.07234
G1 X88.601 Y96.570 E0.01643
G1 X88.601 Y89.890 E0.20944
G1 X89.355 Y89.890 E0.02365
G1 X89.355 Y96.570 E0.20944
G1 X90.109 Y96.570 E0.02365
G1 X90.109 Y89.890 E0.20944
G1 X90.863 Y89.890 E0.02365
G1 X90.863 Y96.570 E0.20944
G1 X91.617 Y96.570 E0.02365
G1 X91.617 Y89.890 E0.20944
G1 X91.808 Y89.890 E0.00597
G1 X92.371 Y90.454 E0.02500
G1 X92.371 Y96.570 E0.19176
G1 X93.126 Y96.570 E0.02365
G1 X93.126 Y93.947 E0.08224
G1 X93.880 Y93.947 E0.02365
G1 X93.880 Y96.570 E0.08224
G1 X94.634 Y96.570 E0.02365
G1 X94.634 Y93.947 E0.08224
G1 X95.388 Y93.947 E0.02365
G1 X95.388 Y96.570 E0.08224
G1 X96.142 Y96.570 E0.02365
G1 X96.142 Y89.390 E0.22511
G1 X96.896 Y89.390 E0.02365
G1 X96.896 Y96.570 E0.22511
G1 X97.650 Y96.570 E0.02365
G1 X97.650 Y89.390 E0.22511
G1 X98.405 Y89.390 E0.02365
G1 X98.405 Y96.570 E0.22511
G1 X98.621 Y96.570 E0.00677
G1 X98.621 Y94.262 E0.07234
G1 X99.159 Y94.262 E0.01688
G1 X99.159 Y89.390 E0.15278
G1 X99.400 Y89.390 E0.00755
G1 X99.400 Y89.594 E0.00640
G1 X99.642 Y89.836 E0.01073
G1 X99.913 Y89.837 E0.00851
G1 X99.913 Y94.262 E0.13877
G1 X100.667 Y94.262 E0.02365
G1 X100.667 Y89.837 E0.13875
G1 X101.421 Y89.838 E0.02365
G1 X101.421 Y94.262 E0.13872
G1 X102.175 Y94.262 E0.02365
G1 X102.175 Y89.839 E0.13870
G1 X102.930 Y89.840 E0.02365
G1 X102.930 Y94.432 E0.14400
G1 F8640
G1 X102.930 Y91.141 E-0.76000
G1 E-0.04000 F2100.00000
G1 Z0.800 F10800.000
G1 X95.504 Y93.743
G1 Z0.200
G1 E0.80000 F2100.00000
G1 F1200
G1 X95.504 Y91.297 E0.06244
G1 X94.997 Y91.297 E0.01295
G1 X94.997 Y93.605 E0.05891
G1 X94.490 Y93.605 E0.01295
G1 X94.490 Y91.297 E0.05891
G1 X94.292 Y91.297 E0.00507
G1 X94.292 Y91.946 E0.01657
G1 X93.983 Y92.074 E0.00853
G1 X93.983 Y93.605 E0.03908
G1 X93.476 Y93.605 E0.01295
G1 X93.476 Y91.596 E0.05128
G1 X93.880 Y91.406 F10800.000
G1 F1200
G1 X93.880 Y91.930 E0.01646
G1 X94.634 Y91.125 F10800.000
G1 F1200
G1 X94.634 Y89.390 E0.05441
G1 X95.388 Y89.390 E0.02365
G1 X95.388 Y91.125 E0.05441
G1 F8640
G1 X95.388 Y89.390 E-0.40068
G1 X94.634 Y89.390 E-0.17414
G1 X94.634 Y90.192 E-0.18518
G1 E-0.04000 F2100.00000
G1 Z0.800 F10800.000
G1 X83.841 Y91.436
G1 Z0.200
G1 E0.80000 F2100.00000
G1 F1200
G1 X83.841 Y90.055 E0.03526
G1 X83.334 Y90.055 E0.01295
G1 X83.334 Y91.298 E0.03173
G1 X82.827 Y91.298 E0.01295
G1 X82.827 Y90.055 E0.03173
G1 X82.320 Y90.055 E0.01295
G1 X82.320 Y91.298 E0.03173
G1 X81.813 Y91.298 E0.01295
G1 X81.813 Y90.012 E0.03283
G1 X81.635 Y89.833 E0.00645
G1 X81.635 Y88.990 E0.02152
G1 X81.306 Y88.990 E0.00839
G1 X81.306 Y91.298 E0.05891
G1 X80.799 Y91.298 E0.01295
G1 X80.799 Y88.990 E0.05891
G1 X80.292 Y88.990 E0.01295
G1 X80.292 Y91.298 E0.05891
G1 X79.785 Y91.298 E0.01295
G1 X79.785 Y88.852 E0.06244
G1 X81.059 Y88.818 F10800.000
G1 F1200
G1 X81.059 Y87.025 E0.05621
G1 X80.305 Y87.025 E0.02365
G1 X80.305 Y88.648 E0.05088
G1 X79.551 Y88.648 E0.02365
G1 X79.551 Y87.025 E0.05088
G1 X79.164 Y87.025 E0.01213
G1 X79.164 Y81.727 E0.16613
G1 X79.551 Y81.727 E0.01213
G1 X79.551 Y79.104 E0.08224
G1 X80.305 Y79.104 E0.02365
G1 X80.305 Y81.727 E0.08224
G1 X81.059 Y81.727 E0.02365
G1 X81.059 Y79.104 E0.08224
G1 X81.813 Y79.104 E0.02365
G1 X81.813 Y81.727 E0.08224
G1 X82.567 Y81.727 E0.02365
G1 X82.567 Y79.104 E0.08224
G1 X83.321 Y79.104 E0.02365
G1 X83.321 Y81.727 E0.08224
G1 X84.076 Y81.727 E0.02365
G1 X84.076 Y79.104 E0.08224
G1 X84.830 Y79.104 E0.02365
G1 X84.830 Y84.363 E0.16488
G1 X85.584 Y84.363 E0.02365
G1 X85.584 Y79.104 E0.16488
G1 X86.338 Y79.104 E0.02365
G1 X86.338 Y84.363 E0.16488
G1 X87.092 Y84.363 E0.02365
G1 X87.092 Y79.104 E0.16488
G1 X87.846 Y79.104 E0.02365
G1 X87.846 Y84.363 E0.16488
G1 X88.601 Y84.363 E0.02365
G1 X88.601 Y79.104 E0.16488
G1 X89.355 Y79.104 E0.02365
G1 X89.355 Y84.363 E0.16488
G1 X90.109 Y84.363 E0.02365
G1 X90.109 Y79.104 E0.16488
G1 X90.863 Y79.104 E0.02365
G1 X90.863 Y84.363 E0.16488
G1 X91.617 Y84.363 E0.02365
G1 X91.617 Y79.104 E0.16488
G1 X92.371 Y79.104 E0.02365
G1 X92.371 Y84.363 E0.16488
G1 X93.126 Y84.363 E0.02365
G1 X93.126 Y79.104 E0.16488
G1 X93.880 Y79.104 E0.02365
G1 X93.880 Y84.363 E0.16488
G1 X94.634 Y84.363 E0.02365
G1 X94.634 Y79.104 E0.16488
G1 X95.388 Y79.104 E0.02365
G1 X95.388 Y84.363 E0.16488
G1 X96.142 Y84.363 E0.02365
G1 X96.142 Y79.104 E0.16488
G1 X96.896 Y79.104 E0.02365
G1 X96.896 Y84.363 E0.16488
G1 X97.650 Y84.363 E0.02365
G1 X97.650 Y79.104 E0.16488
G1 X98.405 Y79.104 E0.02365
G1 X98.405 Y84.363 E0.16488
G1 X99.159 Y84.363 E0.02365
G1 X99.159 Y79.104 E0.16488
G1 X99.913 Y79.104 E0.02365
G1 X99.913 Y84.363 E0.16488
G1 X100.667 Y84.363 E0.02365
G1 X100.667 Y79.104 E0.16488
G1 X101.421 Y79.104 E0.02365
G1 X101.421 Y84.363 E0.16488
G1 X102.175 Y84.363 E0.02365
G1 X102.175 Y79.104 E0.16488
G1 X102.930 Y79.104 E0.02365
G1 X102.930 Y84.363 E0.16488
G1 X103.684 Y84.363 E0.02365
G1 X103.684 Y79.104 E0.16488
G1 X104.438 Y79.104 E0.02365
G1 X104.438 Y84.363 E0.16488
G1 X105.192 Y84.363 E0.02365
G1 X105.192 Y79.104 E0.16488
G1 X105.946 Y79.104 E0.02365
G1 X105.946 Y84.363 E0.16488
G1 X106.700 Y84.363 E0.02365
G1 X106.700 Y79.104 E0.16488
G1 X107.455 Y79.104 E0.02365
G1 X107.455 Y84.363 E0.16488
G1 X108.209 Y84.363 E0.02365
G1 X108.209 Y79.104 E0.16488
G1 X108.963 Y79.104 E0.02365
G1 X108.963 Y84.363 E0.16488
G1 X109.717 Y84.363 E0.02365
G1 X109.717 Y79.104 E0.16488
G1 X110.471 Y79.104 E0.02365
G1 X110.471 Y84.363 E0.16488
G1 X111.225 Y84.363 E0.02365
G1 X111.225 Y79.104 E0.16488
G1 X111.980 Y79.104 E0.02365
G1 X111.980 Y84.363 E0.16488
G1 X112.734 Y84.363 E0.02365
G1 X112.734 Y79.104 E0.16488
G1 X113.488 Y79.104 E0.02365
G1 X113.488 Y84.363 E0.16488
G1 X114.242 Y84.363 E0.02365
G1 X114.242 Y79.104 E0.16488
G1 X114.996 Y79.104 E0.02365
G1 X114.996 Y84.363 E0.16488
G1 X115.750 Y84.363 E0.02365
G1 X115.750 Y79.104 E0.16488
G1 X116.504 Y79.104 E0.02365
G1 X116.504 Y84.363 E0.16488
G1 X117.259 Y84.363 E0.02365
G1 X117.259 Y79.104 E0.16488
G1 X118.013 Y79.104 E0.02365
G1 X118.013 Y84.363 E0.16488
G1 X118.767 Y84.363 E0.02365
G1 X118.767 Y79.104 E0.16488
G1 X119.521 Y79.104 E0.02365
G1 X119.521 Y84.363 E0.16488
G1 X120.275 Y84.363 E0.02365
G1 X120.275 Y79.104 E0.16488
G1 X121.029 Y79.104 E0.02365
G1 X121.029 Y84.363 E0.16488
G1 X121.784 Y84.363 E0.02365
G1 X121.784 Y79.104 E0.16488
G1 X122.538 Y79.104 E0.02365
G1 X122.538 Y84.363 E0.16488
G1 X123.292 Y84.363 E0.02365
G1 X123.292 Y79.104 E0.16488
G1 X124.046 Y79.104 E0.02365
G1 X124.046 Y84.363 E0.16488
G1 X124.800 Y84.363 E0.02365
G1 X124.800 Y79.104 E0.16488
G1 X125.554 Y79.104 E0.02365
G1 X125.554 Y84.363 E0.16488
G1 X126.309 Y84.363 E0.02365
G1 X126.309 Y79.104 E0.16488
G1 X127.063 Y79.104 E0.02365
G1 X127.063 Y84.363 E0.16488
G1 X127.817 Y84.363 E0.02365
G1 X127.817 Y79.104 E0.16488
G1 X128.571 Y79.104 E0.02365
G1 X128.571 Y84.363 E0.16488
G1 X129.325 Y84.363 E0.02365
G1 X129.325 Y79.104 E0.16488
G1 X130.079 Y79.104 E0.02365
G1 X130.079 Y84.363 E0.16488
G1 X130.833 Y84.363 E0.02365
G1 X130.833 Y79.104 E0.16488
G1 X131.588 Y79.104 E0.02365
G1 X131.588 Y84.363 E0.16488
G1 X132.342 Y84.363 E0.02365
G1 X132.342 Y79.104 E0.16488
G1 X133.096 Y79.104 E0.02365
G1 X133.096 Y84.363 E0.16488
G1 X133.850 Y84.363 E0.02365
G1 X133.850 Y79.104 E0.16488
G1 X134.604 Y79.104 E0.02365
G1 X134.604 Y84.363 E0.16488
G1 X135.358 Y84.363 E0.02365
G1 X135.358 Y79.104 E0.16488
G1 X136.113 Y79.104 E0.02365
G1 X136.113 Y84.363 E0.16488
G1 X136.867 Y84.363 E0.02365
G1 X136.867 Y79.104 E0.16488
G1 X137.621 Y79.104 E0.02365
G1 X137.621 Y84.363 E0.16488
G1 X138.375 Y84.363 E0.02365
G1 X138.375 Y79.104 E0.16488
G1 X139.129 Y79.104 E0.02365
G1 X139.129 Y84.363 E0.16488
G1 X139.883 Y84.363 E0.02365
G1 X139.883 Y79.104 E0.16488
G1 X140.638 Y79.104 E0.02365
G1 X140.638 Y84.363 E0.16488
G1 X141.392 Y84.363 E0.02365
G1 X141.392 Y79.104 E0.16488
G1 X142.146 Y79.104 E0.02365
G1 X142.146 Y84.363 E0.16488
G1 X142.900 Y84.363 E0.02365
G1 X142.900 Y79.104 E0.16488
M73 Q0 S120
G1 X143.654 Y79.104 E0.02365
G1 X143.654 Y84.363 E0.16488
M73 P0 R117
G1 X144.408 Y84.363 E0.02365
G1 X144.408 Y79.104 E0.16488
G1 X145.162 Y79.104 E0.02365
G1 X145.162 Y84.363 E0.16488
G1 X145.917 Y84.363 E0.02365
G1 X145.917 Y79.104 E0.16488
G1 X146.671 Y79.104 E0.02365
G1 X146.671 Y84.363 E0.16488
G1 X147.425 Y84.363 E0.02365
G1 X147.425 Y79.104 E0.16488
G1 X148.179 Y79.104 E0.02365
G1 X148.179 Y84.378 E0.16535
G1 X148.933 Y84.427 E0.02370
G1 X148.933 Y79.104 E0.16690
G1 X149.687 Y79.104 E0.02365
G1 X149.687 Y84.477 E0.16845
G1 X150.442 Y84.526 E0.02370
G1 X150.442 Y79.104 E0.17000
G1 X151.196 Y79.104 E0.02365
G1 X151.196 Y84.657 E0.17411
G1 X151.950 Y84.807 E0.02411
G1 X151.950 Y81.411 E0.10648
G1 X152.704 Y81.411 E0.02365
G1 X152.704 Y84.957 E0.11118
G1 X153.168 Y85.050 E0.01484
G1 X153.458 Y85.146 E0.00958
G1 X153.458 Y81.411 E0.11710
G1 X154.212 Y81.411 E0.02365
G1 X154.212 Y85.402 E0.12513
G1 X154.967 Y85.658 E0.02497
G1 X154.967 Y81.411 E0.13316
G1 X155.721 Y81.411 E0.02365
G1 X155.721 Y85.919 E0.14133
G1 X156.475 Y86.291 E0.02637
G1 X156.475 Y81.411 E0.15299
G1 X157.229 Y81.411 E0.02365
G1 X157.229 Y86.663 E0.16465
G1 X157.983 Y87.034 E0.02637
G1 X157.983 Y81.411 E0.17631
G1 X158.737 Y81.411 E0.02365
G1 X158.737 Y87.523 E0.19164
G1 X159.492 Y88.027 E0.02844
G1 X159.492 Y81.411 E0.20744
G1 X160.246 Y81.411 E0.02365
G1 X160.246 Y88.531 E0.22324
G1 X161.000 Y89.187 E0.03133
G1 X161.000 Y83.718 E0.17146
G1 X161.754 Y83.718 E0.02365
G1 X161.754 Y89.848 E0.19219
G1 X162.256 Y90.288 E0.02093
G1 X162.508 Y90.573 E0.01194
G1 X162.508 Y83.718 E0.21493
G1 X163.262 Y83.718 E0.02365
G1 X163.262 Y91.433 E0.24189
G1 X164.016 Y92.295 E0.03591
G1 X164.016 Y83.718 E0.26892
G1 X164.771 Y83.718 E0.02365
G1 X164.771 Y93.423 E0.30428
G1 X165.525 Y94.572 E0.04310
G1 X165.526 Y83.718 E0.34031
G1 X165.526 Y86.025 E0.07234
G1 X166.279 Y86.025 E0.02361
G1 X166.279 Y96.101 E0.31592
G1 X166.663 Y96.884 E0.02735
G1 X167.033 Y97.974 E0.03609
G1 X167.033 Y86.025 E0.37464
G1 X167.787 Y86.025 E0.02365
G1 X167.787 Y101.641 E0.48962
G1 F8640
G1 X167.787 Y98.350 E-0.76000
G1 E-0.04000 F2100.00000
G1 Z0.800 F10800.000
G1 X167.033 Y106.756
G1 Z0.200
G1 E0.80000 F2100.00000
G1 F1200
G1 X167.033 Y103.900 E0.08956
G1 X166.871 Y103.295 E0.01962
G1 X166.504 Y102.508 E0.02724
G1 X166.279 Y102.186 E0.01230
G1 X166.279 Y107.814 E0.17644
G1 X166.005 Y108.204 E0.01495
G1 X165.525 Y108.685 E0.02132
G1 X165.525 Y101.315 E0.23108
G1 X165.391 Y101.181 E0.00593
G1 X164.771 Y100.747 E0.02375
G1 X164.771 Y109.253 E0.26671
G1 X164.679 Y109.317 E0.00350
G1 X164.016 Y109.626 E0.02293
G1 X164.016 Y100.374 E0.29010
G1 X163.892 Y100.316 E0.00431
G1 X163.262 Y100.147 E0.02043
G1 X163.262 Y109.853 E0.30432
G1 X163.052 Y109.909 E0.00681
G1 X162.508 Y109.957 E0.01713
G1 X162.508 Y100.043 E0.31083
G1 X162.187 Y100.015 E0.01011
G1 X161.754 Y100.053 E0.01362
G1 X161.754 Y109.947 E0.31022
G1 X161.321 Y109.909 E0.01362
G1 X161.000 Y109.823 E0.01043
G1 X161.000 Y100.177 E0.30245
G1 X160.482 Y100.316 E0.01681
G1 X160.246 Y100.426 E0.00817
G1 X160.246 Y109.574 E0.28683
G1 X159.694 Y109.317 E0.01907
G1 X159.492 Y109.175 E0.00777
G1 X159.492 Y100.825 E0.26181
G1 X158.983 Y101.181 E0.01948
G1 X158.737 Y101.427 E0.01088
G1 X158.737 Y108.573 E0.22408
G1 X158.368 Y108.204 E0.01637
G1 X157.983 Y107.654 E0.02105
G1 X157.983 Y102.346 E0.16645
G1 X157.870 Y102.508 E0.00620
G1 X157.503 Y103.295 E0.02724
G1 X157.278 Y104.134 E0.02724
G1 X157.229 Y104.691 E0.01751
G1 X157.229 Y106.340 E0.05170
G1 F8640
G1 X157.229 Y104.691 E-0.38072
G1 X157.278 Y104.134 E-0.12895
G1 X157.503 Y103.295 E-0.20064
G1 X157.594 Y103.100 E-0.04969
G1 E-0.04000 F2100.00000
G1 Z0.800 F10800.000
G1 X155.721 Y107.156
G1 Z0.200
G1 E0.80000 F2100.00000
G1 F1200
G1 X155.721 Y104.965 E0.06870
G1 X155.639 Y103.415 E0.04867
G1 X155.391 Y101.848 E0.04975
G1 X155.280 Y101.434 E0.01345
G1 X154.967 Y102.107 E0.02327
G1 X154.967 Y108.295 E0.19402
G1 F8640
G1 X154.967 Y105.003 E-0.76000
G1 E-0.04000 F2100.00000
G1 Z0.800 F10800.000
G1 X154.967 Y110.195
G1 Z0.200
G1 E0.80000 F2100.00000
G1 F1200
G1 X154.967 Y109.096 E0.03443
G1 X154.212 Y109.096 E0.02365
G1 X154.212 Y111.557 E0.07717
G1 X153.692 Y112.580 E0.03597
G1 X153.458 Y112.939 E0.01343
G1 X153.458 Y109.096 E0.12048
G1 X152.704 Y109.096 E0.02365
G1 X152.704 Y114.063 E0.15572
G1 X151.950 Y114.994 E0.03757
G1 X151.950 Y109.096 E0.18492
G1 X151.196 Y109.096 E0.02365
G1 X151.196 Y115.777 E0.20946
G1 X150.707 Y116.266 E0.02168
G1 X150.442 Y116.480 E0.01070
G1 X150.442 Y109.096 E0.23152
G1 X149.687 Y109.096 E0.02365
G1 X149.687 Y117.091 E0.25067
G1 X149.474 Y117.264 E0.00863
G1 X148.933 Y117.615 E0.02020
G1 X148.933 Y109.096 E0.26710
G1 X148.179 Y109.096 E0.02365
G1 X148.179 Y118.105 E0.28246
G1 X147.425 Y118.494 E0.02661
G1 X147.425 Y109.096 E0.29466
