; generated by SuperSlicer 2.3.56 on 2021-06-25 at 11:39:28 UTC

; 

; external perimeters extrusion width = 0.45mm
; perimeters extrusion width = 0.45mm
; infill extrusion width = 0.45mm
; solid infill extrusion width = 0.45mm
; top infill extrusion width = 0.40mm
; first layer extrusion width = 0.42mm

; object:{"name":"contact","id":"contact.STL id:0 copy 0","object_center":[120.989580,105.739800,0.000000],"boundingbox_center":[120.989580,105.739800,3.000000],"boundingbox_size":[33.379915,13.998688,6.000000]}
; object:{"name":"contact","id":"contact.STL id:0 copy 1","object_center":[120.989580,85.741578,0.000000],"boundingbox_center":[120.989580,85.741578,3.000000],"boundingbox_size":[33.379915,13.998688,6.000000]}
; object:{"name":"contact","id":"contact.STL id:0 copy 2","object_center":[129.010619,124.258372,0.000000],"boundingbox_center":[129.010619,124.258372,3.000000],"boundingbox_size":[33.379915,13.998688,6.000000]}
; Total objects to print: 3
M486 T3
; plater:{"center":[125.000099,104.999975,0.000000],"boundingbox_center":[125.000099,104.999975,3.000000],"boundingbox_size":[41.400954,52.515482,6.000000]}

M73 P0 R18
M73 Q0 S19
;TYPE:Custom
M862.3 P "MK3S" ; printer model check
M862.1 P0.4 ; nozzle diameter check
M115 U3.9.3 ; tell printer latest fw version
G90 ; use absolute coordinates
M83 ; extruder relative mode
M104 S215 ; set extruder temp
M140 S60 ; set bed temp
M190 S60 ; wait for bed temp
M109 S215 ; wait for extruder temp
G28 W ; home all without mesh bed level
G80 ; mesh bed leveling

G92 E0.0
M221 S95

; Don't change E values below. Excessive value can damage the printer.

M107
G21 ; set units to millimeters
G90 ; use absolute coordinates
M83 ; use relative distances for extrusion
M900 K0.05 ; Filament gcode LA 1.5
M900 K30 ; Filament gcode LA 1.0
;LAYER_CHANGE
;Z:0.2
;HEIGHT:0.2
;BEFORE_LAYER_CHANGE
;0.2


G1 E-0.80000 F2100.000
G1 Z0.400000 F10800.000
;AFTER_LAYER_CHANGE
;0.2
G1 X104.036 Y80.447
G1 Z0.200000
G1 E0.80000 F2100.000
;TYPE:Skirt
;WIDTH:0.42
G1 F1200.000
G1 X104.949 Y79.381 E0.04401
G1 X106.014 Y78.472 E0.04389
G1 X107.210 Y77.738 E0.04401
G1 X108.502 Y77.200 E0.04389
G1 X109.863 Y76.869 E0.04389
G1 X111.269 Y76.754 E0.04424
G1 X137.654 Y78.513 E0.82913
G1 X138.108 Y78.605 E0.01453
G1 X138.533 Y78.791 E0.01453
G1 X138.909 Y79.062 E0.01453
G1 X139.221 Y79.409 E0.01464
G1 X139.447 Y79.801 E0.01418
G1 X139.589 Y80.234 E0.01430
G1 X147.630 Y118.856 E1.23694
M73 Q0 S18
G1 X147.641 Y124.186 E0.16711
G1 X147.540 Y124.619 E0.01396
G1 X147.351 Y125.027 E0.01407
G1 X147.086 Y125.384 E0.01396
G1 X146.754 Y125.681 E0.01396
G1 X146.078 Y126.011 E0.02360
G1 X121.882 Y132.874 E0.78857
G1 X121.012 Y133.087 E0.02807
G1 X120.138 Y133.210 E0.02768
G1 X119.103 Y133.244 E0.03248
G1 X117.768 Y133.112 E0.04206
G1 X116.798 Y132.886 E0.03122
G1 X115.545 Y132.416 E0.04195
G1 X114.663 Y131.946 E0.03135
G1 X113.573 Y131.170 E0.04194
G1 X112.847 Y130.494 E0.03111
G1 X112.001 Y129.476 E0.04149
G1 X111.491 Y128.673 E0.02985
G1 X111.081 Y127.850 E0.02882
G1 X103.033 Y109.269 E0.63489
G1 X102.724 Y108.433 E0.02795
G1 X102.491 Y107.532 E0.02916
G1 X102.354 Y106.616 E0.02905
G1 X102.311 Y105.724 E0.02802
G1 X102.312 Y85.651 E0.62937
G1 X102.430 Y84.287 E0.04293
G1 X102.751 Y82.965 E0.04264
G1 X103.302 Y81.639 E0.04503
G1 X104.005 Y80.498 E0.04201
; INIT printing object contact.STL id:0 copy 0
;WIPE_START
G1 F8640.000
G1 X104.949 Y79.381 E-0.33777
G1 X106.014 Y78.472 E-0.32324
G1 X106.379 Y78.248 E-0.09899
;WIPE_END
G1 E-0.04000 F2100.000
G1 Z1.000000 F10800.000
; printing object contact.STL id:0 copy 0
M486 S0
G1 X110.196 Y101.621
G1 Z0.200000
G1 E0.80000 F2100.000
;TYPE:Internal perimeter
G1 F1200.000
G1 X109.982 Y101.685 E0.00700
G1 X109.771 Y101.759 E0.00700
G1 X109.565 Y101.845 E0.00700
G1 X109.363 Y101.941 E0.00700
G1 X109.167 Y102.047 E0.00700
G1 X108.977 Y102.164 E0.00700
G1 X108.793 Y102.290 E0.00700
G1 X108.616 Y102.426 E0.00700
G1 X108.446 Y102.571 E0.00700
G1 X108.284 Y102.725 E0.00700
G1 X108.130 Y102.887 E0.00700
G1 X107.985 Y103.057 E0.00700
G1 X107.849 Y103.234 E0.00700
G1 X107.723 Y103.418 E0.00700
G1 X107.606 Y103.608 E0.00700
G1 X107.500 Y103.804 E0.00700
G1 X107.404 Y104.006 E0.00700
G1 X107.318 Y104.212 E0.00700
G1 X107.244 Y104.423 E0.00700
G1 X107.180 Y104.637 E0.00700
G1 X107.128 Y104.854 E0.00700
G1 X107.087 Y105.073 E0.00700
G1 X107.058 Y105.295 E0.00700
G1 X107.041 Y105.517 E0.00700
G1 X107.035 Y105.740 E0.00700
G1 X107.041 Y105.964 E0.00700
G1 X107.058 Y106.186 E0.00700
G1 X107.087 Y106.407 E0.00700
G1 X107.128 Y106.627 E0.00700
G1 X107.180 Y106.844 E0.00700
G1 X107.244 Y107.058 E0.00700
G1 X107.318 Y107.269 E0.00700
G1 X107.404 Y107.475 E0.00700
G1 X107.500 Y107.676 E0.00700
G1 X107.606 Y107.873 E0.00700
G1 X107.723 Y108.063 E0.00700
G1 X107.849 Y108.247 E0.00700
G1 X107.985 Y108.424 E0.00700
G1 X108.130 Y108.594 E0.00700
M73 Q1 S18
G1 X108.284 Y108.756 E0.00700
G1 X108.446 Y108.910 E0.00700
G1 X108.616 Y109.055 E0.00700
G1 X108.793 Y109.190 E0.00700
G1 X108.977 Y109.317 E0.00700
G1 X109.167 Y109.434 E0.00700
G1 X109.363 Y109.540 E0.00700
G1 X109.565 Y109.636 E0.00700
G1 X109.771 Y109.722 E0.00700
G1 X109.982 Y109.796 E0.00700
G1 X110.196 Y109.860 E0.00700
G1 X110.413 Y109.912 E0.00700
G1 X110.632 Y109.952 E0.00700
G1 X110.854 Y109.982 E0.00700
G1 X111.076 Y109.999 E0.00700
G1 X111.299 Y110.005 E0.00700
G1 X111.523 Y109.999 E0.00700
G1 X111.745 Y109.982 E0.00700
G1 X111.967 Y109.952 E0.00700
G1 X112.186 Y109.912 E0.00700
G1 X112.403 Y109.860 E0.00700
G1 X112.617 Y109.796 E0.00700
G1 X112.828 Y109.722 E0.00700
G1 X113.034 Y109.636 E0.00700
M73 P1 R18
G1 X113.236 Y109.540 E0.00700
G1 X113.432 Y109.434 E0.00700
G1 X113.622 Y109.317 E0.00700
G1 X113.806 Y109.190 E0.00700
G1 X113.983 Y109.055 E0.00700
G1 X114.153 Y108.910 E0.00700
G1 X114.315 Y108.756 E0.00700
G1 X114.469 Y108.594 E0.00700
G1 X114.614 Y108.424 E0.00700
G1 X114.750 Y108.247 E0.00700
G1 X114.876 Y108.063 E0.00700
G1 X114.993 Y107.873 E0.00700
G1 X115.099 Y107.676 E0.00700
G1 X115.195 Y107.475 E0.00700
G1 X115.281 Y107.269 E0.00700
G1 X115.355 Y107.058 E0.00700
G1 X115.419 Y106.844 E0.00700
G1 X115.471 Y106.627 E0.00700
G1 X115.512 Y106.408 E0.00700
G1 X115.541 Y106.186 E0.00700
G1 X115.558 Y105.964 E0.00700
G1 X115.564 Y105.740 E0.00700
G1 X115.558 Y105.517 E0.00700
G1 X115.541 Y105.295 E0.00700
G1 X115.512 Y105.073 E0.00700
G1 X115.471 Y104.854 E0.00700
G1 X115.419 Y104.637 E0.00700
G1 X115.355 Y104.423 E0.00700
G1 X115.281 Y104.212 E0.00700
G1 X115.195 Y104.006 E0.00700
G1 X115.099 Y103.804 E0.00700
G1 X114.993 Y103.608 E0.00700
G1 X114.876 Y103.418 E0.00700
G1 X114.750 Y103.234 E0.00700
G1 X114.614 Y103.057 E0.00700
G1 X114.469 Y102.887 E0.00700
G1 X114.315 Y102.725 E0.00700
G1 X114.153 Y102.571 E0.00700
G1 X113.983 Y102.426 E0.00700
G1 X113.806 Y102.290 E0.00700
G1 X113.622 Y102.164 E0.00700
G1 X113.432 Y102.047 E0.00700
G1 X113.236 Y101.941 E0.00700
G1 X113.034 Y101.845 E0.00700
G1 X112.828 Y101.759 E0.00700
G1 X112.617 Y101.685 E0.00700
G1 X112.403 Y101.621 E0.00700
G1 X112.186 Y101.569 E0.00700
G1 X111.967 Y101.528 E0.00700
G1 X111.745 Y101.499 E0.00700
G1 X111.523 Y101.482 E0.00700
G1 X111.299 Y101.476 E0.00700
G1 X111.076 Y101.482 E0.00700
G1 X110.854 Y101.499 E0.00700
G1 X110.632 Y101.528 E0.00700
G1 X110.413 Y101.569 E0.00700
G1 X110.254 Y101.607 E0.00512
G1 X110.342 Y101.974 F10800.000
G1 F1200.000
G1 X110.293 Y101.985 E0.00157
G1 X110.098 Y102.043 E0.00638
G1 X109.906 Y102.111 E0.00638
G1 X109.718 Y102.189 E0.00638
G1 X109.535 Y102.277 E0.00638
G1 X109.356 Y102.374 E0.00638
G1 X109.182 Y102.480 E0.00638
G1 X109.015 Y102.595 E0.00638
G1 X108.853 Y102.719 E0.00638
G1 X108.698 Y102.852 E0.00638
G1 X108.551 Y102.992 E0.00638
G1 X108.411 Y103.139 E0.00638
G1 X108.278 Y103.294 E0.00638
G1 X108.155 Y103.455 E0.00638
G1 X108.039 Y103.623 E0.00638
G1 X107.933 Y103.797 E0.00638
G1 X107.836 Y103.976 E0.00638
G1 X107.748 Y104.159 E0.00638
G1 X107.670 Y104.347 E0.00638
G1 X107.602 Y104.539 E0.00638
G1 X107.545 Y104.734 E0.00638
G1 X107.497 Y104.932 E0.00638
G1 X107.460 Y105.132 E0.00638
G1 X107.433 Y105.334 E0.00638
G1 X107.417 Y105.537 E0.00638
G1 X107.412 Y105.740 E0.00638
G1 X107.417 Y105.944 E0.00638
G1 X107.433 Y106.147 E0.00638
G1 X107.460 Y106.348 E0.00638
G1 X107.497 Y106.549 E0.00638
G1 X107.545 Y106.746 E0.00638
G1 X107.602 Y106.942 E0.00638
G1 X107.670 Y107.133 E0.00638
G1 X107.748 Y107.321 E0.00638
G1 X107.836 Y107.505 E0.00638
G1 X107.933 Y107.684 E0.00638
G1 X108.039 Y107.858 E0.00638
G1 X108.155 Y108.025 E0.00638
G1 X108.278 Y108.187 E0.00638
G1 X108.411 Y108.342 E0.00638
G1 X108.551 Y108.489 E0.00638
G1 X108.698 Y108.629 E0.00638
G1 X108.853 Y108.761 E0.00638
G1 X109.015 Y108.885 E0.00638
G1 X109.182 Y109.001 E0.00638
G1 X109.356 Y109.107 E0.00638
G1 X109.535 Y109.204 E0.00638
G1 X109.718 Y109.292 E0.00638
G1 X109.906 Y109.370 E0.00638
G1 X110.098 Y109.437 E0.00638
G1 X110.293 Y109.495 E0.00638
G1 X110.491 Y109.543 E0.00638
G1 X110.691 Y109.580 E0.00638
G1 X110.893 Y109.606 E0.00638
G1 X111.096 Y109.622 E0.00638
G1 X111.299 Y109.628 E0.00638
G1 X111.503 Y109.622 E0.00638
G1 X111.706 Y109.606 E0.00638
G1 X111.908 Y109.580 E0.00638
G1 X112.108 Y109.543 E0.00638
G1 X112.306 Y109.495 E0.00638
G1 X112.501 Y109.437 E0.00638
G1 X112.693 Y109.370 E0.00638
G1 X112.881 Y109.292 E0.00638
G1 X113.064 Y109.204 E0.00638
G1 X113.243 Y109.107 E0.00638
G1 X113.417 Y109.001 E0.00638
G1 X113.584 Y108.885 E0.00638
G1 X113.746 Y108.761 E0.00638
G1 X113.901 Y108.629 E0.00638
G1 X114.048 Y108.489 E0.00638
G1 X114.188 Y108.342 E0.00638
G1 X114.320 Y108.187 E0.00638
G1 X114.444 Y108.025 E0.00638
G1 X114.560 Y107.858 E0.00638
G1 X114.666 Y107.684 E0.00638
G1 X114.763 Y107.505 E0.00638
G1 X114.851 Y107.322 E0.00638
G1 X114.929 Y107.133 E0.00638
G1 X114.997 Y106.942 E0.00638
G1 X115.054 Y106.746 E0.00638
G1 X115.102 Y106.549 E0.00638
G1 X115.139 Y106.348 E0.00638
G1 X115.166 Y106.147 E0.00638
G1 X115.181 Y105.944 E0.00638
G1 X115.187 Y105.740 E0.00638
G1 X115.181 Y105.537 E0.00638
G1 X115.166 Y105.334 E0.00638
G1 X115.139 Y105.132 E0.00638
G1 X115.102 Y104.932 E0.00638
G1 X115.054 Y104.734 E0.00638
G1 X114.997 Y104.539 E0.00638
G1 X114.929 Y104.347 E0.00638
G1 X114.851 Y104.159 E0.00638
G1 X114.763 Y103.976 E0.00638
G1 X114.666 Y103.797 E0.00638
G1 X114.560 Y103.623 E0.00638
G1 X114.444 Y103.455 E0.00638
G1 X114.320 Y103.294 E0.00638
G1 X114.188 Y103.139 E0.00638
G1 X114.048 Y102.992 E0.00638
G1 X113.901 Y102.852 E0.00638
G1 X113.746 Y102.719 E0.00638
G1 X113.584 Y102.595 E0.00638
G1 X113.417 Y102.480 E0.00638
G1 X113.243 Y102.374 E0.00638
G1 X113.064 Y102.277 E0.00638
G1 X112.881 Y102.189 E0.00638
G1 X112.693 Y102.111 E0.00638
G1 X112.501 Y102.043 E0.00638
G1 X112.306 Y101.985 E0.00638
G1 X112.108 Y101.938 E0.00638
G1 X111.908 Y101.901 E0.00638
G1 X111.706 Y101.874 E0.00638
G1 X111.503 Y101.858 E0.00638
G1 X111.299 Y101.853 E0.00638
G1 X111.096 Y101.858 E0.00638
G1 X110.893 Y101.874 E0.00638
G1 X110.691 Y101.901 E0.00638
G1 X110.491 Y101.938 E0.00638
G1 X110.400 Y101.960 E0.00293
G1 X110.488 Y102.326 F10800.000
;TYPE:External perimeter
G1 F1200.000
G1 X110.391 Y102.350 E0.00314
G1 X110.215 Y102.402 E0.00576
G1 X110.042 Y102.463 E0.00576
G1 X109.872 Y102.534 E0.00576
G1 X109.706 Y102.613 E0.00576
G1 X109.544 Y102.701 E0.00576
G1 X109.388 Y102.797 E0.00576
G1 X109.236 Y102.901 E0.00576
G1 X109.090 Y103.012 E0.00576
G1 X108.951 Y103.132 E0.00576
G1 X108.817 Y103.258 E0.00576
G1 X108.691 Y103.392 E0.00576
G1 X108.572 Y103.531 E0.00576
G1 X108.460 Y103.677 E0.00576
G1 X108.356 Y103.829 E0.00576
G1 X108.260 Y103.985 E0.00576
G1 X108.172 Y104.147 E0.00576
G1 X108.093 Y104.313 E0.00576
G1 X108.022 Y104.482 E0.00576
G1 X107.961 Y104.656 E0.00576
G1 X107.909 Y104.832 E0.00576
G1 X107.866 Y105.011 E0.00576
G1 X107.833 Y105.191 E0.00576
G1 X107.809 Y105.373 E0.00576
G1 X107.794 Y105.557 E0.00576
G1 X107.789 Y105.740 E0.00576
G1 X107.794 Y105.924 E0.00576
G1 X107.809 Y106.107 E0.00576
G1 X107.833 Y106.289 E0.00576
G1 X107.866 Y106.470 E0.00576
G1 X107.909 Y106.649 E0.00576
G1 X107.961 Y106.825 E0.00576
G1 X108.022 Y106.998 E0.00576
G1 X108.093 Y107.168 E0.00576
G1 X108.172 Y107.334 E0.00576
G1 X108.260 Y107.495 E0.00576
G1 X108.356 Y107.652 E0.00576
G1 X108.460 Y107.804 E0.00576
G1 X108.572 Y107.949 E0.00576
G1 X108.691 Y108.089 E0.00576
G1 X108.817 Y108.222 E0.00576
G1 X108.951 Y108.349 E0.00576
G1 X109.090 Y108.468 E0.00576
G1 X109.236 Y108.580 E0.00576
G1 X109.388 Y108.684 E0.00576
G1 X109.544 Y108.780 E0.00576
G1 X109.706 Y108.868 E0.00576
G1 X109.872 Y108.947 E0.00576
G1 X110.042 Y109.017 E0.00576
G1 X110.215 Y109.079 E0.00576
G1 X110.391 Y109.131 E0.00576
G1 X110.570 Y109.174 E0.00576
G1 X110.750 Y109.207 E0.00576
G1 X110.933 Y109.231 E0.00576
G1 X111.116 Y109.246 E0.00576
G1 X111.299 Y109.251 E0.00576
G1 X111.483 Y109.246 E0.00576
G1 X111.666 Y109.231 E0.00576
G1 X111.849 Y109.207 E0.00576
G1 X112.029 Y109.174 E0.00576
G1 X112.208 Y109.131 E0.00576
G1 X112.384 Y109.079 E0.00576
G1 X112.557 Y109.017 E0.00576
G1 X112.727 Y108.947 E0.00576
G1 X112.893 Y108.868 E0.00576
G1 X113.055 Y108.780 E0.00576
G1 X113.211 Y108.684 E0.00576
G1 X113.363 Y108.580 E0.00576
G1 X113.508 Y108.468 E0.00576
G1 X113.648 Y108.349 E0.00576
G1 X113.781 Y108.222 E0.00576
G1 X113.908 Y108.089 E0.00576
G1 X114.027 Y107.949 E0.00576
G1 X114.139 Y107.804 E0.00576
G1 X114.243 Y107.652 E0.00576
G1 X114.339 Y107.495 E0.00576
G1 X114.427 Y107.334 E0.00576
G1 X114.506 Y107.168 E0.00576
G1 X114.576 Y106.998 E0.00576
G1 X114.638 Y106.825 E0.00576
G1 X114.690 Y106.649 E0.00576
G1 X114.733 Y106.470 E0.00576
G1 X114.766 Y106.289 E0.00576
G1 X114.790 Y106.107 E0.00576
G1 X114.805 Y105.924 E0.00576
G1 X114.810 Y105.740 E0.00576
G1 X114.805 Y105.557 E0.00576
G1 X114.790 Y105.373 E0.00576
G1 X114.766 Y105.191 E0.00576
G1 X114.733 Y105.011 E0.00576
G1 X114.690 Y104.832 E0.00576
G1 X114.638 Y104.656 E0.00576
G1 X114.576 Y104.482 E0.00576
G1 X114.506 Y104.313 E0.00576
G1 X114.427 Y104.147 E0.00576
G1 X114.339 Y103.985 E0.00576
G1 X114.243 Y103.829 E0.00576
G1 X114.139 Y103.677 E0.00576
G1 X114.027 Y103.531 E0.00576
G1 X113.908 Y103.392 E0.00576
G1 X113.781 Y103.258 E0.00576
G1 X113.648 Y103.132 E0.00576
G1 X113.508 Y103.012 E0.00576
G1 X113.363 Y102.901 E0.00576
G1 X113.211 Y102.797 E0.00576
G1 X113.055 Y102.701 E0.00576
G1 X112.893 Y102.613 E0.00576
G1 X112.727 Y102.534 E0.00576
G1 X112.557 Y102.463 E0.00576
G1 X112.384 Y102.402 E0.00576
G1 X112.208 Y102.350 E0.00576
G1 X112.029 Y102.307 E0.00576
G1 X111.849 Y102.273 E0.00576
G1 X111.666 Y102.249 E0.00576
G1 X111.483 Y102.235 E0.00576
G1 X111.299 Y102.230 E0.00576
G1 X111.116 Y102.235 E0.00576
G1 X110.933 Y102.249 E0.00576
G1 X110.750 Y102.273 E0.00576
G1 X110.570 Y102.307 E0.00576
G1 X110.547 Y102.312 E0.00074
G1 X110.419 Y102.254 F10800.000
;WIPE_START
G1 F8640.000
G1 X110.391 Y102.350 E-0.03700
G1 X110.215 Y102.402 E-0.04243
G1 X110.042 Y102.463 E-0.04243
G1 X109.872 Y102.534 E-0.04243
G1 X109.706 Y102.613 E-0.04243
G1 X109.544 Y102.701 E-0.04243
G1 X109.388 Y102.797 E-0.04243
G1 X109.236 Y102.901 E-0.04243
G1 X109.090 Y103.012 E-0.04243
G1 X108.951 Y103.132 E-0.04243
G1 X108.817 Y103.258 E-0.04243
G1 X108.691 Y103.392 E-0.04243
G1 X108.572 Y103.531 E-0.04243
G1 X108.460 Y103.677 E-0.04243
G1 X108.356 Y103.829 E-0.04243
G1 X108.260 Y103.985 E-0.04243
G1 X108.172 Y104.147 E-0.04243
G1 X108.093 Y104.313 E-0.04243
G1 X108.090 Y104.319 E-0.00164
;WIPE_END
G1 E-0.04000 F2100.000
G1 Z0.600000 F10800.000
G1 X117.139 Y104.426
G1 Z0.200000
G1 E0.80000 F2100.000
;TYPE:Internal perimeter
G1 F1200.000
G1 X117.132 Y105.919 E0.04679
G1 X117.115 Y106.221 E0.00951
G1 X117.082 Y106.523 E0.00951
G1 X117.034 Y106.822 E0.00951
G1 X116.970 Y107.118 E0.00951
G1 X116.891 Y107.411 E0.00951
G1 X116.796 Y107.699 E0.00951
G1 X116.687 Y107.982 E0.00951
G1 X116.563 Y108.259 E0.00951
G1 X116.425 Y108.529 E0.00951
G1 X116.274 Y108.792 E0.00951
G1 X116.108 Y109.046 E0.00951
G1 X115.930 Y109.291 E0.00951
G1 X115.740 Y109.527 E0.00951
G1 X115.537 Y109.752 E0.00951
G1 X115.323 Y109.967 E0.00951
G1 X115.098 Y110.170 E0.00951
