; generated by SuperSlicer 2.3.56 on 2021-06-25 at 11:45:28 UTC

; 

; external perimeters extrusion width = 0.45mm
; perimeters extrusion width = 0.45mm
; infill extrusion width = 0.45mm
; solid infill extrusion width = 0.45mm
; top infill extrusion width = 0.40mm
; first layer extrusion width = 0.42mm

; object:{"name":"backfinger","id":"backfinger.STL id:0 copy 0","object_center":[125.000000,105.000000,0.000000],"boundingbox_center":[125.000000,105.000000,4.678517],"boundingbox_size":[105.000000,26.709999,9.357035]}
; Total objects to print: 1
M486 T1
; plater:{"center":[125.000000,105.000000,0.000000],"boundingbox_center":[125.000000,105.000000,4.678517],"boundingbox_size":[105.000000,26.709999,9.357035]}

M73 P0 R44
M73 Q0 S44
;TYPE:Custom
M862.3 P "MK3S" ; printer model check
M862.1 P0.4 ; nozzle diameter check
M115 U3.9.3 ; tell printer latest fw version
G90 ; use absolute coordinates
M83 ; extruder relative mode
M104 S215 ; set extruder temp
M140 S60 ; set bed temp
M190 S60 ; wait for bed temp
M109 S215 ; wait for extruder temp
G28 W ; home all without mesh bed level
G80 ; mesh bed leveling

G92 E0.0
M221 S95

; Don't change E values below. Excessive value can damage the printer.

M107
G21 ; set units to millimeters
G90 ; use absolute coordinates
M83 ; use relative distances for extrusion
M900 K0.05 ; Filament gcode LA 1.5
M900 K30 ; Filament gcode LA 1.0
M107
;LAYER_CHANGE
;Z:0.2
;HEIGHT:0.2
;BEFORE_LAYER_CHANGE
;0.2


G1 E-0.80000 F2100.000
G1 Z0.400000 F10800.000
;AFTER_LAYER_CHANGE
;0.2
G1 X69.660 Y93.813
G1 Z0.200000
G1 E0.80000 F2100.000
;TYPE:Skirt
;WIDTH:0.42
G1 F1200.000
M204 P1000
G1 X70.378 Y93.411 E0.02580
G1 X71.144 Y93.109 E0.02580
G1 X72.064 Y92.891 E0.02965
G1 X73.000 Y92.815 E0.02945
G1 X129.577 Y92.815 E1.77393
G1 X177.258 Y94.517 E1.49596
M73 P0 R43
G1 X178.155 Y94.620 E0.02830
G1 X179.033 Y94.855 E0.02849
G1 X179.752 Y95.157 E0.02446
G1 X180.427 Y95.547 E0.02446
G1 X181.048 Y96.019 E0.02446
G1 X181.605 Y96.566 E0.02446
G1 X182.088 Y97.178 E0.02446
G1 X182.491 Y97.846 E0.02446
G1 X182.806 Y98.559 E0.02446
G1 X183.030 Y99.306 E0.02446
G1 X183.188 Y100.604 E0.04097
G1 X183.188 Y109.398 E0.27576
G1 X183.094 Y110.376 E0.03080
G1 X182.845 Y111.333 E0.03099
G1 X182.501 Y112.134 E0.02734
G1 X182.048 Y112.879 E0.02734
G1 X181.495 Y113.553 E0.02734
G1 X180.858 Y114.139 E0.02715
G1 X180.145 Y114.630 E0.02715
G1 X179.364 Y115.019 E0.02734
G1 X178.537 Y115.295 E0.02734
G1 X177.679 Y115.451 E0.02734
G1 X129.651 Y117.184 E1.50687
G1 X72.599 Y117.170 E1.78882
G1 X71.681 Y117.036 E0.02907
G1 X70.794 Y116.767 E0.02907
G1 X69.957 Y116.369 E0.02907
G1 X69.189 Y115.850 E0.02907
G1 X68.507 Y115.221 E0.02907
G1 X67.930 Y114.503 E0.02888
G1 X67.471 Y113.719 E0.02849
G1 X67.106 Y112.820 E0.03043
G1 X66.891 Y111.924 E0.02888
G1 X66.812 Y111.000 E0.02907
G1 X66.812 Y99.006 E0.37608
G1 X66.938 Y97.822 E0.03733
G1 X67.161 Y97.017 E0.02619
G1 X67.497 Y96.230 E0.02684
G1 X67.910 Y95.525 E0.02561
G1 X68.413 Y94.882 E0.02561
G1 X69.001 Y94.306 E0.02580
G1 X69.612 Y93.849 E0.02392
;WIPE_START
G1 F8640.000
G1 X70.378 Y93.411 E-0.20376
G1 X71.144 Y93.109 E-0.19002
G1 X72.064 Y92.891 E-0.21833
G1 X72.702 Y92.839 E-0.14789
;WIPE_END
G1 E-0.04000 F2100.000
G1 Z1.000000 F10800.000
G1 X73.338 Y95.421
G1 Z0.200000
G1 E0.80000 F2100.000
G1 F1200.000
G1 X72.882 Y95.421 E0.01429
G1 X72.552 Y95.447 E0.01038
G1 X72.162 Y95.526 E0.01248
G1 X71.571 Y95.747 E0.01979
G1 X71.204 Y95.946 E0.01308
G1 X70.824 Y96.230 E0.01487
G1 X70.256 Y96.795 E0.02513
G1 X69.942 Y97.209 E0.01630
G1 X69.763 Y97.533 E0.01160
G1 X69.562 Y98.031 E0.01683
G1 X69.498 Y98.302 E0.00872
G1 X69.418 Y98.914 E0.01937
G1 X69.418 Y99.093 E0.00562
;WIPE_START
G1 F8640.000
G1 X69.418 Y98.914 E-0.04138
G1 X69.498 Y98.302 E-0.14262
G1 X69.562 Y98.031 E-0.06425
G1 X69.763 Y97.533 E-0.12394
G1 X69.942 Y97.209 E-0.08541
G1 X70.256 Y96.795 E-0.12006
G1 X70.816 Y96.238 E-0.18233
;WIPE_END
G1 E-0.04000 F2100.000
G1 Z0.600000 F10800.000
G1 X69.795 Y100.582
G1 Z0.200000
G1 E0.80000 F2100.000
G1 F1200.000
G1 X69.795 Y98.887 E0.05314
G1 X69.821 Y98.574 E0.00986
G1 X69.922 Y98.145 E0.01382
G1 X70.104 Y97.693 E0.01527
G1 X70.256 Y97.417 E0.00989
G1 X70.534 Y97.049 E0.01446
G1 X71.035 Y96.547 E0.02223
G1 X71.291 Y96.342 E0.01029
G1 X71.693 Y96.106 E0.01461
G1 X72.267 Y95.888 E0.01924
G1 X72.606 Y95.820 E0.01085
G1 X72.884 Y95.798 E0.00874
G1 X74.677 Y95.798 E0.05623
G1 X75.244 Y96.176 E0.02134
G1 X72.884 Y96.176 E0.07397
G1 X72.661 Y96.193 E0.00703
G1 X72.370 Y96.251 E0.00929
G1 X71.852 Y96.448 E0.01739
G1 X71.499 Y96.656 E0.01283
G1 X71.291 Y96.825 E0.00841
G1 X70.790 Y97.328 E0.02227
G1 X70.569 Y97.628 E0.01168
G1 X70.441 Y97.864 E0.00841
G1 X70.279 Y98.267 E0.01363
G1 X70.189 Y98.667 E0.01283
G1 X70.172 Y98.888 E0.00696
G1 X70.172 Y101.181 E0.07189
G1 X70.549 Y101.628 E0.01835
G1 X70.549 Y98.889 E0.08588
G1 X70.562 Y98.723 E0.00522
G1 X70.638 Y98.380 E0.01102
G1 X70.785 Y98.018 E0.01225
G1 X70.884 Y97.835 E0.00653
G1 X71.070 Y97.581 E0.00987
G1 X71.540 Y97.108 E0.02089
G1 X71.708 Y96.970 E0.00681
G1 X72.010 Y96.790 E0.01102
G1 X72.465 Y96.616 E0.01529
G1 X72.885 Y96.553 E0.01333
G1 X75.676 Y96.553 E0.08748
G1 X75.965 Y96.930 E0.01490
G1 X72.888 Y96.930 E0.09648
G1 X72.586 Y96.974 E0.00957
G1 X72.169 Y97.132 E0.01398
G1 X71.923 Y97.280 E0.00899
G1 X71.370 Y97.812 E0.02406
G1 X71.199 Y98.042 E0.00899
G1 X71.129 Y98.172 E0.00464
G1 X70.999 Y98.492 E0.01080
G1 X70.935 Y98.781 E0.00928
G1 X70.932 Y101.923 E0.09851
G1 X71.304 Y102.177 E0.01411
G1 X71.304 Y98.878 E0.10345
G1 X71.364 Y98.588 E0.00927
G1 X71.479 Y98.313 E0.00935
G1 X71.634 Y98.082 E0.00870
G1 X72.136 Y97.591 E0.02204
G1 X72.326 Y97.475 E0.00696
G1 X72.673 Y97.341 E0.01167
G1 X72.892 Y97.307 E0.00696
G1 X76.214 Y97.307 E0.10414
G1 X76.370 Y97.684 E0.01280
G1 X72.902 Y97.684 E0.10875
G1 X72.756 Y97.709 E0.00465
G1 X72.479 Y97.820 E0.00935
G1 X72.353 Y97.899 E0.00465
G1 X71.919 Y98.328 E0.01914
G1 X71.816 Y98.482 E0.00580
G1 X71.716 Y98.724 E0.00819
G1 X71.680 Y98.905 E0.00580
G1 X71.680 Y102.333 E0.10747
G1 X72.057 Y102.489 E0.01280
G1 X72.057 Y98.924 E0.11179
G1 X72.158 Y98.644 E0.00933
G1 X72.199 Y98.582 E0.00233
G1 X72.578 Y98.203 E0.01683
G1 X72.847 Y98.075 E0.00933
G1 X72.920 Y98.061 E0.00233
G1 X76.526 Y98.061 E0.11307
G1 X76.577 Y98.438 E0.01192
G1 X72.957 Y98.438 E0.11350
G1 X72.819 Y98.495 E0.00470
G1 X72.492 Y98.822 E0.01450
G1 X72.434 Y98.961 E0.00470
G1 X72.434 Y102.548 E0.11248
G1 X72.811 Y102.598 E0.01193
G1 X72.811 Y99.036 E0.11168
G1 X73.032 Y98.815 E0.00979
G1 X76.627 Y98.815 E0.11271
;WIPE_START
G1 F8640.000
G1 X73.336 Y98.815 E-0.76000
;WIPE_END
G1 E-0.04000 F2100.000
G1 Z0.600000 F10800.000
G1 X76.627 Y111.185
G1 Z0.200000
G1 E0.80000 F2100.000
G1 F1200.000
G1 X73.032 Y111.185 E0.11271
G1 X72.811 Y110.964 E0.00979
G1 X72.811 Y107.402 E0.11168
G1 X72.434 Y107.452 E0.01193
G1 X72.434 Y111.039 E0.11248
G1 X72.492 Y111.178 E0.00470
G1 X72.819 Y111.505 E0.01450
G1 X72.957 Y111.562 E0.00470
G1 X76.577 Y111.562 E0.11350
G1 X76.526 Y111.939 E0.01193
G1 X72.920 Y111.939 E0.11307
G1 X72.640 Y111.839 E0.00933
G1 X72.578 Y111.797 E0.00233
G1 X72.199 Y111.418 E0.01683
G1 X72.072 Y111.149 E0.00933
G1 X72.057 Y111.076 E0.00233
G1 X72.057 Y107.511 E0.11179
G1 X71.680 Y107.667 E0.01280
G1 X71.680 Y111.095 E0.10747
G1 X71.706 Y111.241 E0.00465
G1 X71.816 Y111.518 E0.00935
G1 X71.896 Y111.643 E0.00465
G1 X72.325 Y112.077 E0.01914
G1 X72.479 Y112.180 E0.00580
G1 X72.720 Y112.280 E0.00819
G1 X72.902 Y112.316 E0.00580
G1 X76.370 Y112.316 E0.10875
G1 X76.214 Y112.693 E0.01280
G1 X72.892 Y112.693 E0.10414
G1 X72.584 Y112.632 E0.00985
G1 X72.309 Y112.517 E0.00935
G1 X72.078 Y112.363 E0.00870
G1 X71.587 Y111.860 E0.02204
G1 X71.471 Y111.670 E0.00696
G1 X71.338 Y111.323 E0.01167
G1 X71.303 Y111.104 E0.00696
G1 X71.303 Y107.823 E0.10287
G1 X70.928 Y108.081 E0.01427
G1 X70.926 Y111.109 E0.09494
G1 X70.971 Y111.411 E0.00957
G1 X71.129 Y111.828 E0.01398
G1 X71.276 Y112.073 E0.00899
G1 X71.376 Y112.195 E0.00493
G1 X71.829 Y112.645 E0.02002
G1 X72.078 Y112.821 E0.00957
G1 X72.444 Y112.982 E0.01254
G1 X72.595 Y113.028 E0.00493
G1 X72.879 Y113.070 E0.00899
G1 X75.965 Y113.070 E0.09678
G1 X75.676 Y113.447 E0.01490
G1 X72.867 Y113.447 E0.08807
G1 X72.519 Y113.397 E0.01102
G1 X72.306 Y113.333 E0.00696
G1 X71.894 Y113.150 E0.01413
G1 X71.591 Y112.938 E0.01160
G1 X71.105 Y112.457 E0.02147
G1 X70.967 Y112.289 E0.00681
G1 X70.787 Y111.987 E0.01102
G1 X70.612 Y111.531 E0.01529
G1 X70.549 Y111.111 E0.01333
G1 X70.549 Y108.372 E0.08588
G1 X70.172 Y108.819 E0.01835
G1 X70.172 Y111.112 E0.07189
G1 X70.189 Y111.336 E0.00703
G1 X70.247 Y111.626 E0.00929
G1 X70.445 Y112.147 E0.01746
G1 X70.656 Y112.503 E0.01298
G1 X70.832 Y112.717 E0.00870
G1 X71.347 Y113.226 E0.02270
G1 X71.712 Y113.480 E0.01392
G1 X72.168 Y113.684 E0.01565
G1 X72.442 Y113.766 E0.00899
G1 X72.847 Y113.824 E0.01283
G1 X75.245 Y113.824 E0.07517
G1 X74.680 Y114.200 E0.02129
G1 X72.832 Y114.200 E0.05795
G1 X72.366 Y114.136 E0.01475
G1 X72.029 Y114.034 E0.01102
G1 X71.525 Y113.808 E0.01732
G1 X71.110 Y113.520 E0.01584
G1 X70.548 Y112.965 E0.02477
G1 X70.341 Y112.710 E0.01029
G1 X70.102 Y112.303 E0.01479
G1 X69.885 Y111.730 E0.01924
G1 X69.816 Y111.390 E0.01085
G1 X69.795 Y111.114 E0.00870
G1 X69.795 Y109.418 E0.05317
;WIPE_START
G1 F8640.000
G1 X69.795 Y111.114 E-0.39158
G1 X69.816 Y111.390 E-0.06409
G1 X69.885 Y111.730 E-0.07988
G1 X70.102 Y112.303 E-0.14172
G1 X70.284 Y112.612 E-0.08273
;WIPE_END
G1 E-0.04000 F2100.000
G1 Z0.600000 F10800.000
G1 X69.418 Y110.907
G1 Z0.200000
G1 E0.80000 F2100.000
G1 F1200.000
G1 X69.418 Y111.086 E0.00562
G1 X69.505 Y111.751 E0.02103
G1 X69.522 Y111.834 E0.00267
G1 X69.600 Y112.076 E0.00794
G1 X69.760 Y112.462 E0.01313
G1 X70.029 Y112.922 E0.01670
G1 X70.273 Y113.224 E0.01218
G1 X70.870 Y113.810 E0.02621
G1 X71.340 Y114.136 E0.01794
G1 X71.891 Y114.385 E0.01895
G1 X72.288 Y114.505 E0.01301
G1 X72.810 Y114.577 E0.01652
G1 X73.351 Y114.577 E0.01695
;WIPE_START
G1 F8640.000
G1 X72.810 Y114.577 E-0.12482
G1 X72.288 Y114.505 E-0.12166
G1 X71.891 Y114.385 E-0.09584
G1 X71.340 Y114.136 E-0.13957
G1 X70.870 Y113.810 E-0.13214
G1 X70.419 Y113.367 E-0.14597
;WIPE_END
G1 E-0.04000 F2100.000
G1 Z0.600000 F10800.000
G1 X173.402 Y109.489
M73 Q1 S44
G1 Z0.200000
G1 E0.80000 F2100.000
G1 F1200.000
G1 X176.968 Y109.489 E0.11180
M73 P1 R43
G1 X177.189 Y109.268 E0.00979
G1 X177.189 Y107.132 E0.06695
G1 X176.968 Y106.911 E0.00979
G1 X173.402 Y106.909 E0.11179
G1 X173.452 Y106.532 E0.01191
G1 X177.043 Y106.534 E0.11259
G1 X177.181 Y106.592 E0.00470
G1 X177.508 Y106.919 E0.01450
G1 X177.566 Y107.057 E0.00470
G1 X177.566 Y109.343 E0.07166
G1 X177.508 Y109.481 E0.00470
G1 X177.181 Y109.808 E0.01450
G1 X177.043 Y109.866 E0.00470
G1 X173.452 Y109.866 E0.11260
G1 X173.503 Y110.243 E0.01193
G1 X177.080 Y110.243 E0.11216
G1 X177.360 Y110.142 E0.00933
G1 X177.422 Y110.101 E0.00233
G1 X177.801 Y109.722 E0.01683
G1 X177.928 Y109.453 E0.00933
G1 X177.943 Y109.380 E0.00233
G1 X177.943 Y107.020 E0.07398
G1 X177.928 Y106.947 E0.00233
G1 X177.801 Y106.678 E0.00933
G1 X177.422 Y106.299 E0.01683
G1 X177.153 Y106.172 E0.00933
G1 X177.080 Y106.157 E0.00233
G1 X173.503 Y106.157 E0.11215
G1 X173.659 Y105.780 E0.01279
G1 X177.098 Y105.780 E0.10784
G1 X177.244 Y105.806 E0.00465
G1 X177.521 Y105.916 E0.00935
G1 X177.675 Y106.019 E0.00580
G1 X178.104 Y106.453 E0.01914
G1 X178.184 Y106.579 E0.00465
G1 X178.294 Y106.856 E0.00935
G1 X178.320 Y107.002 E0.00465
G1 X178.320 Y109.398 E0.07515
G1 X178.294 Y109.544 E0.00465
G1 X178.184 Y109.821 E0.00935
G1 X178.104 Y109.947 E0.00465
G1 X177.675 Y110.381 E0.01914
G1 X177.521 Y110.484 E0.00580
G1 X177.280 Y110.584 E0.00819
G1 X177.098 Y110.620 E0.00580
G1 X173.659 Y110.620 E0.10784
G1 X173.815 Y110.997 E0.01280
G1 X177.108 Y110.997 E0.10324
G1 X177.416 Y110.936 E0.00985
G1 X177.691 Y110.821 E0.00935
G1 X177.922 Y110.666 E0.00870
G1 X178.413 Y110.164 E0.02204
G1 X178.529 Y109.974 E0.00696
G1 X178.658 Y109.645 E0.01109
G1 X178.697 Y109.408 E0.00754
G1 X178.697 Y106.992 E0.07573
G1 X178.658 Y106.755 E0.00754
G1 X178.521 Y106.409 E0.01167
G1 X178.354 Y106.165 E0.00927
G1 X177.864 Y105.687 E0.02146
G1 X177.691 Y105.579 E0.00639
G1 X177.398 Y105.458 E0.00993
G1 X177.108 Y105.403 E0.00927
G1 X173.815 Y105.403 E0.10323
;WIPE_START
G1 F8640.000
G1 X177.107 Y105.403 E-0.76000
;WIPE_END
G1 E-0.04000 F2100.000
G1 Z0.600000 F10800.000
G1 X173.402 Y103.091
G1 Z0.200000
G1 E0.80000 F2100.000
G1 F1200.000
G1 X176.968 Y103.089 E0.11179
G1 X177.189 Y102.868 E0.00979
G1 X177.189 Y100.732 E0.06695
G1 X176.968 Y100.511 E0.00979
G1 X173.402 Y100.511 E0.11180
G1 X173.452 Y100.134 E0.01193
G1 X177.043 Y100.134 E0.11260
G1 X177.181 Y100.192 E0.00470
G1 X177.508 Y100.519 E0.01450
G1 X177.566 Y100.657 E0.00470
G1 X177.566 Y102.943 E0.07166
G1 X177.508 Y103.081 E0.00470
G1 X177.181 Y103.408 E0.01450
G1 X177.043 Y103.466 E0.00470
G1 X173.452 Y103.468 E0.11259
G1 X173.503 Y103.844 E0.01192
G1 X177.080 Y103.843 E0.11214
G1 X177.153 Y103.828 E0.00233
G1 X177.422 Y103.701 E0.00933
G1 X177.801 Y103.322 E0.01683
G1 X177.928 Y103.053 E0.00933
G1 X177.943 Y102.980 E0.00233
G1 X177.943 Y100.620 E0.07398
G1 X177.842 Y100.340 E0.00933
G1 X177.801 Y100.278 E0.00233
G1 X177.422 Y99.899 E0.01683
G1 X177.153 Y99.772 E0.00933
G1 X177.080 Y99.757 E0.00233
G1 X173.503 Y99.757 E0.11216
G1 X173.659 Y99.380 E0.01280
G1 X177.098 Y99.380 E0.10784
G1 X177.244 Y99.406 E0.00465
G1 X177.521 Y99.516 E0.00935
G1 X177.647 Y99.596 E0.00465
G1 X178.081 Y100.025 E0.01914
G1 X178.184 Y100.179 E0.00580
G1 X178.284 Y100.420 E0.00819
G1 X178.320 Y100.602 E0.00580
G1 X178.320 Y102.998 E0.07515
G1 X178.294 Y103.144 E0.00465
G1 X178.184 Y103.421 E0.00935
G1 X178.081 Y103.575 E0.00580
G1 X177.647 Y104.004 E0.01914
G1 X177.521 Y104.084 E0.00465
G1 X177.280 Y104.184 E0.00819
G1 X177.098 Y104.220 E0.00580
G1 X173.659 Y104.220 E0.10784
G1 X173.815 Y104.597 E0.01279
G1 X177.108 Y104.597 E0.10323
G1 X177.345 Y104.558 E0.00754
G1 X177.674 Y104.429 E0.01109
G1 X177.922 Y104.266 E0.00927
G1 X178.366 Y103.822 E0.01973
G1 X178.521 Y103.591 E0.00870
G1 X178.658 Y103.245 E0.01167
G1 X178.697 Y103.008 E0.00754
G1 X178.696 Y100.574 E0.07631
G1 X178.636 Y100.284 E0.00927
G1 X178.521 Y100.009 E0.00935
G1 X178.366 Y99.778 E0.00870
G1 X177.864 Y99.287 E0.02204
G1 X177.674 Y99.171 E0.00696
G1 X177.345 Y99.042 E0.01109
G1 X177.108 Y99.003 E0.00754
G1 X173.815 Y99.003 E0.10324
G1 X174.064 Y98.626 E0.01417
G1 X177.112 Y98.626 E0.09558
G1 X177.441 Y98.677 E0.01044
G1 X177.831 Y98.829 E0.01312
G1 X178.085 Y98.982 E0.00928
G1 X178.649 Y99.529 E0.02464
G1 X178.825 Y99.778 E0.00957
G1 X178.986 Y100.144 E0.01254
G1 X179.031 Y100.295 E0.00493
G1 X179.072 Y100.551 E0.00813
G1 X179.074 Y103.012 E0.07718
G1 X179.020 Y103.350 E0.01072
G1 X178.855 Y103.765 E0.01399
G1 X178.655 Y104.064 E0.01130
G1 X178.164 Y104.555 E0.02176
G1 X177.831 Y104.771 E0.01245
G1 X177.450 Y104.920 E0.01283
G1 X177.112 Y104.974 E0.01072
G1 X174.064 Y104.974 E0.09558
G1 X174.064 Y105.026 E0.00163
G1 X177.112 Y105.026 E0.09558
G1 X177.269 Y105.041 E0.00493
G1 X177.512 Y105.099 E0.00784
G1 X177.922 Y105.275 E0.01399
G1 X178.199 Y105.476 E0.01073
G1 X178.718 Y106.015 E0.02348
G1 X178.859 Y106.244 E0.00842
G1 X179.001 Y106.588 E0.01167
G1 X179.059 Y106.831 E0.00784
G1 X179.074 Y106.988 E0.00493
G1 X179.074 Y109.412 E0.07602
G1 X179.023 Y109.741 E0.01044
G1 X178.871 Y110.131 E0.01312
G1 X178.718 Y110.385 E0.00928
G1 X178.164 Y110.955 E0.02493
G1 X177.922 Y111.125 E0.00928
G1 X177.556 Y111.286 E0.01254
G1 X177.405 Y111.331 E0.00493
G1 X177.121 Y111.374 E0.00899
G1 X174.064 Y111.374 E0.09587
G1 X174.351 Y111.749 E0.01482
G1 X177.175 Y111.749 E0.08852
G1 X177.485 Y111.700 E0.00987
G1 X177.698 Y111.635 E0.00696
G1 X178.106 Y111.454 E0.01399
G1 X178.419 Y111.233 E0.01204
G1 X178.895 Y110.760 E0.02103
G1 X179.033 Y110.592 E0.00681
G1 X179.213 Y110.290 E0.01102
G1 X179.387 Y109.839 E0.01515
G1 X179.451 Y109.415 E0.01347
G1 X179.451 Y106.981 E0.07631
G1 X179.396 Y106.596 E0.01218
G1 X179.213 Y106.110 E0.01630
G1 X179.003 Y105.767 E0.01261
G1 X178.450 Y105.195 E0.02494
