; generated by SuperSlicer 2.3.55 on 2021-06-22 at 17:41:05 UTC

; 

; external perimeters extrusion width = 0.45mm
; perimeters extrusion width = 0.45mm
; infill extrusion width = 0.45mm
; solid infill extrusion width = 0.45mm
; top infill extrusion width = 0.40mm
; support material extrusion width = 0.35mm
; first layer extrusion width = 0.42mm

; object:{"name":"backfinger","id":"backfinger.STL id:0 copy 0","object_center":[125.000000,105.000000,0.000000],"boundingbox_center":[125.000000,105.000000,4.678517],"boundingbox_size":[105.000000,26.709999,9.357035]}
; Total objects to print: 1
M486 T1
; plater:{"center":[125.000000,105.000000,0.000000],"boundingbox_center":[125.000000,105.000000,4.678517],"boundingbox_size":[105.000000,26.709999,9.357035]}

M73 P0 R40
M73 Q0 S42
;TYPE:Custom
M862.3 P "MK3S" ; printer model check
M862.1 P0.4 ; nozzle diameter check
M115 U3.9.2 ; tell printer latest fw version
G90 ; use absolute coordinates
M83 ; extruder relative mode
M104 S215 ; set extruder temp
M140 S60 ; set bed temp
M190 S60 ; wait for bed temp
M109 S215 ; wait for extruder temp
G28 W ; home all without mesh bed level
G80 ; mesh bed leveling
G1 Y-3.0 F1000.0 ; go outside print area
G92 E0.0
G1 X60.0 E9.0 F1000.0 ; intro line
G1 X100.0 E12.5 F1000.0 ; intro line
G92 E0.0
M221 S95

; Don't change E values below. Excessive value can damage the printer.

M107
G21 ; set units to millimeters
G90 ; use absolute coordinates
M83 ; use relative distances for extrusion
M900 K0.05 ; Filament gcode LA 1.5
M900 K30 ; Filament gcode LA 1.0
M107
;LAYER_CHANGE
;Z:0.2
;HEIGHT:0.2
;BEFORE_LAYER_CHANGE
;0.2


G1 E-0.80000 F2100.000
G1 Z0.400000 F10800.000
;AFTER_LAYER_CHANGE
;0.2
G1 X68.895 Y92.834
G1 Z0.200000
G1 E0.80000 F2100.000
;TYPE:Skirt
;WIDTH:0.42
G1 F1200.000
M204 P1000
G1 X69.708 Y92.363 E0.02947
G1 X70.582 Y91.999 E0.02968
G1 X71.704 Y91.715 E0.03631
G1 X72.851 Y91.615 E0.03610
G1 X129.660 Y91.615 E1.78120
M73 Q0 S41
G1 X177.410 Y93.318 E1.49810
G1 X178.533 Y93.456 E0.03548
G1 X179.621 Y93.768 E0.03548
G1 X180.442 Y94.136 E0.02823
G1 X181.211 Y94.603 E0.02823
G1 X181.901 Y95.150 E0.02760
G1 X182.583 Y95.835 E0.03029
G1 X183.125 Y96.529 E0.02760
G1 X183.581 Y97.290 E0.02781
G1 X183.938 Y98.095 E0.02760
G1 X184.194 Y98.937 E0.02760
G1 X184.387 Y100.472 E0.04850
G1 X184.387 Y109.546 E0.28450
G1 X184.261 Y110.750 E0.03796
G1 X183.934 Y111.916 E0.03796
G1 X183.520 Y112.825 E0.03134
G1 X182.984 Y113.669 E0.03134
G1 X182.359 Y114.406 E0.03030
G1 X181.555 Y115.142 E0.03418
G1 X180.741 Y115.698 E0.03092
G1 X179.858 Y116.138 E0.03092
G1 X178.924 Y116.453 E0.03092
G1 X177.955 Y116.638 E0.03092
G1 X129.738 Y118.384 E1.51278
G1 X72.324 Y118.362 E1.80018
G1 X71.265 Y118.196 E0.03361
G1 X70.248 Y117.878 E0.03341
G1 X69.284 Y117.409 E0.03361
G1 X68.406 Y116.807 E0.03341
G1 X67.630 Y116.086 E0.03320
G1 X66.973 Y115.264 E0.03299
G1 X66.460 Y114.391 E0.03175
G1 X65.996 Y113.294 E0.03733
G1 X65.717 Y112.204 E0.03527
G1 X65.612 Y111.078 E0.03548
G1 X65.612 Y98.938 E0.38064
G1 X65.772 Y97.512 E0.04499
G1 X66.041 Y96.577 E0.03051
G1 X66.465 Y95.600 E0.03340
G1 X66.923 Y94.809 E0.02864
G1 X67.483 Y94.079 E0.02885
G1 X68.150 Y93.408 E0.02968
G1 X68.847 Y92.871 E0.02759
;WIPE_START
G1 F8640.000
G1 X69.708 Y92.363 E-0.23077
G1 X70.582 Y91.999 E-0.21856
G1 X71.704 Y91.715 E-0.26737
G1 X71.891 Y91.699 E-0.04331
;WIPE_END
G1 E-0.04000 F2100.000
G1 Z1.000000 F10800.000
G1 X74.080 Y93.336
G1 Z0.200000
G1 E0.80000 F2100.000
G1 F1200.000
G1 X72.389 Y93.357 E0.05301
G1 X71.266 Y93.597 E0.03600
G1 X70.223 Y94.069 E0.03591
G1 X69.209 Y94.791 E0.03901
G1 X68.801 Y95.201 E0.01814
G1 X68.361 Y95.755 E0.02219
G1 X68.002 Y96.368 E0.02229
G1 X67.647 Y97.196 E0.02822
G1 X67.428 Y98.022 E0.02681
G1 X67.332 Y99.224 E0.03781
;WIPE_START
G1 F8640.000
G1 X67.428 Y98.022 E-0.27842
G1 X67.647 Y97.196 E-0.19747
G1 X68.002 Y96.368 E-0.20785
G1 X68.169 Y96.083 E-0.07626
;WIPE_END
G1 E-0.04000 F2100.000
G1 Z0.600000 F10800.000
G1 X67.710 Y100.840
G1 Z0.200000
G1 E0.80000 F2100.000
G1 F1200.000
G1 X67.729 Y98.582 E0.07081
G1 X67.883 Y97.714 E0.02765
G1 X68.306 Y96.608 E0.03712
G1 X68.557 Y96.145 E0.01653
G1 X68.937 Y95.621 E0.02028
G1 X69.387 Y95.138 E0.02071
G1 X69.912 Y94.717 E0.02108
G1 X70.678 Y94.246 E0.02822
G1 X71.402 Y93.949 E0.02454
G1 X72.077 Y93.780 E0.02182
G1 X72.792 Y93.713 E0.02250
G1 X75.178 Y93.713 E0.07482
;WIPE_START
G1 F8640.000
G1 X72.792 Y93.713 E-0.55101
G1 X72.077 Y93.780 E-0.16566
G1 X71.895 Y93.825 E-0.04333
;WIPE_END
G1 E-0.04000 F2100.000
G1 Z0.600000 F10800.000
G1 X78.498 Y98.615
G1 Z0.200000
G1 E0.80000 F2100.000
G1 F1200.000
G1 X72.911 Y98.615 E0.17519
G1 X72.724 Y98.735 E0.00696
G1 X72.611 Y99.024 E0.00973
G1 X72.611 Y104.389 E0.16819
G1 X72.234 Y104.339 E0.01193
G1 X72.234 Y99.004 E0.16726
M73 P1 R40
G1 X72.277 Y98.808 E0.00630
G1 X72.474 Y98.448 E0.01288
G1 X72.856 Y98.238 E0.01367
G1 X78.448 Y98.238 E0.17534
G1 X78.400 Y97.868 E0.01169
M73 Q1 S41
G1 X72.776 Y97.869 E0.17634
G1 X72.247 Y98.145 E0.01871
G1 X72.100 Y98.304 E0.00678
G1 X71.922 Y98.680 E0.01305
G1 X71.858 Y98.974 E0.00944
G1 X71.858 Y104.289 E0.16665
G1 X71.482 Y104.240 E0.01190
G1 X71.483 Y98.939 E0.16620
G1 X71.569 Y98.547 E0.01257
G1 X71.733 Y98.181 E0.01258
G1 X72.032 Y97.836 E0.01432
G1 X72.401 Y97.600 E0.01375
G1 X72.816 Y97.484 E0.01349
G1 X78.349 Y97.484 E0.17350
G1 X78.231 Y97.107 E0.01239
G1 X72.809 Y97.107 E0.17001
G1 X72.337 Y97.215 E0.01520
G1 X71.778 Y97.554 E0.02048
G1 X71.398 Y98.007 E0.01853
G1 X71.217 Y98.412 E0.01392
G1 X71.108 Y98.902 E0.01571
G1 X71.106 Y104.095 E0.16282
G1 X70.726 Y103.937 E0.01289
G1 X70.726 Y98.986 E0.15526
G1 X70.851 Y98.316 E0.02134
G1 X71.050 Y97.861 E0.01561
G1 X71.365 Y97.424 E0.01689
G1 X72.001 Y96.959 E0.02467
G1 X72.505 Y96.770 E0.01689
G1 X72.806 Y96.730 E0.00951
G1 X78.075 Y96.730 E0.16522
G1 X77.919 Y96.353 E0.01280
G1 X72.804 Y96.353 E0.16038
G1 X72.390 Y96.410 E0.01309
G1 X71.809 Y96.635 E0.01953
G1 X71.362 Y96.924 E0.01671
G1 X70.868 Y97.434 E0.02226
G1 X70.708 Y97.703 E0.00983
G1 X70.429 Y98.413 E0.02390
G1 X70.349 Y98.985 E0.01812
G1 X70.349 Y103.781 E0.15038
G1 X69.972 Y103.584 E0.01334
G1 X69.998 Y98.647 E0.15479
G1 X70.135 Y98.078 E0.01833
G1 X70.368 Y97.540 E0.01838
G1 X70.801 Y96.924 E0.02363
G1 X71.094 Y96.653 E0.01252
G1 X71.619 Y96.309 E0.01967
G1 X71.927 Y96.161 E0.01073
G1 X72.588 Y95.991 E0.02139
G1 X77.757 Y95.976 E0.16207
G1 X77.467 Y95.598 E0.01490
G1 X72.800 Y95.598 E0.14633
G1 X72.190 Y95.683 E0.01932
G1 X71.775 Y95.815 E0.01366
G1 X70.866 Y96.353 E0.03313
G1 X70.246 Y97.006 E0.02822
G1 X70.027 Y97.379 E0.01358
G1 X69.778 Y97.959 E0.01976
G1 X69.629 Y98.569 E0.01971
G1 X69.595 Y103.294 E0.14816
G1 X69.218 Y103.005 E0.01490
G1 X69.218 Y98.982 E0.12613
G1 X69.264 Y98.464 E0.01632
G1 X69.423 Y97.829 E0.02051
G1 X69.693 Y97.202 E0.02141
G1 X69.937 Y96.790 E0.01501
G1 X70.249 Y96.410 E0.01540
G1 X70.636 Y96.054 E0.01649
G1 X71.233 Y95.661 E0.02241
G1 X71.632 Y95.466 E0.01394
G1 X72.480 Y95.244 E0.02747
G1 X77.178 Y95.221 E0.14731
G1 X76.889 Y94.844 E0.01490
G1 X72.427 Y94.871 E0.13991
G1 X71.477 Y95.122 E0.03079
G1 X71.012 Y95.354 E0.01630
G1 X70.395 Y95.764 E0.02324
G1 X69.968 Y96.158 E0.01821
G1 X69.627 Y96.575 E0.01688
G1 X69.353 Y97.040 E0.01692
G1 X68.974 Y98.015 E0.03281
G1 X68.841 Y98.982 E0.03060
G1 X68.841 Y102.671 E0.11567
G1 X68.464 Y102.180 E0.01942
G1 X68.480 Y98.652 E0.11061
G1 X68.613 Y97.902 E0.02388
G1 X69.020 Y96.861 E0.03504
G1 X69.317 Y96.361 E0.01825
G1 X69.688 Y95.906 E0.01840
G1 X70.163 Y95.467 E0.02028
G1 X70.817 Y95.031 E0.02463
G1 X71.332 Y94.774 E0.01805
G1 X72.258 Y94.514 E0.03017
G1 X72.797 Y94.467 E0.01695
G1 X76.406 Y94.467 E0.11318
G1 X75.915 Y94.090 E0.01942
G1 X72.794 Y94.090 E0.09787
G1 X72.141 Y94.151 E0.02054
G1 X71.521 Y94.307 E0.02005
G1 X70.851 Y94.581 E0.02270
G1 X70.124 Y95.029 E0.02675
G1 X69.644 Y95.414 E0.01930
G1 X69.019 Y96.129 E0.02978
G1 X68.486 Y97.124 E0.03539
G1 X68.286 Y97.671 E0.01826
G1 X68.104 Y98.617 E0.03021
G1 X68.087 Y101.688 E0.09630
;WIPE_START
G1 F8640.000
G1 X68.104 Y98.617 E-0.70917
G1 X68.146 Y98.401 E-0.05083
;WIPE_END
G1 E-0.04000 F2100.000
G1 Z0.600000 F10800.000
G1 X68.087 Y107.961
G1 Z0.200000
G1 E0.80000 F2100.000
G1 F1200.000
G1 X68.087 Y111.031 E0.09625
G1 X68.137 Y111.656 E0.01967
G1 X68.427 Y112.736 E0.03505
G1 X68.943 Y113.758 E0.03591
G1 X69.416 Y114.356 E0.02389
G1 X69.848 Y114.764 E0.01865
G1 X70.611 Y115.285 E0.02898
G1 X71.478 Y115.679 E0.02984
G1 X71.924 Y115.805 E0.01453
G1 X72.625 Y115.905 E0.02221
G1 X75.469 Y115.905 E0.08916
G1 X76.025 Y115.528 E0.02106
G1 X72.647 Y115.528 E0.10593
G1 X72.007 Y115.437 E0.02026
G1 X71.337 Y115.228 E0.02199
G1 X70.807 Y114.963 E0.01860
G1 X70.086 Y114.472 E0.02734
G1 X69.664 Y114.067 E0.01834
G1 X69.042 Y113.181 E0.03395
G1 X68.646 Y112.215 E0.03274
G1 X68.510 Y111.598 E0.01980
G1 X68.464 Y111.028 E0.01794
G1 X68.464 Y107.470 E0.11158
G1 X68.841 Y106.987 E0.01920
G1 X68.841 Y111.026 E0.12662
G1 X68.882 Y111.540 E0.01616
G1 X69.002 Y112.089 E0.01763
G1 X69.364 Y112.982 E0.03020
G1 X69.947 Y113.818 E0.03196
G1 X70.326 Y114.181 E0.01645
G1 X71.002 Y114.640 E0.02565
G1 X71.481 Y114.879 E0.01678
G1 X72.432 Y115.130 E0.03082
G1 X76.514 Y115.153 E0.12800
G1 X76.911 Y114.776 E0.01715
G1 X72.708 Y114.776 E0.13178
G1 X72.172 Y114.701 E0.01695
G1 X71.595 Y114.518 E0.01900
G1 X71.197 Y114.317 E0.01399
G1 X70.551 Y113.878 E0.02448
G1 X70.229 Y113.568 E0.01400
G1 X69.701 Y112.813 E0.02890
G1 X69.361 Y111.974 E0.02838
G1 X69.255 Y111.482 E0.01578
G1 X69.218 Y106.698 E0.15001
G1 X69.595 Y106.409 E0.01490
G1 X69.626 Y111.411 E0.15685
G1 X69.850 Y112.231 E0.02666
G1 X70.136 Y112.824 E0.02065
G1 X70.578 Y113.390 E0.02251
G1 X71.392 Y113.995 E0.03180
G1 X71.740 Y114.170 E0.01220
G1 X72.256 Y114.334 E0.01699
G1 X72.733 Y114.400 E0.01510
G1 X77.200 Y114.400 E0.14004
G1 X77.489 Y114.023 E0.01489
G1 X72.749 Y114.023 E0.14861
G1 X72.340 Y113.966 E0.01294
G1 X71.883 Y113.821 E0.01503
G1 X71.588 Y113.673 E0.01036
G1 X70.847 Y113.126 E0.02890
G1 X70.457 Y112.626 E0.01987
G1 X70.197 Y112.082 E0.01889
G1 X69.999 Y111.356 E0.02360
G1 X69.972 Y106.119 E0.16420
G1 X70.349 Y105.957 E0.01287
G1 X70.349 Y111.016 E0.15863
G1 X70.436 Y111.616 E0.01901
G1 X70.780 Y112.431 E0.02770
G1 X70.942 Y112.663 E0.00888
G1 X71.277 Y113.010 E0.01512
G1 X71.786 Y113.352 E0.01924
G1 X72.426 Y113.599 E0.02152
G1 X72.787 Y113.647 E0.01141
G1 X77.728 Y113.647 E0.15491
G1 X77.884 Y113.270 E0.01279
G1 X72.799 Y113.270 E0.15944
G1 X72.512 Y113.232 E0.00908
G1 X71.978 Y113.027 E0.01794
G1 X71.446 Y112.657 E0.02028
G1 X71.224 Y112.412 E0.01038
G1 X70.884 Y111.770 E0.02278
G1 X70.726 Y111.014 E0.02421
G1 X70.726 Y105.801 E0.16347
G1 X71.105 Y105.644 E0.01287
G1 X71.103 Y111.013 E0.16835
G1 X71.232 Y111.625 E0.01960
G1 X71.418 Y112.028 E0.01393
G1 X71.696 Y112.375 E0.01395
G1 X72.238 Y112.740 E0.02049
G1 X72.809 Y112.893 E0.01853
G1 X78.040 Y112.893 E0.16402
G1 X78.196 Y112.516 E0.01280
G1 X72.816 Y112.516 E0.16870
G1 X72.401 Y112.400 E0.01349
G1 X71.949 Y112.095 E0.01711
G1 X71.746 Y111.842 E0.01016
G1 X71.580 Y111.481 E0.01248
G1 X71.480 Y111.011 E0.01506
G1 X71.481 Y105.527 E0.17195
G1 X71.858 Y105.477 E0.01190
G1 X71.857 Y111.006 E0.17334
G1 X71.898 Y111.243 E0.00756
G1 X72.071 Y111.650 E0.01387
G1 X72.206 Y111.819 E0.00678
G1 X72.570 Y112.063 E0.01374
G1 X72.829 Y112.139 E0.00846
G1 X78.270 Y112.139 E0.17059
G1 X78.319 Y111.762 E0.01193
G1 X72.856 Y111.762 E0.17130
G1 X72.474 Y111.552 E0.01367
G1 X72.264 Y111.154 E0.01412
G1 X72.234 Y110.996 E0.00504
G1 X72.234 Y105.428 E0.17458
G1 X72.611 Y105.378 E0.01193
G1 X72.611 Y110.976 E0.17551
G1 X72.724 Y111.265 E0.00973
G1 X72.911 Y111.385 E0.00696
G1 X78.369 Y111.385 E0.17115
;WIPE_START
G1 F8640.000
G1 X75.078 Y111.385 E-0.76000
;WIPE_END
G1 E-0.04000 F2100.000
G1 Z0.600000 F10800.000
G1 X74.563 Y116.280
G1 Z0.200000
G1 E0.80000 F2100.000
G1 F1200.000
G1 X72.582 Y116.280 E0.06212
G1 X71.838 Y116.172 E0.02354
G1 X71.365 Y116.039 E0.01543
G1 X70.436 Y115.620 E0.03196
G1 X69.627 Y115.070 E0.03065
G1 X69.137 Y114.610 E0.02108
G1 X68.633 Y113.973 E0.02547
G1 X68.314 Y113.409 E0.02030
G1 X67.940 Y112.486 E0.03124
G1 X67.768 Y111.734 E0.02418
G1 X67.710 Y111.055 E0.02137
G1 X67.710 Y108.698 E0.07391
;WIPE_START
G1 F8640.000
G1 X67.710 Y111.055 E-0.54432
G1 X67.768 Y111.734 E-0.15740
G1 X67.824 Y111.980 E-0.05828
;WIPE_END
G1 E-0.04000 F2100.000
G1 Z0.600000 F10800.000
G1 X67.333 Y109.795
G1 Z0.200000
G1 E0.80000 F2100.000
G1 F1200.000
G1 X67.333 Y111.060 E0.03968
G1 X67.396 Y111.794 E0.02309
G1 X67.580 Y112.599 E0.02589
G1 X67.973 Y113.569 E0.03281
G1 X68.317 Y114.180 E0.02199
G1 X68.859 Y114.864 E0.02736
G1 X69.390 Y115.364 E0.02286
G1 X70.298 Y115.974 E0.03432
;WIPE_START
G1 F8640.000
G1 X69.390 Y115.364 E-0.25276
G1 X68.859 Y114.864 E-0.16835
G1 X68.317 Y114.180 E-0.20147
G1 X68.025 Y113.661 E-0.13743
;WIPE_END
G1 E-0.04000 F2100.000
G1 Z0.600000 F10800.000
G1 X124.056 Y111.385
G1 Z0.200000
G1 E0.80000 F2100.000
G1 F1200.000
G1 X129.651 Y111.385 E0.17543
M73 P1 R39
G1 X129.789 Y111.327 E0.00470
G1 X131.428 Y109.689 E0.07267
G1 X135.063 Y109.689 E0.11398
G1 X135.128 Y110.066 E0.01199
G1 X131.584 Y110.066 E0.11110
G1 X130.030 Y111.620 E0.06894
G1 X129.688 Y111.762 E0.01160
G1 X124.105 Y111.762 E0.17504
G1 X124.155 Y112.139 E0.01193
G1 X129.706 Y112.139 E0.17406
G1 X129.888 Y112.103 E0.00580
G1 X130.283 Y111.900 E0.01393
G1 X131.740 Y110.443 E0.06462
G1 X135.177 Y110.443 E0.10776
G1 X135.227 Y110.820 E0.01193
G1 X131.897 Y110.820 E0.10442
G1 X130.487 Y112.221 E0.06233
G1 X130.024 Y112.455 E0.01626
G1 X129.715 Y112.516 E0.00985
G1 X124.204 Y112.516 E0.17279
G1 X124.322 Y112.893 E0.01239
G1 X129.877 Y112.878 E0.17415
G1 X130.155 Y112.808 E0.00899
G1 X130.693 Y112.538 E0.01887
G1 X132.053 Y111.197 E0.05989
G1 X135.277 Y111.197 E0.10108
G1 X135.227 Y111.574 E0.01192
G1 X132.209 Y111.574 E0.09462
G1 X130.896 Y112.855 E0.05751
G1 X130.254 Y113.174 E0.02249
G1 X129.943 Y113.249 E0.01001
G1 X124.479 Y113.270 E0.17135
M73 P2 R39
G1 X124.635 Y113.647 E0.01280
G1 X130.009 Y113.620 E0.16851
G1 X130.344 Y113.541 E0.01081
G1 X130.978 Y113.254 E0.02179
G1 X131.316 Y113.000 E0.01327
G1 X132.365 Y111.951 E0.04652
G1 X135.177 Y111.951 E0.08817
G1 X135.128 Y112.328 E0.01192
G1 X132.521 Y112.328 E0.08172
G1 X131.566 Y113.282 E0.04233
G1 X131.150 Y113.591 E0.01623
G1 X130.453 Y113.902 E0.02393
G1 X130.057 Y113.995 E0.01277
G1 X124.797 Y114.024 E0.16493
M73 Q2 S41
G1 X125.086 Y114.401 E0.01490
G1 X130.102 Y114.369 E0.15727
G1 X130.485 Y114.286 E0.01229
G1 X131.292 Y113.945 E0.02748
G1 X131.784 Y113.593 E0.01895
G1 X132.678 Y112.705 E0.03951
G1 X135.063 Y112.705 E0.07479
G1 X134.907 Y113.082 E0.01280
G1 X132.834 Y113.082 E0.06500
G1 X132.018 Y113.890 E0.03600
G1 X131.434 Y114.298 E0.02232
G1 X130.880 Y114.549 E0.01907
G1 X130.153 Y114.743 E0.02360
G1 X125.375 Y114.778 E0.14981
G1 X125.664 Y115.155 E0.01490
G1 X130.167 Y115.122 E0.14117
G1 X130.989 Y114.912 E0.02660
G1 X131.822 Y114.504 E0.02908
G1 X132.216 Y114.216 E0.01533
G1 X132.990 Y113.459 E0.03392
G1 X134.751 Y113.459 E0.05520
G1 X134.594 Y113.836 E0.01280
G1 X133.146 Y113.836 E0.04541
G1 X132.636 Y114.346 E0.02262
G1 X131.992 Y114.844 E0.02550
G1 X131.646 Y115.039 E0.01246
G1 X130.717 Y115.396 E0.03121
G1 X129.765 Y115.532 E0.03014
G1 X126.147 Y115.532 E0.11346
G1 X126.638 Y115.909 E0.01943
G1 X129.752 Y115.910 E0.09764
G1 X130.796 Y115.764 E0.03305
G1 X131.767 Y115.399 E0.03252
G1 X132.156 Y115.186 E0.01392
G1 X132.864 Y114.649 E0.02784
G1 X133.302 Y114.213 E0.01938
G1 X134.365 Y114.213 E0.03333
;WIPE_START
G1 F8640.000
G1 X133.302 Y114.213 E-0.24546
G1 X132.864 Y114.649 E-0.14275
G1 X132.156 Y115.186 E-0.20499
G1 X131.767 Y115.399 E-0.10251
G1 X131.507 Y115.497 E-0.06429
;WIPE_END
G1 E-0.04000 F2100.000
G1 Z0.600000 F10800.000
G1 X128.471 Y116.664
G1 Z0.200000
G1 E0.80000 F2100.000
G1 F1200.000
G1 X130.323 Y116.623 E0.05807
G1 X131.375 Y116.377 E0.03387
G1 X132.414 Y115.910 E0.03573
G1 X132.880 Y115.609 E0.01739
G1 X133.615 Y114.968 E0.03058
G1 X133.787 Y114.968 E0.00539
G1 X134.076 Y114.591 E0.01490
G1 X133.459 Y114.591 E0.01936
