; generated by Slic3r Prusa Edition 1.42.0-beta2+linux64 on 2019-06-18 at 12:07:32

; 

; external perimeters extrusion width = 0.45mm
; perimeters extrusion width = 0.45mm
; infill extrusion width = 0.45mm
; solid infill extrusion width = 0.45mm
; top infill extrusion width = 0.40mm
; first layer extrusion width = 0.42mm

M73 P0 R39
M73 Q0 S39
M201 X1000 Y1000 Z1000 E5000 ; sets maximum accelerations, mm/sec^2
M203 X200 Y200 Z12 E120 ; sets maximum feedrates, mm/sec
M204 P1250 R1250 T1250 ; sets acceleration (P, T) and retract acceleration (R), mm/sec^2
M205 X8.00 Y8.00 Z0.40 E1.50 ; sets the jerk limits, mm/sec
M205 S0 T0 ; sets the minimum extruding and travel feed rate, mm/sec
M107
M115 U3.6.0 ; tell printer latest fw version
M83  ; extruder relative mode
M104 S215 ; set extruder temp
M140 S60 ; set bed temp
M190 S60 ; wait for bed temp
M109 S215 ; wait for extruder temp
G28 W ; home all without mesh bed level
G80 ; mesh bed leveling
G1 Y-3.0 F1000.0 ; go outside print area
G92 E0.0
G1 X60.0 E9.0  F1000.0 ; intro line
M73 Q0 S39
M73 P0 R39
G1 X100.0 E12.5  F1000.0 ; intro line
G92 E0.0
M221 S95
M900 K30 ; Filament gcode
G21 ; set units to millimeters
G90 ; use absolute coordinates
M83 ; use relative distances for extrusion
;BEFORE_LAYER_CHANGE
G92 E0.0
;0.2


G1 E-0.80000 F2100.00000
G1 Z0.600 F10800.000
;AFTER_LAYER_CHANGE
;0.2
G1 X63.896 Y89.610
G1 Z0.200
G1 E0.80000 F2100.00000
M204 S1000
G1 F1200
G1 X64.424 Y89.389 E0.01794
G1 X64.987 Y89.312 E0.01783
G1 X115.004 Y89.311 E1.56824
G1 X185.606 Y98.397 E2.23194
G1 X186.183 Y98.659 E0.01987
G1 X186.661 Y99.075 E0.01987
G1 X187.000 Y99.611 E0.01987
G1 X187.171 Y100.221 E0.01987
G1 X187.188 Y109.515 E0.29141
G1 X187.103 Y110.106 E0.01873
G1 X186.847 Y110.674 E0.01953
G1 X186.439 Y111.149 E0.01964
G1 X185.916 Y111.488 E0.01953
G1 X185.319 Y111.665 E0.01953
G1 X115.168 Y120.682 E2.21763
G1 X64.956 Y120.688 E1.57436
G1 X64.405 Y120.606 E0.01749
G1 X63.892 Y120.387 E0.01749
G1 X63.451 Y120.046 E0.01749
G1 X63.110 Y119.604 E0.01749
G1 X62.891 Y119.083 E0.01771
G1 X62.812 Y118.524 E0.01771
G1 X62.812 Y91.442 E0.84916
G1 X62.897 Y90.894 E0.01737
G1 X63.117 Y90.385 E0.01737
G1 X63.457 Y89.948 E0.01737
G1 X63.848 Y89.647 E0.01549
G1 F8640
G1 X64.424 Y89.389 E-0.14555
G1 X64.987 Y89.312 E-0.13128
G1 X67.079 Y89.311 E-0.48317
G1 E-0.04000 F2100.00000
G1 Z0.800 F10800.000
G1 X153.753 Y104.516
G1 Z0.200
G1 E0.80000 F2100.00000
G1 F1200
G1 X153.879 Y104.046 E0.01524
G1 X154.084 Y103.605 E0.01524
G1 X154.363 Y103.207 E0.01524
G1 X154.707 Y102.863 E0.01524
G1 X155.105 Y102.584 E0.01524
G1 X155.546 Y102.379 E0.01524
G1 X156.016 Y102.253 E0.01524
G1 X156.474 Y102.213 E0.01444
G1 X162.526 Y102.213 E0.18973
G1 X162.984 Y102.253 E0.01444
G1 X163.454 Y102.379 E0.01524
G1 X163.895 Y102.584 E0.01524
G1 X164.293 Y102.863 E0.01525
G1 X164.637 Y103.207 E0.01524
G1 X164.916 Y103.605 E0.01524
G1 X165.092 Y103.983 E0.01305
G1 X165.246 Y104.508 E0.01719
G1 X165.289 Y105.000 E0.01547
G1 X165.247 Y105.484 E0.01524
G1 X165.121 Y105.954 E0.01525
G1 X164.916 Y106.395 E0.01524
G1 X164.677 Y106.736 E0.01305
G1 X164.299 Y107.133 E0.01719
G1 X163.895 Y107.416 E0.01547
G1 X163.454 Y107.621 E0.01524
G1 X162.984 Y107.747 E0.01524
G1 X162.526 Y107.787 E0.01444
G1 X156.474 Y107.787 E0.18973
G1 X156.016 Y107.747 E0.01444
G1 X155.546 Y107.621 E0.01524
G1 X155.105 Y107.416 E0.01524
G1 X154.707 Y107.137 E0.01524
G1 X154.363 Y106.793 E0.01524
G1 X154.084 Y106.395 E0.01524
G1 X153.879 Y105.954 E0.01524
G1 X153.753 Y105.484 E0.01525
G1 X153.711 Y105.000 E0.01524
G1 X153.748 Y104.575 E0.01336
G1 X154.123 Y104.608 F10800.000
G1 F1200
G1 X154.235 Y104.175 E0.01401
G1 X154.412 Y103.795 E0.01318
G1 X154.653 Y103.450 E0.01318
G1 X154.950 Y103.153 E0.01318
G1 X155.295 Y102.912 E0.01318
G1 X155.675 Y102.735 E0.01318
G1 X156.081 Y102.626 E0.01318
G1 X156.491 Y102.590 E0.01289
G1 X162.509 Y102.590 E0.18870
G1 X162.919 Y102.626 E0.01289
G1 X163.325 Y102.735 E0.01318
G1 X163.705 Y102.912 E0.01318
G1 X164.050 Y103.153 E0.01318
G1 X164.347 Y103.450 E0.01318
G1 X164.588 Y103.795 E0.01318
G1 X164.738 Y104.116 E0.01113
G1 X164.874 Y104.579 E0.01512
G1 X164.911 Y105.000 E0.01326
G1 X164.874 Y105.419 E0.01318
G1 X164.765 Y105.825 E0.01318
G1 X164.588 Y106.205 E0.01318
G1 X164.384 Y106.496 E0.01113
G1 X164.052 Y106.845 E0.01512
G1 X163.705 Y107.088 E0.01326
G1 X163.325 Y107.265 E0.01318
G1 X162.919 Y107.374 E0.01318
G1 X162.509 Y107.410 E0.01289
G1 X156.491 Y107.410 E0.18870
G1 X156.081 Y107.374 E0.01289
G1 X155.675 Y107.265 E0.01318
G1 X155.295 Y107.088 E0.01318
G1 X154.950 Y106.847 E0.01318
G1 X154.653 Y106.550 E0.01318
G1 X154.412 Y106.205 E0.01318
G1 X154.235 Y105.825 E0.01318
G1 X154.126 Y105.419 E0.01318
G1 X154.089 Y105.000 E0.01318
G1 X154.118 Y104.668 E0.01045
G1 X153.815 Y104.354 F10800.000
G1 F8640
G1 X154.235 Y104.175 E-0.11687
G1 X154.412 Y103.795 E-0.09703
G1 X154.653 Y103.450 E-0.09703
G1 X154.950 Y103.153 E-0.09703
G1 X155.295 Y102.912 E-0.09703
G1 X155.675 Y102.735 E-0.09703
G1 X156.081 Y102.626 E-0.09703
G1 X156.344 Y102.603 E-0.06094
G1 E-0.04000 F2100.00000
G1 Z0.800 F10800.000
G1 X164.719 Y102.241
G1 Z0.200
G1 E0.80000 F2100.00000
G1 F1200
G1 X183.259 Y102.241 E0.58129
G1 X183.259 Y107.759 E0.17300
G1 X164.719 Y107.759 E0.58129
G1 X164.793 Y107.707 E0.00282
G1 X165.262 Y107.215 E0.02133
G1 X165.571 Y106.773 E0.01690
G1 X165.832 Y106.213 E0.01938
G1 X165.992 Y105.616 E0.01938
G1 X166.046 Y105.000 E0.01938
G1 X165.991 Y104.368 E0.01990
G1 X165.799 Y103.715 E0.02133
G1 X165.571 Y103.227 E0.01690
G1 X165.217 Y102.720 E0.01938
G1 X164.769 Y102.276 E0.01980
G1 F8640
G1 X168.060 Y102.270 E-0.76000
G1 E-0.04000 F2100.00000
G1 Z0.800 F10800.000
G1 X163.050 Y101.880
G1 Z0.200
G1 E0.80000 F2100.00000
G1 F1200
G1 X162.866 Y101.864 E0.00580
G1 X183.636 Y101.864 E0.65123
G1 X183.636 Y108.136 E0.19664
G1 X162.866 Y108.136 E0.65123
G1 X163.050 Y108.120 E0.00580
G1 X163.583 Y107.977 E0.01731
G1 X164.084 Y107.743 E0.01731
G1 X164.546 Y107.420 E0.01769
G1 X164.970 Y106.975 E0.01926
G1 X165.243 Y106.584 E0.01497
G1 X165.477 Y106.083 E0.01731
G1 X165.620 Y105.550 E0.01731
G1 X165.668 Y105.000 E0.01731
G1 X165.619 Y104.438 E0.01769
G1 X165.445 Y103.849 E0.01926
G1 X165.243 Y103.416 E0.01497
G1 X164.927 Y102.964 E0.01731
G1 X164.536 Y102.573 E0.01731
G1 X164.084 Y102.257 E0.01731
G1 X163.583 Y102.023 E0.01731
G1 X163.108 Y101.896 E0.01543
G1 F8640
G1 X162.866 Y101.864 E-0.05643
G1 X165.913 Y101.864 E-0.70357
G1 E-0.04000 F2100.00000
G1 Z0.800 F10800.000
G1 X154.281 Y102.241
G1 Z0.200
G1 E0.80000 F2100.00000
G1 F1200
G1 X153.783 Y102.720 E0.02165
G1 X153.429 Y103.227 E0.01938
G1 X153.168 Y103.787 E0.01938
G1 X153.008 Y104.384 E0.01938
G1 X152.954 Y105.000 E0.01938
G1 X153.008 Y105.616 E0.01938
G1 X153.168 Y106.213 E0.01938
G1 X153.429 Y106.773 E0.01938
G1 X153.783 Y107.280 E0.01938
G1 X154.281 Y107.759 E0.02165
G1 X113.259 Y107.759 E1.28621
G1 X113.259 Y116.759 E0.28219
G1 X66.741 Y116.759 E1.45852
G1 X66.741 Y93.241 E0.73738
G1 X113.259 Y93.241 E1.45852
G1 X113.259 Y102.241 E0.28219
G1 X154.221 Y102.241 E1.28433
G1 F8640
G1 X153.783 Y102.720 E-0.14979
G1 X153.429 Y103.227 E-0.14274
G1 X153.168 Y103.787 E-0.14274
G1 X153.008 Y104.384 E-0.14274
G1 X152.954 Y105.000 E-0.14274
G1 X152.968 Y105.169 E-0.03926
G1 E-0.04000 F2100.00000
G1 Z0.800 F10800.000
G1 X113.636 Y101.864
G1 Z0.200
G1 E0.80000 F2100.00000
G1 F1200
G1 X156.134 Y101.864 E1.33251
G1 X155.950 Y101.880 E0.00580
G1 X155.417 Y102.023 E0.01731
G1 X154.916 Y102.257 E0.01731
G1 X154.464 Y102.573 E0.01731
G1 X154.073 Y102.964 E0.01731
G1 X153.757 Y103.416 E0.01731
G1 X153.523 Y103.917 E0.01731
G1 X153.380 Y104.450 E0.01731
G1 X153.332 Y105.000 E0.01731
G1 X153.380 Y105.550 E0.01731
G1 X153.523 Y106.083 E0.01731
G1 X153.757 Y106.584 E0.01731
G1 X154.073 Y107.036 E0.01731
G1 X154.464 Y107.427 E0.01731
G1 X154.916 Y107.743 E0.01731
G1 X155.417 Y107.977 E0.01731
G1 X155.950 Y108.120 E0.01731
G1 X156.134 Y108.136 E0.00580
G1 X113.636 Y108.136 E1.33251
G1 X113.636 Y117.136 E0.28219
G1 X66.364 Y117.136 E1.48217
G1 X66.364 Y92.864 E0.76102
G1 X113.636 Y92.864 E1.48217
G1 X113.636 Y101.804 E0.28031
G1 X114.013 Y101.487 F10800.000
G1 F1200
G1 X144.967 Y101.487 E0.97055
G1 X144.979 Y96.087 E0.16931
G1 X145.021 Y96.087 E0.00133
G1 X145.033 Y101.487 E0.16931
G1 X184.013 Y101.487 E1.22219
G1 X184.013 Y108.513 E0.22029
G1 X145.033 Y108.513 E1.22219
G1 X145.021 Y113.913 E0.16931
G1 X144.979 Y113.913 E0.00133
G1 X144.967 Y108.513 E0.16931
G1 X114.013 Y108.513 E0.97055
M73 Q2 S38
M73 P2 R38
G1 X114.013 Y117.513 E0.28219
G1 X65.987 Y117.513 E1.50582
G1 X65.987 Y92.487 E0.78467
G1 X114.013 Y92.487 E1.50582
G1 X114.013 Y101.427 E0.28031
G1 X114.390 Y101.110 F10800.000
G1 F1200
G1 X144.591 Y101.110 E0.94693
G1 X144.602 Y95.710 E0.16931
G1 X145.398 Y95.710 E0.02493
G1 X145.409 Y101.110 E0.16931
G1 X184.390 Y101.110 E1.22222
G1 X184.390 Y108.890 E0.24394
G1 X145.409 Y108.890 E1.22222
G1 X145.398 Y114.290 E0.16931
G1 X144.602 Y114.290 E0.02493
G1 X144.591 Y108.890 E0.16931
G1 X114.390 Y108.890 E0.94693
G1 X114.390 Y117.890 E0.28219
G1 X65.610 Y117.890 E1.52946
G1 X65.610 Y92.110 E0.80831
G1 X114.390 Y92.110 E1.52946
G1 X114.390 Y101.050 E0.28031
G1 X114.569 Y101.468 F10800.000
G1 F8640
G1 X117.681 Y101.057 E-0.76000
G1 E-0.04000 F2100.00000
G1 Z0.800 F10800.000
G1 X117.405 Y107.646
G1 Z0.200
G1 E0.80000 F2100.00000
G1 F1200
G1 X103.283 Y93.524 E0.62753
G1 X102.749 Y93.524 E0.01679
G1 X116.701 Y107.476 E0.61999
G1 X116.166 Y107.476 E0.01679
G1 X102.214 Y93.524 E0.61999
G1 X101.680 Y93.524 E0.01679
G1 X115.632 Y107.476 E0.61999
G1 X115.097 Y107.476 E0.01679
G1 X101.145 Y93.524 E0.61999
G1 X100.611 Y93.524 E0.01679
G1 X114.563 Y107.476 E0.61999
G1 X114.029 Y107.476 E0.01679
G1 X100.077 Y93.524 E0.61999
G1 X99.542 Y93.524 E0.01679
G1 X113.494 Y107.476 E0.61999
G1 X112.976 Y107.476 E0.01628
G1 X112.976 Y107.492 E0.00051
G1 X99.008 Y93.524 E0.62071
G1 X98.473 Y93.524 E0.01679
G1 X112.976 Y108.027 E0.64446
G1 X112.976 Y108.561 E0.01679
G1 X97.939 Y93.524 E0.66821
G1 X97.405 Y93.524 E0.01679
G1 X112.976 Y109.095 E0.69195
G1 X112.976 Y109.630 E0.01679
G1 X96.870 Y93.524 E0.71570
G1 X96.336 Y93.524 E0.01679
G1 X112.976 Y110.164 E0.73945
G1 X112.976 Y110.699 E0.01679
G1 X95.801 Y93.524 E0.76320
G1 X95.267 Y93.524 E0.01679
G1 X112.976 Y111.233 E0.78695
G1 X112.976 Y111.768 E0.01679
G1 X94.732 Y93.524 E0.81070
G1 X94.198 Y93.524 E0.01679
G1 X112.976 Y112.302 E0.83445
G1 X112.976 Y112.836 E0.01679
G1 X93.664 Y93.524 E0.85819
G1 X93.129 Y93.524 E0.01679
G1 X112.976 Y113.371 E0.88194
G1 X112.976 Y113.905 E0.01679
G1 X92.595 Y93.524 E0.90569
G1 X92.060 Y93.524 E0.01679
G1 X112.976 Y114.440 E0.92944
G1 X112.976 Y114.974 E0.01679
G1 X91.526 Y93.524 E0.95319
G1 X90.991 Y93.524 E0.01679
G1 X112.976 Y115.509 E0.97694
G1 X112.976 Y116.043 E0.01679
G1 X90.457 Y93.524 E1.00068
G1 X89.923 Y93.524 E0.01679
G1 X112.875 Y116.476 E1.01993
G1 X112.340 Y116.476 E0.01679
G1 X89.388 Y93.524 E1.01993
G1 X88.854 Y93.524 E0.01679
G1 X111.806 Y116.476 E1.01993
G1 X111.271 Y116.476 E0.01679
G1 X88.319 Y93.524 E1.01993
M73 Q5 S37
M73 P5 R37
G1 X87.785 Y93.524 E0.01679
G1 X110.737 Y116.476 E1.01993
G1 X110.202 Y116.476 E0.01679
G1 X87.251 Y93.524 E1.01993
G1 X86.716 Y93.524 E0.01679
G1 X109.668 Y116.476 E1.01993
G1 X109.134 Y116.476 E0.01679
G1 X86.182 Y93.524 E1.01993
G1 X85.647 Y93.524 E0.01679
G1 X108.599 Y116.476 E1.01993
G1 X108.065 Y116.476 E0.01679
G1 X85.113 Y93.524 E1.01993
G1 X84.578 Y93.524 E0.01679
G1 X107.530 Y116.476 E1.01993
G1 X106.996 Y116.476 E0.01679
G1 X84.044 Y93.524 E1.01993
G1 X83.510 Y93.524 E0.01679
G1 X106.462 Y116.476 E1.01993
G1 X105.927 Y116.476 E0.01679
G1 X82.975 Y93.524 E1.01993
G1 X82.441 Y93.524 E0.01679
G1 X105.393 Y116.476 E1.01993
G1 X104.858 Y116.476 E0.01679
G1 X81.906 Y93.524 E1.01993
G1 X81.372 Y93.524 E0.01679
G1 X104.324 Y116.476 E1.01993
G1 X103.789 Y116.476 E0.01679
G1 X80.837 Y93.524 E1.01993
G1 X80.303 Y93.524 E0.01679
G1 X103.255 Y116.476 E1.01993
G1 X102.721 Y116.476 E0.01679
G1 X79.769 Y93.524 E1.01993
G1 X79.234 Y93.524 E0.01679
G1 X102.186 Y116.476 E1.01993
G1 X101.652 Y116.476 E0.01679
G1 X78.700 Y93.524 E1.01993
G1 X78.165 Y93.524 E0.01679
G1 X101.117 Y116.476 E1.01993
G1 X100.583 Y116.476 E0.01679
G1 X77.631 Y93.524 E1.01993
G1 X77.096 Y93.524 E0.01679
G1 X100.048 Y116.476 E1.01993
G1 X99.514 Y116.476 E0.01679
G1 X76.562 Y93.524 E1.01993
G1 X76.028 Y93.524 E0.01679
G1 X98.980 Y116.476 E1.01993
G1 X98.445 Y116.476 E0.01679
G1 X75.493 Y93.524 E1.01993
G1 X74.959 Y93.524 E0.01679
G1 X97.911 Y116.476 E1.01993
G1 X97.376 Y116.476 E0.01679
G1 X74.424 Y93.524 E1.01993
G1 X73.890 Y93.524 E0.01679
G1 X96.842 Y116.476 E1.01993
G1 X96.307 Y116.476 E0.01679
G1 X73.356 Y93.524 E1.01993
G1 X72.821 Y93.524 E0.01679
G1 X95.773 Y116.476 E1.01993
G1 X95.239 Y116.476 E0.01679
G1 X72.287 Y93.524 E1.01993
G1 X71.752 Y93.524 E0.01679
G1 X94.704 Y116.476 E1.01993
G1 X94.170 Y116.476 E0.01679
G1 X71.218 Y93.524 E1.01993
G1 X70.683 Y93.524 E0.01679
G1 X93.635 Y116.476 E1.01993
G1 X93.101 Y116.476 E0.01679
G1 X70.149 Y93.524 E1.01993
G1 X69.615 Y93.524 E0.01679
G1 X92.567 Y116.476 E1.01993
G1 X92.032 Y116.476 E0.01679
G1 X69.080 Y93.524 E1.01993
G1 X68.546 Y93.524 E0.01679
G1 X91.498 Y116.476 E1.01993
M73 Q7 S36
M73 P7 R36
G1 X90.963 Y116.476 E0.01679
G1 X68.011 Y93.524 E1.01993
G1 X67.477 Y93.524 E0.01679
G1 X90.429 Y116.476 E1.01993
G1 X89.894 Y116.476 E0.01679
G1 X67.024 Y93.606 E1.01630
G1 X67.024 Y94.140 E0.01679
G1 X89.360 Y116.476 E0.99255
G1 X88.826 Y116.476 E0.01679
G1 X67.024 Y94.674 E0.96880
G1 X67.024 Y95.209 E0.01679
G1 X88.291 Y116.476 E0.94506
G1 X87.757 Y116.476 E0.01679
G1 X67.024 Y95.743 E0.92131
G1 X67.024 Y96.278 E0.01679
G1 X87.222 Y116.476 E0.89756
G1 X86.688 Y116.476 E0.01679
G1 X67.024 Y96.812 E0.87381
G1 X67.024 Y97.347 E0.01679
G1 X86.153 Y116.476 E0.85006
G1 X85.619 Y116.476 E0.01679
G1 X67.024 Y97.881 E0.82631
G1 X67.024 Y98.415 E0.01679
G1 X85.085 Y116.476 E0.80257
G1 X84.550 Y116.476 E0.01679
G1 X67.024 Y98.950 E0.77882
G1 X67.024 Y99.484 E0.01679
G1 X84.016 Y116.476 E0.75507
G1 X83.481 Y116.476 E0.01679
G1 X67.024 Y100.019 E0.73132
G1 X67.024 Y100.553 E0.01679
G1 X82.947 Y116.476 E0.70757
G1 X82.412 Y116.476 E0.01679
G1 X67.024 Y101.088 E0.68382
G1 X67.024 Y101.622 E0.01679
G1 X81.878 Y116.476 E0.66008
G1 X81.344 Y116.476 E0.01679
G1 X67.024 Y102.156 E0.63633
G1 X67.024 Y102.691 E0.01679
G1 X80.809 Y116.476 E0.61258
G1 X80.275 Y116.476 E0.01679
G1 X67.024 Y103.225 E0.58883
G1 X67.024 Y103.760 E0.01679
G1 X79.740 Y116.476 E0.56508
G1 X79.206 Y116.476 E0.01679
G1 X67.024 Y104.294 E0.54133
G1 X67.024 Y104.828 E0.01679
G1 X78.672 Y116.476 E0.51758
G1 X78.137 Y116.476 E0.01679
G1 X67.024 Y105.363 E0.49384
G1 X67.024 Y105.897 E0.01679
G1 X77.603 Y116.476 E0.47009
G1 X77.068 Y116.476 E0.01679
G1 X67.024 Y106.432 E0.44634
G1 X67.024 Y106.966 E0.01679
G1 X76.534 Y116.476 E0.42259
G1 X75.999 Y116.476 E0.01679
G1 X67.024 Y107.501 E0.39884
G1 X67.024 Y108.035 E0.01679
G1 X75.465 Y116.476 E0.37509
G1 X74.931 Y116.476 E0.01679
G1 X67.024 Y108.569 E0.35135
G1 X67.024 Y109.104 E0.01679
G1 X74.396 Y116.476 E0.32760
G1 X73.862 Y116.476 E0.01679
G1 X67.024 Y109.638 E0.30385
G1 X67.024 Y110.173 E0.01679
G1 X73.327 Y116.476 E0.28010
G1 X72.793 Y116.476 E0.01679
G1 X67.024 Y110.707 E0.25635
G1 X67.024 Y111.242 E0.01679
G1 X72.258 Y116.476 E0.23260
G1 X71.724 Y116.476 E0.01679
G1 X67.024 Y111.776 E0.20886
G1 X67.024 Y112.310 E0.01679
G1 X71.190 Y116.476 E0.18511
G1 X70.655 Y116.476 E0.01679
G1 X67.024 Y112.845 E0.16136
G1 X67.024 Y113.379 E0.01679
G1 X70.121 Y116.476 E0.13761
G1 X69.586 Y116.476 E0.01679
G1 X67.024 Y113.914 E0.11386
G1 X67.024 Y114.448 E0.01679
G1 X69.052 Y116.476 E0.09011
G1 X68.517 Y116.476 E0.01679
G1 X67.024 Y114.983 E0.06637
G1 X67.024 Y115.517 E0.01679
G1 X67.983 Y116.476 E0.04262
G1 X67.449 Y116.476 E0.01679
G1 X66.854 Y115.882 E0.02641
G1 F8640
G1 X67.449 Y116.476 E-0.19407
G1 X67.983 Y116.476 E-0.12340
G1 X67.024 Y115.517 E-0.31317
G1 X67.024 Y114.983 E-0.12340
G1 X67.042 Y115.001 E-0.00596
G1 E-0.04000 F2100.00000
G1 Z0.800 F10800.000
G1 X113.146 Y93.767
