; generated by SuperSlicer 2.3.55 on 2021-06-22 at 17:26:57 UTC

; 

; external perimeters extrusion width = 0.45mm
; perimeters extrusion width = 0.45mm
; infill extrusion width = 0.45mm
; solid infill extrusion width = 0.45mm
; top infill extrusion width = 0.40mm
; first layer extrusion width = 0.42mm

; object:{"name":"backspacer","id":"backspacer.STL id:0 copy 0","object_center":[125.000000,105.000000,0.000000],"boundingbox_center":[125.000000,105.000000,4.500000],"boundingbox_size":[54.000004,10.000000,8.999999]}
; Total objects to print: 1
M486 T1
; plater:{"center":[125.000000,105.000000,0.000000],"boundingbox_center":[125.000000,105.000000,4.500000],"boundingbox_size":[54.000004,10.000000,8.999999]}

M73 P0 R18
M73 Q0 S18
;TYPE:Custom
M862.3 P "MK3S" ; printer model check
M862.1 P0.4 ; nozzle diameter check
M115 U3.9.2 ; tell printer latest fw version
G90 ; use absolute coordinates
M83 ; extruder relative mode
M104 S215 ; set extruder temp
M140 S60 ; set bed temp
M190 S60 ; wait for bed temp
M109 S215 ; wait for extruder temp
G28 W ; home all without mesh bed level
G80 ; mesh bed leveling
G1 Y-3.0 F1000.0 ; go outside print area
G92 E0.0
G1 X60.0 E9.0 F1000.0 ; intro line
G1 X100.0 E12.5 F1000.0 ; intro line
G92 E0.0
M221 S95

; Don't change E values below. Excessive value can damage the printer.

M107
G21 ; set units to millimeters
G90 ; use absolute coordinates
M83 ; use relative distances for extrusion
M900 K0.05 ; Filament gcode LA 1.5
M900 K30 ; Filament gcode LA 1.0
M107
;LAYER_CHANGE
;Z:0.2
;HEIGHT:0.2
;BEFORE_LAYER_CHANGE
;0.2


G1 E-0.80000 F2100.000
G1 Z0.400000 F10800.000
;AFTER_LAYER_CHANGE
;0.2
G1 X95.099 Y94.747
G1 Z0.200000
G1 E0.80000 F2100.000
;TYPE:Skirt
;WIDTH:0.42
G1 F1200.000
M204 P1000
G1 X96.446 Y93.757 E0.05243
G1 X97.986 Y93.105 E0.05243
G1 X98.962 Y92.892 E0.03134
G1 X99.959 Y92.817 E0.03134
G1 X150.007 Y92.817 E1.56921
G1 X151.350 Y92.945 E0.04231
G1 X152.645 Y93.322 E0.04231
G1 X153.854 Y93.937 E0.04251
G1 X154.920 Y94.764 E0.04231
G1 X157.266 Y97.116 E0.10416
G1 X158.059 Y98.141 E0.04065
G1 X158.484 Y98.905 E0.02740
G1 X158.811 Y99.708 E0.02719
G1 X159.039 Y100.551 E0.02740
G1 X159.164 Y101.410 E0.02719
G1 X159.173 Y108.468 E0.22130
M73 P1 R18
M73 Q1 S18
G1 X158.967 Y109.761 E0.04106
G1 X158.528 Y111.002 E0.04127
G1 X158.051 Y111.873 E0.03113
G1 X157.458 Y112.669 E0.03113
G1 X154.823 Y115.325 E0.11729
G1 X153.508 Y116.269 E0.05078
G1 X152.014 Y116.895 E0.05078
G1 X151.038 Y117.108 E0.03134
G1 X150.034 Y117.183 E0.03154
G1 X99.194 Y117.138 E1.59408
G1 X98.115 Y116.931 E0.03444
G1 X97.086 Y116.566 E0.03424
G1 X96.119 Y116.045 E0.03444
G1 X95.247 Y115.387 E0.03424
G1 X92.306 Y112.379 E0.13191
G1 X91.592 Y111.250 E0.04189
G1 X91.100 Y110.008 E0.04189
G1 X90.903 Y109.136 E0.02802
G1 X90.816 Y108.246 E0.02802
G1 X90.813 Y101.843 E0.20077
G1 X90.961 Y100.548 E0.04086
G1 X91.343 Y99.296 E0.04106
G1 X91.827 Y98.324 E0.03403
G1 X92.457 Y97.432 E0.03424
G1 X95.057 Y94.790 E0.11623
;WIPE_START
G1 F8640.000
G1 X96.446 Y93.757 E-0.39976
G1 X97.883 Y93.149 E-0.36024
;WIPE_END
G1 E-0.04000 F2100.000
G1 Z1.000000 F10800.000
G1 X101.180 Y94.538
G1 Z0.200000
G1 E0.80000 F2100.000
G1 F1200.000
G1 X99.310 Y94.581 E0.05863
G1 X98.667 Y94.708 E0.02055
G1 X98.094 Y94.894 E0.01890
G1 X97.328 Y95.242 E0.02639
G1 X96.769 Y95.596 E0.02072
G1 X96.288 Y95.989 E0.01949
G1 X94.070 Y98.207 E0.09834
G1 X93.557 Y98.826 E0.02520
G1 X93.287 Y99.246 E0.01565
G1 X92.769 Y100.443 E0.04090
G1 X92.567 Y101.390 E0.03036
G1 X92.533 Y103.194 E0.05657
;WIPE_START
G1 F8640.000
G1 X92.567 Y101.390 E-0.41656
G1 X92.769 Y100.443 E-0.22359
G1 X92.975 Y99.967 E-0.11985
;WIPE_END
G1 E-0.04000 F2100.000
G1 Z0.600000 F10800.000
G1 X92.910 Y104.288
G1 Z0.200000
G1 E0.80000 F2100.000
G1 F1200.000
G1 X92.910 Y101.876 E0.07561
G1 X93.022 Y100.965 E0.02878
G1 X93.248 Y100.219 E0.02446
G1 X93.615 Y99.433 E0.02718
G1 X94.339 Y98.470 E0.03779
G1 X96.546 Y96.264 E0.09782
G1 X97.017 Y95.883 E0.01900
G1 X97.586 Y95.532 E0.02096
G1 X98.281 Y95.226 E0.02382
G1 X99.379 Y94.953 E0.03548
G1 X102.278 Y94.915 E0.09090
G1 X103.015 Y95.292 F10800.000
G1 F1200.000
G1 X99.428 Y95.327 E0.11248
G1 X98.418 Y95.577 E0.03263
G1 X97.775 Y95.858 E0.02198
G1 X97.235 Y96.191 E0.01990
G1 X96.802 Y96.541 E0.01747
G1 X94.608 Y98.735 E0.09728
G1 X94.177 Y99.255 E0.02118
G1 X93.941 Y99.622 E0.01366
G1 X93.592 Y100.375 E0.02602
G1 X93.316 Y101.477 E0.03564
G1 X93.287 Y108.111 E0.20799
G1 X93.323 Y108.578 E0.01468
G1 X93.558 Y109.536 E0.03094
G1 X93.797 Y110.104 E0.01932
G1 X94.291 Y110.901 E0.02940
G1 X96.821 Y113.477 E0.11320
G1 X97.694 Y114.098 E0.03360
G1 X98.813 Y114.551 E0.03784
G1 X99.927 Y114.708 E0.03529
G1 X103.015 Y114.708 E0.09681
G1 X103.506 Y114.331 E0.01942
G1 X99.642 Y114.317 E0.12117
G1 X98.590 Y114.085 E0.03378
G1 X97.639 Y113.627 E0.03310
G1 X97.074 Y113.197 E0.02224
G1 X94.589 Y110.670 E0.11112
G1 X94.136 Y109.940 E0.02695
G1 X93.911 Y109.405 E0.01819
G1 X93.778 Y108.964 E0.01445
G1 X93.664 Y108.103 E0.02723
G1 X93.694 Y101.494 E0.20720
G1 X93.827 Y100.851 E0.02059
G1 X94.108 Y100.120 E0.02454
G1 X94.704 Y99.189 E0.03467
G1 X97.059 Y96.817 E0.10480
G1 X97.452 Y96.499 E0.01587
G1 X97.952 Y96.191 E0.01842
G1 X98.565 Y95.925 E0.02094
G1 X99.026 Y95.784 E0.01512
G1 X99.921 Y95.669 E0.02829
G1 X103.506 Y95.669 E0.11241
G1 X103.989 Y96.046 E0.01920
G1 X99.526 Y96.074 E0.13993
G1 X98.698 Y96.277 E0.02672
G1 X98.127 Y96.525 E0.01953
G1 X97.304 Y97.104 E0.03154
G1 X94.993 Y99.431 E0.10284
M73 P2 R18
G1 X94.796 Y99.685 E0.01008
G1 X94.590 Y100.006 E0.01195
M73 Q2 S18
G1 X94.286 Y100.671 E0.02292
G1 X94.068 Y101.541 E0.02812
G1 X94.070 Y108.476 E0.21746
G1 X94.261 Y109.264 E0.02543
G1 X94.476 Y109.778 E0.01746
G1 X94.903 Y110.459 E0.02518
G1 X97.328 Y112.918 E0.10829
G1 X97.844 Y113.310 E0.02032
G1 X98.705 Y113.725 E0.02997
G1 X99.687 Y113.943 E0.03154
G1 X103.997 Y113.944 E0.13513
G1 X104.284 Y113.569 E0.01481
G1 X99.733 Y113.568 E0.14269
G1 X99.108 Y113.459 E0.01989
G1 X98.474 Y113.222 E0.02124
G1 X98.049 Y112.994 E0.01510
G1 X97.575 Y112.634 E0.01868
G1 X95.204 Y110.231 E0.10584
G1 X94.816 Y109.614 E0.02287
G1 X94.616 Y109.135 E0.01626
G1 X94.443 Y108.417 E0.02315
G1 X94.418 Y101.913 E0.20394
G1 X94.468 Y101.426 E0.01536
G1 X94.634 Y100.817 E0.01980
G1 X95.106 Y99.900 E0.03233
G1 X97.563 Y97.378 E0.11039
G1 X98.316 Y96.852 E0.02880
G1 X98.845 Y96.625 E0.01807
G1 X99.575 Y96.448 E0.02353
G1 X104.278 Y96.423 E0.14748
G1 X104.567 Y96.800 E0.01490
G1 X99.928 Y96.800 E0.14548
G1 X99.322 Y96.877 E0.01915
G1 X98.976 Y96.979 E0.01128
G1 X98.489 Y97.187 E0.01662
G1 X97.820 Y97.654 E0.02558
G1 X95.575 Y99.911 E0.09983
G1 X95.236 Y100.396 E0.01854
G1 X94.978 Y100.972 E0.01981
G1 X94.838 Y101.499 E0.01708
G1 X94.795 Y101.919 E0.01325
G1 X94.817 Y108.369 E0.20224
G1 X94.970 Y109.007 E0.02055
G1 X95.156 Y109.451 E0.01510
G1 X95.506 Y110.005 E0.02055
G1 X97.830 Y112.355 E0.10363
G1 X98.256 Y112.679 E0.01676
G1 X98.622 Y112.876 E0.01307
G1 X99.188 Y113.090 E0.01897
G1 X99.765 Y113.192 E0.01836
G1 X104.573 Y113.193 E0.15074
G1 X104.861 Y112.817 E0.01484
G1 X99.800 Y112.817 E0.15868
G1 X99.289 Y112.727 E0.01625
G1 X98.773 Y112.530 E0.01734
G1 X98.085 Y112.078 E0.02579
G1 X95.802 Y109.772 E0.10175
G1 X95.496 Y109.288 E0.01795
G1 X95.326 Y108.881 E0.01384
G1 X95.191 Y108.321 E0.01805
G1 X95.172 Y101.932 E0.20032
G1 X95.326 Y101.118 E0.02599
G1 X95.565 Y100.581 E0.01843
G1 X95.873 Y100.143 E0.01680
G1 X98.075 Y97.932 E0.09785
G1 X98.663 Y97.522 E0.02246
G1 X99.411 Y97.244 E0.02503
G1 X99.929 Y97.177 E0.01639
G1 X104.857 Y97.177 E0.15449
G1 X105.019 Y97.555 E0.01287
G1 X99.930 Y97.555 E0.15956
G1 X99.232 Y97.688 E0.02228
G1 X98.836 Y97.857 E0.01350
G1 X98.323 Y98.216 E0.01963
G1 X96.158 Y100.389 E0.09618
G1 X95.889 Y100.773 E0.01470
G1 X95.667 Y101.283 E0.01745
G1 X95.549 Y101.936 E0.02081
G1 X95.549 Y108.064 E0.19211
G1 X95.680 Y108.751 E0.02195
G1 X95.841 Y109.135 E0.01304
G1 X96.140 Y109.590 E0.01708
G1 X98.342 Y111.801 E0.09784
G1 X98.928 Y112.187 E0.02200
G1 X99.391 Y112.363 E0.01553
G1 X99.844 Y112.442 E0.01444
G1 X105.020 Y112.442 E0.16228
G1 X105.176 Y112.066 E0.01277
G1 X99.871 Y112.066 E0.16633
G1 X99.492 Y112.000 E0.01205
G1 X99.071 Y111.838 E0.01415
G1 X98.584 Y111.512 E0.01838
G1 X96.387 Y109.296 E0.09784
G1 X96.017 Y108.573 E0.02547
G1 X95.926 Y108.060 E0.01634
G1 X95.926 Y101.935 E0.19204
G1 X96.034 Y101.379 E0.01777
G1 X96.222 Y100.950 E0.01470
G1 X96.446 Y100.633 E0.01217
G1 X98.594 Y98.479 E0.09538
G1 X99.055 Y98.170 E0.01738
G1 X99.404 Y98.027 E0.01183
G1 X99.931 Y97.932 E0.01680
G1 X105.175 Y97.932 E0.16442
G1 X105.331 Y98.309 E0.01280
G1 X99.933 Y98.309 E0.16924
G1 X99.524 Y98.384 E0.01304
G1 X99.084 Y98.582 E0.01515
G1 X98.853 Y98.753 E0.00900
G1 X96.727 Y100.884 E0.09437
G1 X96.552 Y101.133 E0.00956
G1 X96.378 Y101.534 E0.01368
G1 X96.303 Y101.942 E0.01302
G1 X96.303 Y108.058 E0.19175
G1 X96.378 Y108.466 E0.01302
G1 X96.721 Y109.109 E0.02285
G1 X98.846 Y111.240 E0.09437
G1 X99.222 Y111.492 E0.01419
G1 X99.896 Y111.690 E0.02203
G1 X105.332 Y111.690 E0.17042
G1 X105.449 Y111.312 E0.01240
G1 X99.920 Y111.313 E0.17338
G1 X99.647 Y111.259 E0.00871
G1 X99.110 Y110.971 E0.01912
G1 X97.010 Y108.866 E0.09321
G1 X96.848 Y108.619 E0.00926
G1 X96.689 Y108.145 E0.01568
G1 X96.680 Y101.947 E0.19434
M73 P3 R18
G1 X96.735 Y101.657 E0.00926
G1 X97.010 Y101.134 E0.01853
G1 X99.110 Y99.029 E0.09321
M73 Q3 S18
G1 X99.647 Y98.741 E0.01912
G1 X99.846 Y98.695 E0.00639
G1 X105.450 Y98.694 E0.17572
G1 X105.499 Y99.066 E0.01178
G1 X99.766 Y99.099 E0.17978
G1 X99.370 Y99.302 E0.01395
G1 X97.296 Y101.380 E0.09205
G1 X97.193 Y101.534 E0.00580
G1 X97.057 Y101.956 E0.01392
G1 X97.061 Y108.081 E0.19203
G1 X97.296 Y108.620 E0.01845
G1 X99.370 Y110.698 E0.09205
G1 X99.766 Y110.901 E0.01395
G1 X99.947 Y110.937 E0.00581
G1 X105.499 Y110.937 E0.17406
G1 X105.548 Y110.560 E0.01191
G1 X99.893 Y110.546 E0.17732
G1 X99.624 Y110.418 E0.00934
G1 X97.576 Y108.367 E0.09089
G1 X97.434 Y108.025 E0.01159
G1 X97.434 Y101.975 E0.18972
G1 X97.576 Y101.633 E0.01159
G1 X99.624 Y99.582 E0.09089
G1 X99.893 Y99.454 E0.00934
G1 X105.548 Y99.440 E0.17732
G1 X105.598 Y99.817 E0.01193
G1 X100.003 Y99.817 E0.17543
G1 X99.864 Y99.875 E0.00471
G1 X97.869 Y101.873 E0.08856
G1 X97.811 Y102.012 E0.00470
G1 X97.811 Y107.988 E0.18739
G1 X97.869 Y108.127 E0.00470
G1 X99.864 Y110.125 E0.08856
G1 X100.003 Y110.183 E0.00471
G1 X105.598 Y110.183 E0.17543
;WIPE_START
G1 F8640.000
G1 X102.307 Y110.183 E-0.76000
;WIPE_END
G1 E-0.04000 F2100.000
G1 Z0.600000 F10800.000
G1 X102.278 Y115.085
G1 Z0.200000
G1 E0.80000 F2100.000
G1 F1200.000
G1 X99.483 Y115.059 E0.08763
G1 X98.666 Y114.901 E0.02609
G1 X97.831 Y114.588 E0.02797
G1 X97.211 Y114.248 E0.02215
G1 X96.567 Y113.755 E0.02545
G1 X94.334 Y111.524 E0.09896
G1 X93.983 Y111.119 E0.01683
G1 X93.457 Y110.268 E0.03137
G1 X93.054 Y109.177 E0.03644
G1 X92.910 Y108.118 E0.03352
G1 X92.910 Y105.712 E0.07544
;WIPE_START
M73 P3 R17
G1 F8640.000
G1 X92.910 Y108.118 E-0.55553
G1 X93.029 Y108.995 E-0.20447
;WIPE_END
G1 E-0.04000 F2100.000
G1 Z0.600000 F10800.000
G1 X92.533 Y106.805
G1 Z0.200000
G1 E0.80000 F2100.000
G1 F1200.000
G1 X92.533 Y108.144 E0.04197
G1 X92.701 Y109.322 E0.03731
G1 X93.125 Y110.449 E0.03775
G1 X93.370 Y110.892 E0.01587
G1 X94.066 Y111.789 E0.03561
G1 X96.314 Y114.035 E0.09963
G1 X97.322 Y114.754 E0.03882
G1 X98.178 Y115.138 E0.02942
G1 X99.061 Y115.378 E0.02869
G1 X99.927 Y115.462 E0.02727
G1 X101.179 Y115.462 E0.03928
;WIPE_START
G1 F8640.000
G1 X99.927 Y115.462 E-0.28928
G1 X99.061 Y115.378 E-0.20084
G1 X98.178 Y115.138 E-0.21125
G1 X97.946 Y115.034 E-0.05862
;WIPE_END
G1 E-0.04000 F2100.000
G1 Z0.600000 F10800.000
G1 X144.402 Y110.183
G1 Z0.200000
G1 E0.80000 F2100.000
G1 F1200.000
G1 X149.997 Y110.183 E0.17543
G1 X150.136 Y110.125 E0.00471
G1 X152.131 Y108.127 E0.08856
G1 X152.189 Y107.988 E0.00470
G1 X152.189 Y102.012 E0.18739
G1 X152.131 Y101.873 E0.00470
G1 X150.136 Y99.875 E0.08856
G1 X149.997 Y99.817 E0.00471
G1 X144.402 Y99.817 E0.17543
G1 X144.452 Y99.440 E0.01193
G1 X150.107 Y99.454 E0.17732
G1 X150.376 Y99.582 E0.00934
G1 X152.424 Y101.633 E0.09089
G1 X152.566 Y101.975 E0.01159
G1 X152.566 Y108.025 E0.18972
G1 X152.424 Y108.367 E0.01159
G1 X150.376 Y110.418 E0.09089
G1 X150.107 Y110.546 E0.00934
G1 X144.452 Y110.560 E0.17732
G1 X144.501 Y110.934 E0.01182
G1 X150.234 Y110.901 E0.17977
G1 X150.630 Y110.698 E0.01395
G1 X152.704 Y108.620 E0.09205
G1 X152.807 Y108.466 E0.00580
G1 X152.943 Y108.044 E0.01392
G1 X152.943 Y101.956 E0.19088
G1 X152.807 Y101.534 E0.01392
G1 X152.704 Y101.380 E0.00580
G1 X150.630 Y99.302 E0.09205
M73 P4 R17
G1 X150.234 Y99.099 E0.01395
G1 X144.501 Y99.066 E0.17978
M73 Q4 S18
G1 X144.551 Y98.688 E0.01198
G1 X150.080 Y98.687 E0.17338
G1 X150.370 Y98.747 E0.00928
G1 X150.876 Y99.017 E0.01799
G1 X152.978 Y101.120 E0.09321
G1 X153.152 Y101.381 E0.00984
G1 X153.320 Y101.947 E0.01851
G1 X153.320 Y108.053 E0.19146
G1 X153.265 Y108.343 E0.00926
G1 X152.990 Y108.866 E0.01853
G1 X150.890 Y110.971 E0.09321
G1 X150.353 Y111.259 E0.01912
G1 X150.154 Y111.305 E0.00639
G1 X144.550 Y111.306 E0.17572
G1 X144.669 Y111.691 E0.01264
G1 X150.067 Y111.691 E0.16925
G1 X150.476 Y111.616 E0.01304
G1 X150.916 Y111.418 E0.01515
G1 X151.147 Y111.247 E0.00900
G1 X153.273 Y109.116 E0.09437
G1 X153.448 Y108.867 E0.00956
G1 X153.622 Y108.466 E0.01368
G1 X153.697 Y108.058 E0.01302
G1 X153.697 Y101.942 E0.19175
G1 X153.643 Y101.605 E0.01071
G1 X153.498 Y101.232 E0.01253
G1 X153.248 Y100.857 E0.01416
G1 X151.069 Y98.687 E0.09640
G1 X150.502 Y98.394 E0.02004
G1 X150.076 Y98.309 E0.01362
G1 X144.669 Y98.309 E0.16954
G1 X144.825 Y97.932 E0.01280
G1 X150.073 Y97.932 E0.16456
G1 X150.494 Y97.996 E0.01334
G1 X150.924 Y98.160 E0.01444
G1 X151.419 Y98.491 E0.01866
G1 X153.624 Y100.718 E0.09827
G1 X153.966 Y101.379 E0.02332
G1 X154.074 Y101.935 E0.01777
G1 X154.074 Y108.065 E0.19218
G1 X153.965 Y108.626 E0.01791
G1 X153.778 Y109.050 E0.01455
G1 X153.554 Y109.367 E0.01217
G1 X151.406 Y111.521 E0.09538
G1 X150.945 Y111.830 E0.01738
G1 X150.596 Y111.973 E0.01183
G1 X150.069 Y112.068 E0.01680
G1 X144.825 Y112.068 E0.16442
G1 X144.981 Y112.445 E0.01279
G1 X150.070 Y112.445 E0.15956
G1 X150.510 Y112.388 E0.01393
G1 X151.164 Y112.143 E0.02188
G1 X151.665 Y111.795 E0.01913
G1 X153.840 Y109.613 E0.09662
G1 X154.106 Y109.235 E0.01448
G1 X154.318 Y108.758 E0.01637
G1 X154.451 Y108.073 E0.02188
G1 X154.450 Y101.911 E0.19320
G1 X154.320 Y101.249 E0.02116
G1 X153.929 Y100.497 E0.02658
G1 X151.685 Y98.224 E0.10014
G1 X151.070 Y97.813 E0.02321
G1 X150.585 Y97.630 E0.01625
G1 X150.072 Y97.555 E0.01624
G1 X144.981 Y97.555 E0.15963
G1 X145.143 Y97.177 E0.01287
G1 X150.072 Y97.177 E0.15453
G1 X150.585 Y97.243 E0.01621
G1 X151.463 Y97.591 E0.02964
G1 X151.951 Y97.957 E0.01910
G1 X154.256 Y100.304 E0.10317
G1 X154.485 Y100.675 E0.01366
G1 X154.676 Y101.123 E0.01528
G1 X154.827 Y101.897 E0.02470
G1 X154.809 Y108.325 E0.20155
G1 X154.663 Y108.912 E0.01899
G1 X154.426 Y109.435 E0.01799
G1 X154.126 Y109.858 E0.01626
G1 X151.924 Y112.069 E0.09785
G1 X151.337 Y112.478 E0.02242
G1 X150.892 Y112.668 E0.01517
G1 X150.071 Y112.823 E0.02622
G1 X145.143 Y112.822 E0.15451
G1 X145.432 Y113.199 E0.01490
G1 X150.072 Y113.200 E0.14550
G1 X150.678 Y113.123 E0.01915
G1 X151.511 Y112.813 E0.02785
G1 X152.180 Y112.346 E0.02558
G1 X154.413 Y110.104 E0.09922
G1 X154.754 Y109.622 E0.01850
G1 X155.008 Y109.065 E0.01919
G1 X155.183 Y108.375 E0.02234
G1 X155.204 Y101.882 E0.20357
G1 X155.043 Y101.031 E0.02717
G1 X154.824 Y100.508 E0.01778
G1 X154.571 Y100.097 E0.01512
G1 X152.216 Y97.689 E0.10562
G1 X151.689 Y97.287 E0.02077
G1 X151.083 Y97.002 E0.02102
G1 X150.659 Y96.873 E0.01389
G1 X150.073 Y96.800 E0.01849
G1 X145.433 Y96.800 E0.14551
G1 X145.722 Y96.423 E0.01490
G1 X150.401 Y96.445 E0.14670
G1 X151.225 Y96.652 E0.02666
G1 X151.891 Y96.968 E0.02308
G1 X152.476 Y97.415 E0.02309
G1 X154.601 Y99.544 E0.09433
G1 X154.893 Y99.898 E0.01438
G1 X155.169 Y100.356 E0.01677
G1 X155.402 Y100.912 E0.01890
G1 X155.580 Y101.856 E0.03010
G1 X155.556 Y108.423 E0.20592
G1 X155.354 Y109.214 E0.02560
