; generated by SuperSlicer 2.3.55 on 2021-06-17 at 16:05:40 UTC

; 

; external perimeters extrusion width = 0.45mm
; perimeters extrusion width = 0.45mm
; infill extrusion width = 0.45mm
; solid infill extrusion width = 0.45mm
; top infill extrusion width = 0.40mm
; support material extrusion width = 0.35mm
; first layer extrusion width = 0.42mm

; object:{"name":"baseplatejoined","id":"baseplatejoined.STL id:0 copy 0","object_center":[125.000000,105.000000,0.000000],"boundingbox_center":[125.000000,105.000000,12.500000],"boundingbox_size":[71.000000,80.000000,25.000000]}
; Total objects to print: 1
M486 T1
; plater:{"center":[125.000000,105.000000,0.000000],"boundingbox_center":[125.000000,105.000000,12.500000],"boundingbox_size":[71.000000,80.000000,25.000000]}

M73 P0 R100
M73 Q0 S105
;TYPE:Custom
M862.3 P "MK3S" ; printer model check
M862.1 P0.4 ; nozzle diameter check
M115 U3.9.2 ; tell printer latest fw version
G90 ; use absolute coordinates
M83 ; extruder relative mode
M104 S215 ; set extruder temp
M140 S60 ; set bed temp
M190 S60 ; wait for bed temp
M109 S215 ; wait for extruder temp
G28 W ; home all without mesh bed level
G80 ; mesh bed leveling
G1 Y-3.0 F1000.0 ; go outside print area
G92 E0.0
G1 X60.0 E9.0 F1000.0 ; intro line
G1 X100.0 E12.5 F1000.0 ; intro line
G92 E0.0
M221 S95

; Don't change E values below. Excessive value can damage the printer.

M107
G21 ; set units to millimeters
G90 ; use absolute coordinates
M83 ; use relative distances for extrusion
M900 K0.05 ; Filament gcode LA 1.5
M900 K30 ; Filament gcode LA 1.0
M107
;LAYER_CHANGE
;Z:0.2
;HEIGHT:0.2
;BEFORE_LAYER_CHANGE
;0.2


M73 P0 R99
G1 E-0.80000 F2100.000
G1 Z0.400000 F10800.000
;AFTER_LAYER_CHANGE
;0.2
G1 X84.424 Y74.822
G1 Z0.200000
G1 E0.80000 F2100.000
;TYPE:Skirt
;WIDTH:0.42
G1 F1200.000
M204 P1000
G1 X85.362 Y74.022 E0.03866
G1 X86.312 Y73.457 E0.03465
G1 X87.343 Y73.043 E0.03486
G1 X133.311 Y59.958 E1.49854
G1 X134.141 Y59.786 E0.02657
G1 X134.992 Y59.714 E0.02678
G1 X142.715 Y59.711 E0.24218
G1 X143.581 Y59.765 E0.02719
G1 X144.428 Y59.920 E0.02698
G1 X145.249 Y60.175 E0.02698
G1 X146.035 Y60.527 E0.02698
G1 X162.449 Y70.004 E0.59428
G1 X163.497 Y70.812 E0.04148
G1 X164.378 Y71.798 E0.04148
G1 X165.064 Y72.929 E0.04148
G1 X165.531 Y74.167 E0.04148
G1 X165.721 Y75.094 E0.02968
G1 X165.788 Y76.045 E0.02988
G1 X165.787 Y134.058 E1.81894
G1 X165.679 Y135.177 E0.03527
G1 X165.394 Y136.273 E0.03548
G1 X164.942 Y137.310 E0.03548
G1 X164.332 Y138.263 E0.03548
G1 X163.421 Y139.258 E0.04231
G1 X162.334 Y140.068 E0.04251
G1 X146.280 Y149.339 E0.58125
G1 X145.430 Y149.754 E0.02968
G1 X144.274 Y150.116 E0.03796
G1 X143.075 Y150.279 E0.03796
G1 X134.958 Y150.285 E0.25449
G1 X134.088 Y150.206 E0.02740
G1 X133.240 Y150.023 E0.02719
G1 X87.494 Y137.003 E1.49130
G1 X86.275 Y136.524 E0.04106
G1 X85.163 Y135.833 E0.04106
G1 X83.994 Y134.721 E0.05057
G1 X83.102 Y133.378 E0.05057
G1 X82.531 Y131.862 E0.05078
G1 X82.313 Y130.264 E0.05057
G1 X82.314 Y79.708 E1.58516
G1 X82.430 Y78.602 E0.03486
G1 X82.716 Y77.521 E0.03506
G1 X83.167 Y76.498 E0.03506
G1 X83.768 Y75.562 E0.03486
G1 X84.384 Y74.867 E0.02913
;WIPE_START
G1 F8640.000
G1 X84.505 Y74.730 E-0.04218
G1 X85.362 Y74.022 E-0.25669
G1 X86.312 Y73.457 E-0.25517
G1 X87.139 Y73.125 E-0.20596
;WIPE_END
G1 E-0.04000 F2100.000
G1 Z1.000000 F10800.000
G1 X84.033 Y81.084
G1 Z0.200000
G1 E0.80000 F2100.000
G1 F1200.000
G1 X84.058 Y79.337 E0.05478
G1 X84.197 Y78.590 E0.02384
G1 X84.685 Y77.373 E0.04110
G1 X85.111 Y76.720 E0.02446
G1 X85.400 Y76.381 E0.01396
G1 X86.358 Y75.483 E0.04116
G1 X87.239 Y74.951 E0.03230
G1 X87.842 Y74.704 E0.02041
G1 X88.792 Y74.476 E0.03065
G1 X90.680 Y74.432 E0.05919
;WIPE_START
G1 F8640.000
G1 X88.792 Y74.476 E-0.43592
G1 X87.842 Y74.704 E-0.22571
G1 X87.448 Y74.865 E-0.09836
;WIPE_END
G1 E-0.04000 F2100.000
G1 Z0.600000 F10800.000
G1 X91.778 Y74.809
G1 Z0.200000
G1 E0.80000 F2100.000
G1 F1200.000
G1 X89.373 Y74.809 E0.07540
G1 X88.867 Y74.846 E0.01592
G1 X87.970 Y75.059 E0.02891
G1 X87.399 Y75.292 E0.01934
G1 X86.584 Y75.784 E0.02983
G1 X85.695 Y76.617 E0.03820
G1 X85.411 Y76.949 E0.01369
G1 X84.977 Y77.627 E0.02524
G1 X84.562 Y78.686 E0.03567
G1 X84.410 Y79.730 E0.03310
G1 X84.410 Y82.179 E0.07679
G1 X84.787 Y82.916 F10800.000
G1 F1200.000
G1 X84.787 Y79.737 E0.09966
G1 X84.848 Y79.142 E0.01875
G1 X85.032 Y78.446 E0.02257
G1 X85.218 Y77.994 E0.01532
G1 X85.726 Y77.158 E0.03070
G1 X85.969 Y76.877 E0.01164
G1 X86.527 Y76.322 E0.02466
G1 X87.178 Y75.837 E0.02546
G1 X87.558 Y75.634 E0.01351
G1 X88.482 Y75.301 E0.03079
G1 X89.376 Y75.187 E0.02825
G1 X92.515 Y75.187 E0.09843
G1 X93.006 Y75.564 E0.01942
G1 X89.378 Y75.564 E0.11377
G1 X89.005 Y75.589 E0.01171
G1 X88.233 Y75.766 E0.02485
G1 X87.731 Y75.970 E0.01698
G1 X87.037 Y76.387 E0.02539
G1 X86.024 Y77.389 E0.04468
G1 X85.683 Y77.906 E0.01943
G1 X85.386 Y78.575 E0.02295
G1 X85.218 Y79.211 E0.02062
G1 X85.164 Y79.754 E0.01711
G1 X85.164 Y83.407 E0.11453
G1 X85.541 Y83.889 E0.01920
G1 X85.541 Y79.759 E0.12950
G1 X85.589 Y79.280 E0.01508
G1 X85.740 Y78.705 E0.01866
G1 X86.015 Y78.085 E0.02125
G1 X86.520 Y77.391 E0.02692
G1 X87.036 Y76.878 E0.02282
G1 X87.570 Y76.481 E0.02087
G1 X87.888 Y76.313 E0.01127
G1 X88.665 Y76.033 E0.02589
G1 X89.380 Y75.941 E0.02260
G1 X93.489 Y75.941 E0.12883
G1 X93.778 Y76.318 E0.01490
G1 X89.382 Y76.318 E0.13784
G1 X88.769 Y76.396 E0.01938
G1 X87.765 Y76.804 E0.03398
G1 X87.290 Y77.157 E0.01855
G1 X86.792 Y77.653 E0.02205
G1 X86.347 Y78.263 E0.02367
G1 X86.095 Y78.834 E0.01957
G1 X85.960 Y79.350 E0.01671
G1 X85.918 Y79.765 E0.01308
G1 X85.918 Y84.178 E0.13838
G1 X86.295 Y84.468 E0.01490
G1 X86.295 Y79.778 E0.14704
G1 X86.449 Y78.964 E0.02598
G1 X86.645 Y78.506 E0.01562
G1 X86.918 Y78.082 E0.01581
G1 X87.572 Y77.410 E0.02939
G1 X87.997 Y77.104 E0.01642
G1 X88.643 Y76.821 E0.02210
G1 X89.272 Y76.699 E0.02009
G1 X99.159 Y76.696 E0.31001
G1 X99.774 Y76.796 E0.01955
G1 X100.260 Y76.982 E0.01631
G1 X100.751 Y77.267 E0.01779
G1 X101.638 Y78.156 E0.03936
G1 X101.918 Y78.640 E0.01753
G1 X102.079 Y79.043 E0.01360
G1 X102.205 Y79.783 E0.02354
G1 X102.205 Y84.467 E0.14689
G1 X102.582 Y84.178 E0.01490
G1 X102.582 Y79.763 E0.13843
G1 X102.478 Y79.061 E0.02226
G1 X102.256 Y78.471 E0.01975
G1 X101.782 Y77.733 E0.02751
G1 X100.977 Y76.966 E0.03485
G1 X100.644 Y76.751 E0.01245
G1 X99.819 Y76.417 E0.02790
G1 X99.123 Y76.318 E0.02202
G1 X94.722 Y76.318 E0.13801
G1 X95.011 Y75.941 E0.01490
G1 X99.492 Y75.968 E0.14048
G1 X100.261 Y76.166 E0.02491
G1 X100.822 Y76.419 E0.01930
G1 X101.503 Y76.915 E0.02640
G1 X102.021 Y77.435 E0.02303
G1 X102.556 Y78.221 E0.02980
G1 X102.803 Y78.833 E0.02071
G1 X102.919 Y79.324 E0.01581
G1 X102.959 Y79.747 E0.01334
G1 X102.959 Y83.889 E0.12985
G1 X103.336 Y83.407 E0.01918
G1 X103.335 Y79.713 E0.11583
G1 X103.284 Y79.223 E0.01544
G1 X103.143 Y78.659 E0.01824
G1 X102.883 Y78.032 E0.02127
G1 X102.583 Y77.534 E0.01823
G1 X102.292 Y77.173 E0.01456
G1 X101.372 Y76.321 E0.03931
G1 X100.921 Y76.044 E0.01660
G1 X99.954 Y75.674 E0.03245
G1 X99.130 Y75.564 E0.02608
G1 X95.494 Y75.564 E0.11400
G1 X95.985 Y75.187 E0.01942
G1 X99.132 Y75.187 E0.09867
G1 X100.042 Y75.307 E0.02879
G1 X100.485 Y75.444 E0.01454
G1 X101.096 Y75.710 E0.02090
G1 X101.587 Y76.011 E0.01805
G1 X102.568 Y76.916 E0.04185
G1 X102.885 Y77.307 E0.01578
G1 X103.207 Y77.836 E0.01942
G1 X103.572 Y78.774 E0.03155
G1 X103.712 Y79.686 E0.02895
G1 X103.713 Y82.916 E0.10126
G1 X104.089 Y82.182 F10800.000
G1 F1200.000
G1 X104.087 Y79.637 E0.07980
G1 X103.984 Y78.875 E0.02411
G1 X103.789 Y78.230 E0.02115
G1 X103.519 Y77.620 E0.02090
G1 X103.167 Y77.053 E0.02093
G1 X102.830 Y76.644 E0.01660
G1 X102.185 Y76.005 E0.02846
G1 X101.771 Y75.680 E0.01650
G1 X101.240 Y75.360 E0.01944
G1 X100.116 Y74.937 E0.03767
G1 X99.134 Y74.809 E0.03104
G1 X96.722 Y74.809 E0.07563
;WIPE_START
G1 F8640.000
G1 X99.134 Y74.809 E-0.55697
G1 X100.006 Y74.923 E-0.20303
;WIPE_END
G1 E-0.04000 F2100.000
G1 Z0.600000 F10800.000
G1 X97.820 Y74.432
G1 Z0.200000
G1 E0.80000 F2100.000
G1 F1200.000
G1 X99.654 Y74.468 E0.05751
G1 X100.713 Y74.724 E0.03416
G1 X101.817 Y75.258 E0.03844
G1 X102.336 Y75.637 E0.02016
G1 X103.056 Y76.335 E0.03144
G1 X103.734 Y77.231 E0.03523
G1 X103.996 Y77.744 E0.01808
G1 X104.306 Y78.600 E0.02852
G1 X104.459 Y79.524 E0.02938
G1 X104.461 Y81.127 E0.05024
;WIPE_START
G1 F8640.000
G1 X104.459 Y79.524 E-0.36998
G1 X104.306 Y78.600 E-0.21637
G1 X104.050 Y77.893 E-0.17365
;WIPE_END
G1 E-0.04000 F2100.000
G1 Z0.600000 F10800.000
G1 X89.311 Y85.498
G1 Z0.200000
G1 E0.80000 F2100.000
G1 F1200.000
G1 X89.311 Y79.932 E0.17451
G1 X89.532 Y79.711 E0.00979
G1 X98.968 Y79.711 E0.29584
G1 X99.189 Y79.932 E0.00979
G1 X99.189 Y85.498 E0.17451
G1 X99.566 Y85.448 E0.01193
G1 X99.566 Y79.857 E0.17531
M73 Q0 S104
G1 X99.508 Y79.719 E0.00470
G1 X99.181 Y79.392 E0.01450
G1 X99.043 Y79.334 E0.00470
G1 X89.457 Y79.334 E0.30054
G1 X89.319 Y79.392 E0.00470
G1 X88.992 Y79.719 E0.01450
G1 X88.934 Y79.857 E0.00470
G1 X88.934 Y85.448 E0.17531
G1 X88.557 Y85.399 E0.01193
G1 X88.557 Y79.820 E0.17491
G1 X88.699 Y79.478 E0.01160
G1 X89.140 Y79.058 E0.01912
G1 X89.420 Y78.957 E0.00933
G1 X99.080 Y78.957 E0.30287
G1 X99.360 Y79.058 E0.00933
G1 X99.801 Y79.478 E0.01912
G1 X99.943 Y79.820 E0.01160
G1 X99.943 Y85.399 E0.17491
G1 X100.320 Y85.349 E0.01193
G1 X100.320 Y79.802 E0.17394
G1 X100.104 Y79.253 E0.01847
G1 X99.647 Y78.796 E0.02030
G1 X99.098 Y78.580 E0.01847
G1 X89.402 Y78.580 E0.30403
G1 X88.946 Y78.734 E0.01508
G1 X88.419 Y79.225 E0.02258
G1 X88.216 Y79.620 E0.01393
G1 X88.180 Y79.802 E0.00580
G1 X88.180 Y85.349 E0.17394
G1 X87.803 Y85.231 E0.01239
G1 X87.803 Y79.792 E0.17053
G1 X87.864 Y79.484 E0.00985
G1 X88.098 Y79.021 E0.01626
G1 X88.744 Y78.415 E0.02778
G1 X89.102 Y78.258 E0.01225
G1 X89.392 Y78.203 E0.00927
G1 X99.108 Y78.203 E0.30461
G1 X99.691 Y78.379 E0.01911
G1 X99.864 Y78.487 E0.00639
G1 X100.485 Y79.144 E0.02835
G1 X100.642 Y79.502 E0.01225
G1 X100.696 Y79.774 E0.00870
G1 X100.697 Y85.231 E0.17112
G1 X101.071 Y85.076 E0.01271
G1 X101.065 Y79.677 E0.16929
G1 X100.989 Y79.353 E0.01044
G1 X100.801 Y78.939 E0.01427
G1 X100.630 Y78.708 E0.00899
G1 X100.077 Y78.176 E0.02406
G1 X99.547 Y77.911 E0.01859
G1 X99.269 Y77.841 E0.00899
G1 X89.351 Y77.828 E0.31097
G1 X88.979 Y77.902 E0.01188
G1 X88.546 Y78.094 E0.01485
G1 X88.308 Y78.270 E0.00928
G1 X87.804 Y78.786 E0.02262
G1 X87.645 Y79.035 E0.00928
G1 X87.441 Y79.631 E0.01974
G1 X87.426 Y85.075 E0.17069
G1 X87.049 Y84.919 E0.01280
G1 X87.071 Y79.560 E0.16803
G1 X87.311 Y78.860 E0.02321
G1 X87.511 Y78.548 E0.01160
G1 X88.053 Y77.992 E0.02436
G1 X88.351 Y77.772 E0.01160
G1 X88.872 Y77.540 E0.01789
G1 X89.330 Y77.451 E0.01463
G1 X99.133 Y77.449 E0.30737
G1 X99.628 Y77.540 E0.01578
G1 X100.165 Y77.782 E0.01847
G1 X100.450 Y77.995 E0.01117
G1 X101.033 Y78.608 E0.02652
G1 X101.335 Y79.202 E0.02090
G1 X101.438 Y79.619 E0.01348
G1 X101.451 Y84.919 E0.16616
G1 X101.828 Y84.757 E0.01287
G1 X101.828 Y79.784 E0.15591
G1 X101.753 Y79.270 E0.01630
G1 X101.526 Y78.691 E0.01949
G1 X101.179 Y78.191 E0.01911
G1 X100.709 Y77.721 E0.02082
G1 X100.344 Y77.449 E0.01428
G1 X99.736 Y77.179 E0.02086
G1 X99.146 Y77.073 E0.01882
G1 X89.301 Y77.075 E0.30867
G1 X88.757 Y77.181 E0.01738
G1 X88.375 Y77.334 E0.01291
G1 X87.799 Y77.713 E0.02162
G1 X87.217 Y78.312 E0.02617
G1 X86.978 Y78.683 E0.01385
G1 X86.701 Y79.490 E0.02675
G1 X86.672 Y84.757 E0.16515
;WIPE_START
G1 F8640.000
G1 X86.690 Y81.465 E-0.76000
;WIPE_END
G1 E-0.04000 F2100.000
G1 Z0.600000 F10800.000
G1 X99.189 Y124.502
G1 Z0.200000
G1 E0.80000 F2100.000
G1 F1200.000
G1 X99.189 Y130.068 E0.17451
G1 X98.968 Y130.289 E0.00979
G1 X89.532 Y130.289 E0.29584
G1 X89.311 Y130.068 E0.00979
G1 X89.311 Y124.502 E0.17451
G1 X88.934 Y124.552 E0.01193
G1 X88.934 Y130.143 E0.17531
G1 X88.992 Y130.281 E0.00470
G1 X89.319 Y130.608 E0.01450
G1 X89.457 Y130.666 E0.00470
G1 X99.043 Y130.666 E0.30054
G1 X99.181 Y130.608 E0.00470
G1 X99.508 Y130.281 E0.01450
G1 X99.566 Y130.143 E0.00470
G1 X99.566 Y124.552 E0.17531
G1 X99.943 Y124.601 E0.01193
G1 X99.943 Y130.180 E0.17491
G1 X99.801 Y130.522 E0.01160
G1 X99.360 Y130.942 E0.01912
G1 X99.080 Y131.043 E0.00933
G1 X89.420 Y131.043 E0.30287
G1 X89.140 Y130.942 E0.00933
G1 X88.699 Y130.522 E0.01912
G1 X88.557 Y130.180 E0.01160
G1 X88.557 Y124.601 E0.17491
G1 X88.180 Y124.651 E0.01193
G1 X88.180 Y130.198 E0.17394
G1 X88.216 Y130.380 E0.00580
G1 X88.419 Y130.775 E0.01393
G1 X88.979 Y131.284 E0.02371
G1 X89.402 Y131.420 E0.01393
G1 X99.098 Y131.420 E0.30403
G1 X99.521 Y131.284 E0.01393
G1 X100.081 Y130.775 E0.02371
G1 X100.284 Y130.380 E0.01393
G1 X100.320 Y130.198 E0.00580
G1 X100.320 Y124.651 E0.17394
G1 X100.697 Y124.769 E0.01238
G1 X100.696 Y130.226 E0.17112
G1 X100.642 Y130.498 E0.00870
G1 X100.485 Y130.856 E0.01225
G1 X99.879 Y131.502 E0.02778
G1 X99.691 Y131.621 E0.00697
G1 X99.108 Y131.797 E0.01911
G1 X89.392 Y131.797 E0.30461
G1 X88.809 Y131.621 E0.01911
G1 X88.621 Y131.502 E0.00697
G1 X88.015 Y130.856 E0.02778
G1 X87.858 Y130.498 E0.01225
G1 X87.803 Y130.208 E0.00927
G1 X87.803 Y124.769 E0.17053
G1 X87.426 Y124.925 E0.01280
G1 X87.441 Y130.369 E0.17069
G1 X87.694 Y131.054 E0.02289
G1 X87.870 Y131.292 E0.00928
G1 X88.386 Y131.796 E0.02262
G1 X88.635 Y131.955 E0.00928
G1 X89.231 Y132.159 E0.01974
G1 X99.121 Y132.174 E0.31010
G1 X99.547 Y132.089 E0.01360
G1 X100.107 Y131.802 E0.01973
G1 X100.630 Y131.292 E0.02291
G1 X100.801 Y131.061 E0.00899
G1 X100.989 Y130.647 E0.01427
G1 X101.065 Y130.323 E0.01044
G1 X101.071 Y124.924 E0.16929
G1 X101.447 Y125.080 E0.01277
G1 X101.440 Y130.367 E0.16578
G1 X101.343 Y130.776 E0.01319
G1 X101.118 Y131.265 E0.01687
G1 X100.460 Y131.995 E0.03082
G1 X100.036 Y132.291 E0.01621
G1 X99.676 Y132.443 E0.01225
G1 X99.138 Y132.550 E0.01722
G1 X89.385 Y132.551 E0.30577
G1 X88.819 Y132.442 E0.01808
G1 X88.460 Y132.289 E0.01225
G1 X88.148 Y132.089 E0.01160
G1 X87.592 Y131.547 E0.02436
G1 X87.355 Y131.222 E0.01261
G1 X87.070 Y130.435 E0.02622
G1 X87.049 Y125.081 E0.16788
G1 X86.672 Y125.243 E0.01287
G1 X86.672 Y130.225 E0.15620
G1 X86.757 Y130.766 E0.01716
G1 X86.929 Y131.215 E0.01508
G1 X87.313 Y131.801 E0.02197
G1 X87.912 Y132.383 E0.02617
G1 X88.283 Y132.622 E0.01385
G1 X89.090 Y132.899 E0.02675
G1 X99.155 Y132.927 E0.31559
G1 X99.772 Y132.810 E0.01968
G1 X100.507 Y132.444 E0.02575
G1 X101.168 Y131.821 E0.02847
G1 X101.556 Y131.248 E0.02169
G1 X101.762 Y130.692 E0.01862
G1 X101.828 Y130.216 E0.01507
G1 X101.828 Y125.243 E0.15591
G1 X102.205 Y125.533 E0.01490
G1 X102.205 Y130.217 E0.14689
G1 X102.115 Y130.833 E0.01951
G1 X101.862 Y131.481 E0.02181
G1 X101.653 Y131.821 E0.01252
G1 X100.982 Y132.540 E0.03085
G1 X100.299 Y133.002 E0.02584
G1 X99.471 Y133.272 E0.02731
G1 X89.370 Y133.305 E0.31670
G1 X88.563 Y133.151 E0.02577
G1 X88.106 Y132.955 E0.01559
G1 X87.682 Y132.682 E0.01581
G1 X87.009 Y132.027 E0.02943
G1 X86.689 Y131.576 E0.01736
G1 X86.394 Y130.869 E0.02401
G1 X86.295 Y130.230 E0.02027
G1 X86.295 Y125.532 E0.14729
G1 X85.918 Y125.822 E0.01490
G1 X85.918 Y130.237 E0.13843
G1 X86.030 Y130.966 E0.02313
G1 X86.234 Y131.505 E0.01808
G1 X86.726 Y132.276 E0.02867
G1 X87.449 Y132.978 E0.03160
G1 X87.863 Y133.253 E0.01559
G1 X88.434 Y133.505 E0.01957
G1 X88.950 Y133.640 E0.01671
G1 X89.364 Y133.682 E0.01305
G1 X93.779 Y133.681 E0.13843
G1 X93.490 Y134.058 E0.01489
G1 X89.351 Y134.059 E0.12977
G1 X88.574 Y133.945 E0.02462
G1 X87.685 Y133.585 E0.03006
G1 X87.215 Y133.274 E0.01768
G1 X86.444 Y132.526 E0.03367
G1 X86.027 Y131.938 E0.02261
G1 X85.667 Y131.070 E0.02947
G1 X85.541 Y130.245 E0.02617
G1 X85.541 Y126.111 E0.12961
G1 X85.164 Y126.593 E0.01919
G1 X85.164 Y130.252 E0.11470
G1 X85.203 Y130.701 E0.01416
G1 X85.422 Y131.516 E0.02646
G1 X85.691 Y132.108 E0.02038
G1 X86.153 Y132.766 E0.02521
G1 X86.989 Y133.576 E0.03649
G1 X87.506 Y133.917 E0.01943
G1 X88.175 Y134.214 E0.02295
G1 X88.811 Y134.382 E0.02062
G1 X89.343 Y134.436 E0.01675
G1 X93.008 Y134.435 E0.11492
G1 X92.520 Y134.810 E0.01929
G1 X89.202 Y134.808 E0.10405
G1 X88.544 Y134.713 E0.02084
G1 X88.015 Y134.556 E0.01730
G1 X87.318 Y134.244 E0.02393
G1 X86.467 Y133.622 E0.03306
