; generated by SuperSlicer 2.3.55 on 2021-06-22 at 17:42:54 UTC

; 

; external perimeters extrusion width = 0.45mm
; perimeters extrusion width = 0.45mm
; infill extrusion width = 0.45mm
; solid infill extrusion width = 0.45mm
; top infill extrusion width = 0.40mm
; support material extrusion width = 0.35mm
; first layer extrusion width = 0.42mm

; object:{"name":"backfinger","id":"backfinger.STL id:0 copy 0","object_center":[125.000000,95.000000,0.000000],"boundingbox_center":[125.000000,95.000000,4.678517],"boundingbox_size":[105.000000,26.709999,9.357035]}
; object:{"name":"contact","id":"contact.STL id:1 copy 0","object_center":[125.000000,121.354999,0.000000],"boundingbox_center":[125.000000,121.354999,3.000000],"boundingbox_size":[32.099998,14.000000,6.000000]}
; Total objects to print: 2
M486 T2
; plater:{"center":[125.000000,105.000000,0.000000],"boundingbox_center":[125.000000,105.000000,4.678517],"boundingbox_size":[105.000000,46.709999,9.357035]}

M73 P0 R44
M73 Q0 S45
;TYPE:Custom
M862.3 P "MK3S" ; printer model check
M862.1 P0.4 ; nozzle diameter check
M115 U3.9.2 ; tell printer latest fw version
G90 ; use absolute coordinates
M83 ; extruder relative mode
M104 S215 ; set extruder temp
M140 S60 ; set bed temp
M190 S60 ; wait for bed temp
M109 S215 ; wait for extruder temp
G28 W ; home all without mesh bed level
G80 ; mesh bed leveling
G1 Y-3.0 F1000.0 ; go outside print area
G92 E0.0
G1 X60.0 E9.0 F1000.0 ; intro line
G1 X100.0 E12.5 F1000.0 ; intro line
G92 E0.0
M221 S95

; Don't change E values below. Excessive value can damage the printer.

M107
G21 ; set units to millimeters
G90 ; use absolute coordinates
M83 ; use relative distances for extrusion
M900 K0.05 ; Filament gcode LA 1.5
M900 K30 ; Filament gcode LA 1.0
;LAYER_CHANGE
;Z:0.2
;HEIGHT:0.2
;BEFORE_LAYER_CHANGE
;0.2


G1 E-0.80000 F2100.000
G1 Z0.400000 F10800.000
;AFTER_LAYER_CHANGE
;0.2
G1 X68.150 Y83.408
G1 Z0.200000
G1 E0.80000 F2100.000
;TYPE:Skirt
;WIDTH:0.42
G1 F1200.000
G1 X68.895 Y82.834 E0.02947
G1 X69.708 Y82.363 E0.02947
G1 X70.582 Y81.999 E0.02968
G1 X71.704 Y81.715 E0.03631
G1 X72.851 Y81.615 E0.03610
G1 X129.660 Y81.615 E1.78120
G1 X177.410 Y83.318 E1.49810
G1 X178.533 Y83.456 E0.03548
G1 X179.621 Y83.768 E0.03548
G1 X180.442 Y84.136 E0.02823
G1 X181.211 Y84.603 E0.02823
G1 X181.901 Y85.150 E0.02760
G1 X182.583 Y85.835 E0.03029
G1 X183.125 Y86.529 E0.02760
G1 X183.581 Y87.290 E0.02781
G1 X183.938 Y88.095 E0.02760
G1 X184.194 Y88.937 E0.02760
G1 X184.387 Y90.472 E0.04850
G1 X184.387 Y99.546 E0.28450
G1 X184.261 Y100.750 E0.03796
G1 X183.934 Y101.916 E0.03796
G1 X183.420 Y103.004 E0.03775
G1 X182.726 Y103.997 E0.03796
G1 X181.815 Y104.926 E0.04081
G1 X180.832 Y105.644 E0.03817
G1 X141.580 Y127.640 E1.41077
G1 X140.688 Y128.011 E0.03030
G1 X120.264 Y134.872 E0.67555
G1 X118.260 Y135.354 E0.06463
G1 X116.400 Y135.533 E0.05858
G1 X114.285 Y135.444 E0.06636
G1 X113.025 Y135.239 E0.04005
G1 X111.869 Y134.940 E0.03743
G1 X110.099 Y134.281 E0.05920
G1 X108.266 Y133.283 E0.06546
G1 X68.740 Y107.059 E1.48724
G1 X67.853 Y106.315 E0.03631
G1 X67.093 Y105.433 E0.03651
G1 X66.503 Y104.475 E0.03527
G1 X65.996 Y103.294 E0.04030
G1 X65.717 Y102.204 E0.03527
G1 X65.612 Y101.078 E0.03548
G1 X65.612 Y88.938 E0.38064
G1 X65.772 Y87.512 E0.04499
G1 X66.041 Y86.577 E0.03051
G1 X66.465 Y85.600 E0.03340
G1 X66.923 Y84.809 E0.02864
G1 X67.483 Y84.079 E0.02885
G1 X68.108 Y83.450 E0.02780
;WIPE_START
G1 F8640.000
G1 X68.895 Y82.834 E-0.23077
G1 X69.708 Y82.363 E-0.21703
G1 X70.582 Y81.999 E-0.21856
G1 X70.975 Y81.900 E-0.09364
;WIPE_END
G1 E-0.04000 F2100.000
G1 Z1.000000 F10800.000
G1 X67.332 Y89.224
G1 Z0.200000
G1 E0.80000 F2100.000
G1 F1200.000
G1 X67.428 Y88.022 E0.03781
G1 X67.647 Y87.196 E0.02681
G1 X68.002 Y86.368 E0.02822
G1 X68.361 Y85.755 E0.02229
G1 X68.801 Y85.201 E0.02219
G1 X69.209 Y84.791 E0.01814
G1 X70.223 Y84.069 E0.03901
G1 X71.266 Y83.597 E0.03591
G1 X72.389 Y83.357 E0.03600
G1 X74.080 Y83.336 E0.05301
;WIPE_START
G1 F8640.000
G1 X72.389 Y83.357 E-0.39041
G1 X71.266 Y83.597 E-0.26509
G1 X70.854 Y83.783 E-0.10450
;WIPE_END
G1 E-0.04000 F2100.000
G1 Z0.600000 F10800.000
G1 X75.178 Y83.713
G1 Z0.200000
M73 P0 R43
G1 E0.80000 F2100.000
G1 F1200.000
G1 X72.792 Y83.713 E0.07482
G1 X72.077 Y83.780 E0.02250
G1 X71.402 Y83.949 E0.02182
G1 X70.678 Y84.246 E0.02454
G1 X69.912 Y84.717 E0.02822
G1 X69.387 Y85.138 E0.02108
G1 X68.937 Y85.621 E0.02071
G1 X68.557 Y86.145 E0.02028
G1 X68.306 Y86.608 E0.01653
G1 X67.883 Y87.714 E0.03712
G1 X67.729 Y88.582 E0.02765
G1 X67.710 Y90.840 E0.07081
G1 X68.087 Y91.688 F10800.000
G1 F1200.000
G1 X68.104 Y88.617 E0.09630
G1 X68.286 Y87.671 E0.03021
G1 X68.486 Y87.124 E0.01826
G1 X69.019 Y86.129 E0.03539
G1 X69.644 Y85.414 E0.02978
G1 X70.124 Y85.029 E0.01930
G1 X70.851 Y84.581 E0.02675
G1 X71.521 Y84.307 E0.02270
G1 X72.141 Y84.151 E0.02005
G1 X72.794 Y84.090 E0.02054
G1 X75.915 Y84.090 E0.09787
G1 X76.406 Y84.467 E0.01942
G1 X72.797 Y84.467 E0.11318
G1 X72.258 Y84.514 E0.01695
G1 X71.332 Y84.774 E0.03017
G1 X70.817 Y85.031 E0.01805
G1 X70.163 Y85.467 E0.02463
G1 X69.688 Y85.906 E0.02028
G1 X69.317 Y86.361 E0.01840
G1 X69.020 Y86.861 E0.01825
G1 X68.613 Y87.902 E0.03504
G1 X68.480 Y88.652 E0.02388
G1 X68.464 Y92.180 E0.11061
G1 X68.841 Y92.671 E0.01942
G1 X68.841 Y88.982 E0.11567
G1 X68.974 Y88.015 E0.03060
G1 X69.353 Y87.040 E0.03281
G1 X69.627 Y86.575 E0.01692
G1 X69.968 Y86.158 E0.01688
G1 X70.395 Y85.764 E0.01821
G1 X71.012 Y85.354 E0.02324
G1 X71.477 Y85.122 E0.01630
G1 X72.427 Y84.871 E0.03079
G1 X76.889 Y84.844 E0.13991
G1 X77.178 Y85.221 E0.01490
G1 X72.480 Y85.244 E0.14731
G1 X71.632 Y85.466 E0.02747
G1 X71.233 Y85.661 E0.01394
G1 X70.636 Y86.054 E0.02241
G1 X70.249 Y86.410 E0.01649
G1 X69.937 Y86.790 E0.01540
G1 X69.693 Y87.202 E0.01501
G1 X69.423 Y87.829 E0.02141
M73 P1 R43
G1 X69.264 Y88.464 E0.02051
G1 X69.218 Y88.982 E0.01632
G1 X69.218 Y93.005 E0.12613
G1 X69.595 Y93.294 E0.01490
G1 X69.629 Y88.569 E0.14816
M73 Q1 S45
G1 X69.778 Y87.959 E0.01971
G1 X70.027 Y87.379 E0.01976
G1 X70.246 Y87.006 E0.01358
G1 X70.866 Y86.353 E0.02822
G1 X71.775 Y85.815 E0.03313
G1 X72.190 Y85.683 E0.01366
G1 X72.800 Y85.598 E0.01932
G1 X77.467 Y85.598 E0.14633
G1 X77.757 Y85.976 E0.01490
G1 X72.588 Y85.991 E0.16207
G1 X71.927 Y86.161 E0.02139
G1 X71.619 Y86.309 E0.01073
G1 X71.094 Y86.653 E0.01967
G1 X70.801 Y86.924 E0.01252
G1 X70.368 Y87.540 E0.02363
G1 X70.135 Y88.078 E0.01838
G1 X69.998 Y88.647 E0.01833
G1 X69.972 Y93.584 E0.15479
G1 X70.349 Y93.781 E0.01334
G1 X70.349 Y88.985 E0.15038
G1 X70.429 Y88.413 E0.01812
G1 X70.708 Y87.703 E0.02390
G1 X70.868 Y87.434 E0.00983
G1 X71.362 Y86.924 E0.02226
G1 X71.809 Y86.635 E0.01671
G1 X72.390 Y86.410 E0.01953
G1 X72.804 Y86.353 E0.01309
G1 X77.919 Y86.353 E0.16038
G1 X78.075 Y86.730 E0.01280
G1 X72.806 Y86.730 E0.16522
G1 X72.505 Y86.770 E0.00951
G1 X72.001 Y86.959 E0.01689
G1 X71.365 Y87.424 E0.02467
G1 X71.050 Y87.861 E0.01689
G1 X70.851 Y88.316 E0.01561
G1 X70.726 Y88.986 E0.02134
G1 X70.726 Y93.937 E0.15526
G1 X71.106 Y94.095 E0.01289
G1 X71.108 Y88.902 E0.16282
G1 X71.217 Y88.412 E0.01571
G1 X71.398 Y88.007 E0.01392
G1 X71.778 Y87.554 E0.01853
G1 X72.337 Y87.215 E0.02048
G1 X72.809 Y87.107 E0.01520
G1 X78.231 Y87.107 E0.17001
G1 X78.349 Y87.484 E0.01239
G1 X72.816 Y87.484 E0.17350
G1 X72.401 Y87.600 E0.01349
G1 X72.032 Y87.836 E0.01375
G1 X71.733 Y88.181 E0.01432
G1 X71.569 Y88.547 E0.01258
G1 X71.483 Y88.939 E0.01257
G1 X71.482 Y94.240 E0.16620
G1 X71.858 Y94.289 E0.01190
G1 X71.858 Y88.974 E0.16665
G1 X71.922 Y88.680 E0.00944
G1 X72.100 Y88.304 E0.01305
G1 X72.247 Y88.145 E0.00678
G1 X72.776 Y87.869 E0.01871
G1 X78.400 Y87.868 E0.17634
G1 X78.448 Y88.238 E0.01169
G1 X72.856 Y88.238 E0.17534
G1 X72.474 Y88.448 E0.01367
G1 X72.277 Y88.808 E0.01288
G1 X72.234 Y89.004 E0.00630
G1 X72.234 Y94.339 E0.16726
G1 X72.611 Y94.389 E0.01193
G1 X72.611 Y89.024 E0.16819
G1 X72.724 Y88.735 E0.00973
G1 X72.911 Y88.615 E0.00696
G1 X78.498 Y88.615 E0.17519
;WIPE_START
G1 F8640.000
G1 X75.207 Y88.615 E-0.76000
;WIPE_END
G1 E-0.04000 F2100.000
G1 Z0.600000 F10800.000
G1 X78.369 Y101.385
G1 Z0.200000
G1 E0.80000 F2100.000
G1 F1200.000
G1 X72.911 Y101.385 E0.17115
G1 X72.724 Y101.265 E0.00696
G1 X72.611 Y100.976 E0.00973
G1 X72.611 Y95.378 E0.17551
G1 X72.234 Y95.428 E0.01193
G1 X72.234 Y100.996 E0.17458
G1 X72.264 Y101.154 E0.00504
G1 X72.474 Y101.552 E0.01412
G1 X72.856 Y101.762 E0.01367
G1 X78.319 Y101.762 E0.17130
G1 X78.270 Y102.139 E0.01193
G1 X72.829 Y102.139 E0.17059
G1 X72.570 Y102.063 E0.00846
G1 X72.206 Y101.819 E0.01374
G1 X72.071 Y101.650 E0.00678
G1 X71.898 Y101.243 E0.01387
G1 X71.857 Y101.006 E0.00756
G1 X71.858 Y95.477 E0.17334
G1 X71.481 Y95.527 E0.01190
G1 X71.480 Y101.011 E0.17195
G1 X71.580 Y101.481 E0.01506
G1 X71.746 Y101.842 E0.01248
G1 X71.949 Y102.095 E0.01016
G1 X72.401 Y102.400 E0.01711
G1 X72.816 Y102.516 E0.01349
G1 X78.196 Y102.516 E0.16870
G1 X78.040 Y102.893 E0.01280
G1 X72.809 Y102.893 E0.16402
G1 X72.238 Y102.740 E0.01853
G1 X71.696 Y102.375 E0.02049
G1 X71.418 Y102.028 E0.01395
G1 X71.232 Y101.625 E0.01393
G1 X71.103 Y101.013 E0.01960
G1 X71.105 Y95.644 E0.16835
G1 X70.726 Y95.801 E0.01287
G1 X70.726 Y101.014 E0.16347
G1 X70.884 Y101.770 E0.02421
G1 X71.224 Y102.412 E0.02278
G1 X71.446 Y102.657 E0.01038
G1 X71.978 Y103.027 E0.02028
G1 X72.512 Y103.232 E0.01794
G1 X72.799 Y103.270 E0.00908
G1 X77.884 Y103.270 E0.15944
G1 X77.728 Y103.647 E0.01279
G1 X72.787 Y103.647 E0.15491
G1 X72.426 Y103.599 E0.01141
G1 X71.786 Y103.352 E0.02152
G1 X71.277 Y103.010 E0.01924
G1 X70.942 Y102.663 E0.01512
G1 X70.780 Y102.431 E0.00888
G1 X70.436 Y101.616 E0.02770
G1 X70.349 Y101.016 E0.01901
G1 X70.349 Y95.957 E0.15863
G1 X69.972 Y96.119 E0.01287
G1 X69.999 Y101.356 E0.16420
G1 X70.197 Y102.082 E0.02360
G1 X70.457 Y102.626 E0.01889
G1 X70.847 Y103.126 E0.01987
G1 X71.588 Y103.673 E0.02890
G1 X71.883 Y103.821 E0.01036
G1 X72.340 Y103.966 E0.01503
G1 X72.749 Y104.023 E0.01294
G1 X77.489 Y104.023 E0.14861
G1 X77.200 Y104.400 E0.01489
G1 X72.733 Y104.400 E0.14004
G1 X72.256 Y104.334 E0.01510
G1 X71.740 Y104.170 E0.01699
G1 X71.392 Y103.995 E0.01220
G1 X70.578 Y103.390 E0.03180
G1 X70.136 Y102.824 E0.02251
G1 X69.850 Y102.231 E0.02065
G1 X69.626 Y101.411 E0.02666
G1 X69.595 Y96.409 E0.15685
G1 X69.218 Y96.698 E0.01490
G1 X69.255 Y101.482 E0.15001
G1 X69.361 Y101.974 E0.01578
G1 X69.701 Y102.813 E0.02838
G1 X70.229 Y103.568 E0.02890
G1 X70.551 Y103.878 E0.01400
G1 X71.197 Y104.317 E0.02448
G1 X71.595 Y104.518 E0.01399
G1 X72.172 Y104.701 E0.01900
G1 X72.708 Y104.776 E0.01695
G1 X76.911 Y104.776 E0.13178
G1 X76.514 Y105.153 E0.01715
G1 X72.432 Y105.130 E0.12800
G1 X71.481 Y104.879 E0.03082
G1 X71.002 Y104.640 E0.01678
G1 X70.326 Y104.181 E0.02565
G1 X69.947 Y103.818 E0.01645
G1 X69.364 Y102.982 E0.03196
G1 X69.002 Y102.089 E0.03020
G1 X68.882 Y101.540 E0.01763
G1 X68.841 Y101.026 E0.01616
G1 X68.841 Y96.987 E0.12662
G1 X68.464 Y97.470 E0.01920
G1 X68.464 Y101.028 E0.11158
G1 X68.510 Y101.598 E0.01794
G1 X68.646 Y102.215 E0.01980
G1 X69.042 Y103.181 E0.03274
G1 X69.664 Y104.067 E0.03395
G1 X70.086 Y104.472 E0.01834
G1 X70.807 Y104.963 E0.02734
G1 X71.337 Y105.228 E0.01860
G1 X72.007 Y105.437 E0.02199
G1 X72.647 Y105.528 E0.02026
G1 X76.025 Y105.528 E0.10593
G1 X75.469 Y105.905 E0.02106
G1 X72.625 Y105.905 E0.08916
G1 X71.924 Y105.805 E0.02221
G1 X71.478 Y105.679 E0.01453
G1 X70.611 Y105.285 E0.02984
G1 X69.848 Y104.764 E0.02898
G1 X69.416 Y104.356 E0.01865
G1 X68.943 Y103.758 E0.02389
G1 X68.427 Y102.736 E0.03591
G1 X68.137 Y101.656 E0.03505
G1 X68.087 Y101.031 E0.01967
G1 X68.087 Y97.961 E0.09625
G1 X67.710 Y98.698 F10800.000
G1 F1200.000
G1 X67.710 Y101.055 E0.07391
G1 X67.768 Y101.734 E0.02137
G1 X67.940 Y102.486 E0.02418
G1 X68.314 Y103.409 E0.03124
G1 X68.633 Y103.973 E0.02030
G1 X69.137 Y104.610 E0.02547
G1 X69.627 Y105.070 E0.02108
G1 X70.436 Y105.620 E0.03065
G1 X71.365 Y106.039 E0.03196
G1 X71.838 Y106.172 E0.01543
G1 X72.582 Y106.280 E0.02354
G1 X74.563 Y106.280 E0.06212
;WIPE_START
G1 F8640.000
G1 X72.582 Y106.280 E-0.45748
G1 X71.838 Y106.172 E-0.17338
G1 X71.365 Y106.039 E-0.11360
G1 X71.303 Y106.011 E-0.01555
;WIPE_END
G1 E-0.04000 F2100.000
G1 Z0.600000 F10800.000
G1 X70.298 Y105.974
G1 Z0.200000
G1 E0.80000 F2100.000
G1 F1200.000
G1 X69.390 Y105.364 E0.03432
G1 X68.859 Y104.864 E0.02286
G1 X68.317 Y104.180 E0.02736
G1 X67.973 Y103.569 E0.02199
G1 X67.580 Y102.599 E0.03281
G1 X67.396 Y101.794 E0.02589
G1 X67.333 Y101.060 E0.02309
G1 X67.333 Y99.795 E0.03968
;WIPE_START
G1 F8640.000
G1 X67.333 Y101.060 E-0.29221
G1 X67.396 Y101.794 E-0.17006
G1 X67.580 Y102.599 E-0.19069
G1 X67.754 Y103.029 E-0.10705
;WIPE_END
G1 E-0.04000 F2100.000
G1 Z0.600000 F10800.000
G1 X112.106 Y110.695
G1 Z0.200000
G1 E0.80000 F2100.000
G1 F1200.000
G1 X113.746 Y110.237 E0.05341
G1 X114.806 Y110.077 E0.03362
G1 X116.578 Y110.036 E0.05557
G1 X118.222 Y110.249 E0.05197
G1 X119.856 Y110.715 E0.05327
G1 X120.882 Y111.158 E0.03505
G1 X121.282 Y111.786 E0.02334
G1 X119.847 Y111.112 E0.04972
G1 X118.894 Y110.799 E0.03146
G1 X117.237 Y110.473 E0.05294
G1 X115.967 Y110.396 E0.03989
G1 X114.844 Y110.452 E0.03527
G1 X113.080 Y110.778 E0.05622
G1 X111.652 Y111.285 E0.04752
G1 X111.324 Y111.850 E0.02048
G1 X112.314 Y111.420 E0.03385
G1 X113.877 Y110.979 E0.05093
G1 X114.881 Y110.827 E0.03182
G1 X115.965 Y110.773 E0.03405
G1 X117.185 Y110.847 E0.03831
G1 X118.788 Y111.161 E0.05120
G1 X119.714 Y111.465 E0.03057
G1 X120.618 Y111.860 E0.03092
G1 X121.525 Y112.371 E0.03266
G1 X121.744 Y112.900 E0.01793
G1 X121.650 Y112.900 E0.00294
G1 X120.471 Y112.208 E0.04286
G1 X119.627 Y111.835 E0.02894
G1 X118.706 Y111.531 E0.03041
G1 X117.133 Y111.220 E0.05026
G1 X115.964 Y111.150 E0.03673
G1 X114.918 Y111.202 E0.03284
G1 X113.943 Y111.351 E0.03090
G1 X112.433 Y111.778 E0.04922
G1 X111.103 Y112.382 E0.04578
G1 X110.880 Y112.947 E0.01904
G1 X111.517 Y112.584 E0.02297
G1 X112.458 Y112.169 E0.03226
G1 X113.349 Y111.878 E0.02939
G1 X114.944 Y111.579 E0.05089
G1 X116.489 Y111.542 E0.04845
G1 X117.936 Y111.730 E0.04576
G1 X119.491 Y112.187 E0.05081
G1 X120.333 Y112.560 E0.02886
G1 X121.538 Y113.277 E0.04398
G1 X121.796 Y113.277 E0.00808
G1 X121.846 Y113.654 E0.01193
G1 X121.426 Y113.654 E0.01315
G1 X120.188 Y112.908 E0.04534
G1 X119.356 Y112.539 E0.02854
G1 X118.507 Y112.259 E0.02803
G1 X117.029 Y111.967 E0.04723
G1 X115.961 Y111.904 E0.03357
G1 X114.983 Y111.954 E0.03069
G1 X114.054 Y112.097 E0.02947
G1 X112.591 Y112.521 E0.04779
G1 X111.686 Y112.921 E0.03102
G1 X110.817 Y113.423 E0.03145
G1 X110.751 Y113.924 E0.01584
G1 X111.849 Y113.261 E0.04021
G1 X112.723 Y112.874 E0.02997
G1 X113.555 Y112.603 E0.02741
G1 X115.022 Y112.329 E0.04682
G1 X115.959 Y112.281 E0.02941
G1 X116.890 Y112.330 E0.02925
G1 X117.774 Y112.467 E0.02803
G1 X119.110 Y112.851 E0.04358
G1 X120.108 Y113.290 E0.03419
G1 X121.306 Y114.031 E0.04418
G1 X121.895 Y114.031 E0.01846
G1 X121.934 Y114.408 E0.01188
G1 X121.176 Y114.408 E0.02375
G1 X119.851 Y113.583 E0.04893
G1 X118.996 Y113.211 E0.02925
G1 X118.238 Y112.965 E0.02500
G1 X116.853 Y112.705 E0.04418
G1 X115.957 Y112.658 E0.02812
G1 X115.060 Y112.704 E0.02817
G1 X114.191 Y112.839 E0.02759
G1 X112.852 Y113.229 E0.04370
G1 X112.020 Y113.597 E0.02854
G1 X110.805 Y114.344 E0.04471
G1 X110.702 Y114.427 E0.00417
G1 X110.759 Y114.865 E0.01386
G1 X111.453 Y114.356 E0.02698
G1 X112.189 Y113.934 E0.02662
G1 X112.986 Y113.581 E0.02730
G1 X114.258 Y113.210 E0.04156
M73 Q1 S44
G1 X115.099 Y113.079 E0.02668
G1 X115.956 Y113.035 E0.02691
G1 X116.814 Y113.080 E0.02694
G1 X117.640 Y113.209 E0.02622
G1 X118.884 Y113.571 E0.04061
G1 X120.092 Y114.140 E0.04187
G1 X121.044 Y114.785 E0.03606
G1 X121.884 Y114.785 E0.02635
G1 X121.834 Y115.162 E0.01193
G1 X120.911 Y115.162 E0.02894
G1 X120.599 Y114.916 E0.01247
G1 X119.530 Y114.265 E0.03925
G1 X118.762 Y113.927 E0.02632
G1 X118.030 Y113.690 E0.02411
G1 X116.776 Y113.455 E0.04000
G1 X115.965 Y113.412 E0.02545
G1 X115.137 Y113.454 E0.02601
G1 X113.866 Y113.691 E0.04052
G1 X113.120 Y113.934 E0.02462
G1 X112.360 Y114.270 E0.02607
G1 X111.649 Y114.678 E0.02570
