; generated by SuperSlicer 2.3.56 on 2021-06-25 at 11:44:39 UTC

; 

; external perimeters extrusion width = 0.45mm
; perimeters extrusion width = 0.45mm
; infill extrusion width = 0.45mm
; solid infill extrusion width = 0.45mm
; top infill extrusion width = 0.40mm
; first layer extrusion width = 0.42mm

; object:{"name":"contact","id":"contact.STL id:0 copy 0","object_center":[120.989580,105.739800,0.000000],"boundingbox_center":[120.989580,105.739800,3.000000],"boundingbox_size":[33.379915,13.998688,6.000000]}
; Total objects to print: 1
M486 T1
; plater:{"center":[120.989580,105.739800,0.000000],"boundingbox_center":[120.989580,105.739800,3.000000],"boundingbox_size":[33.379915,13.998688,6.000000]}

M73 P0 R7
M73 Q0 S7
;TYPE:Custom
M862.3 P "MK3S" ; printer model check
M862.1 P0.4 ; nozzle diameter check
M115 U3.9.3 ; tell printer latest fw version
G90 ; use absolute coordinates
M83 ; extruder relative mode
M104 S215 ; set extruder temp
M140 S60 ; set bed temp
M190 S60 ; wait for bed temp
M109 S215 ; wait for extruder temp
G28 W ; home all without mesh bed level
G80 ; mesh bed leveling

G92 E0.0
M221 S95

; Don't change E values below. Excessive value can damage the printer.

M107
G21 ; set units to millimeters
G90 ; use absolute coordinates
M83 ; use relative distances for extrusion
M900 K0.05 ; Filament gcode LA 1.5
M900 K30 ; Filament gcode LA 1.0
;LAYER_CHANGE
;Z:0.2
;HEIGHT:0.2
;BEFORE_LAYER_CHANGE
;0.2


G1 E-0.80000 F2100.000
G1 Z0.400000 F10800.000
;AFTER_LAYER_CHANGE
;0.2
G1 X104.685 Y99.110
G1 Z0.200000
G1 E0.80000 F2100.000
;TYPE:Skirt
;WIDTH:0.42
G1 F1200.000
G1 X105.359 Y98.500 E0.02852
G1 X106.610 Y97.633 E0.04771
G1 X107.981 Y96.983 E0.04759
G1 X108.850 Y96.701 E0.02865
G1 X109.743 Y96.506 E0.02865
G1 X111.271 Y96.375 E0.04808
G1 X137.629 Y98.131 E0.82828
G1 X138.283 Y98.264 E0.02091
G1 X138.880 Y98.561 E0.02091
G1 X139.380 Y99.002 E0.02091
G1 X139.750 Y99.557 E0.02091
G1 X139.965 Y100.188 E0.02091
G1 X140.014 Y100.668 E0.01511
G1 X140.014 Y105.430 E0.14932
G1 X139.875 Y106.226 E0.02533
G1 X139.618 Y106.760 E0.01857
G1 X139.247 Y107.221 E0.01857
G1 X138.782 Y107.582 E0.01845
G1 X138.244 Y107.830 E0.01857
G1 X113.581 Y114.823 E0.80379
M73 P1 R7
M73 Q1 S7
G1 X112.159 Y115.066 E0.04524
G1 X111.064 Y115.102 E0.03434
G1 X109.664 Y114.962 E0.04412
G1 X108.255 Y114.597 E0.04561
G1 X106.863 Y113.988 E0.04767
G1 X106.079 Y113.516 E0.02868
G1 X105.312 Y112.942 E0.03001
G1 X104.225 Y111.877 E0.04771
G1 X103.658 Y111.156 E0.02877
G1 X103.172 Y110.392 E0.02840
G1 X102.524 Y109.011 E0.04783
G1 X102.111 Y107.550 E0.04759
G1 X101.978 Y106.646 E0.02865
G1 X101.934 Y105.734 E0.02865
G1 X102.059 Y104.217 E0.04771
G1 X102.427 Y102.742 E0.04767
G1 X102.762 Y101.891 E0.02868
G1 X103.199 Y101.039 E0.03001
G1 X104.068 Y99.790 E0.04771
G1 X104.644 Y99.155 E0.02689
G1 X104.923 Y99.408 F10800.000
G1 F1200.000
G1 X104.949 Y99.379 E0.00121
G1 X105.601 Y98.790 E0.02756
G1 X106.797 Y97.961 E0.04560
G1 X108.110 Y97.337 E0.04561
G1 X108.950 Y97.064 E0.02768
G1 X109.812 Y96.876 E0.02768
G1 X111.269 Y96.752 E0.04583
G1 X137.600 Y98.507 E0.82742
G1 X138.133 Y98.611 E0.01703
G1 X138.657 Y98.866 E0.01828
G1 X139.096 Y99.250 E0.01828
G1 X139.418 Y99.736 E0.01828
G1 X139.600 Y100.290 E0.01828
G1 X139.637 Y105.420 E0.16085
G1 X139.527 Y106.077 E0.02089
G1 X139.309 Y106.543 E0.01612
G1 X138.992 Y106.942 E0.01601
G1 X138.587 Y107.259 E0.01612
G1 X138.120 Y107.474 E0.01612
G1 X113.479 Y114.460 E0.80304
M73 P2 R7
M73 Q2 S7
G1 X112.117 Y114.691 E0.04332
G1 X111.082 Y114.726 E0.03248
G1 X109.736 Y114.592 E0.04241
G1 X108.405 Y114.250 E0.04309
G1 X107.054 Y113.663 E0.04618
G1 X106.297 Y113.208 E0.02768
G1 X105.589 Y112.681 E0.02768
G1 X104.544 Y111.670 E0.04561
G1 X103.679 Y110.505 E0.04549
G1 X103.248 Y109.735 E0.02768
G1 X102.895 Y108.926 E0.02768
G1 X102.491 Y107.529 E0.04561
G1 X102.354 Y106.616 E0.02893
G1 X102.312 Y105.735 E0.02768
G1 X102.430 Y104.285 E0.04560
G1 X102.782 Y102.870 E0.04573
G1 X103.104 Y102.048 E0.02766
G1 X103.526 Y101.227 E0.02893
G1 X104.356 Y100.033 E0.04561
G1 X104.883 Y99.452 E0.02458
; INIT printing object contact.STL id:0 copy 0
;WIPE_START
G1 F8640.000
G1 X104.949 Y99.379 E-0.02276
G1 X105.601 Y98.790 E-0.20297
G1 X106.797 Y97.961 E-0.33585
G1 X107.573 Y97.592 E-0.19842
;WIPE_END
G1 E-0.04000 F2100.000
G1 Z1.000000 F10800.000
; printing object contact.STL id:0 copy 0
M486 S0
G1 X108.284 Y102.725
G1 Z0.200000
G1 E0.80000 F2100.000
;TYPE:Internal perimeter
G1 F1200.000
G1 X108.130 Y102.887 E0.00700
G1 X107.985 Y103.057 E0.00700
G1 X107.849 Y103.234 E0.00700
G1 X107.723 Y103.418 E0.00700
G1 X107.606 Y103.608 E0.00700
G1 X107.500 Y103.804 E0.00700
G1 X107.404 Y104.006 E0.00700
G1 X107.318 Y104.212 E0.00700
G1 X107.244 Y104.423 E0.00700
G1 X107.180 Y104.637 E0.00700
G1 X107.128 Y104.854 E0.00700
G1 X107.087 Y105.073 E0.00700
G1 X107.058 Y105.295 E0.00700
G1 X107.041 Y105.517 E0.00700
G1 X107.035 Y105.740 E0.00700
G1 X107.041 Y105.964 E0.00700
G1 X107.058 Y106.186 E0.00700
G1 X107.087 Y106.407 E0.00700
G1 X107.128 Y106.627 E0.00700
G1 X107.180 Y106.844 E0.00700
G1 X107.244 Y107.058 E0.00700
G1 X107.318 Y107.269 E0.00700
G1 X107.404 Y107.475 E0.00700
G1 X107.500 Y107.676 E0.00700
G1 X107.606 Y107.873 E0.00700
G1 X107.723 Y108.063 E0.00700
G1 X107.849 Y108.247 E0.00700
G1 X107.985 Y108.424 E0.00700
G1 X108.130 Y108.594 E0.00700
G1 X108.284 Y108.756 E0.00700
G1 X108.446 Y108.910 E0.00700
G1 X108.616 Y109.055 E0.00700
G1 X108.793 Y109.190 E0.00700
G1 X108.977 Y109.317 E0.00700
G1 X109.167 Y109.434 E0.00700
G1 X109.363 Y109.540 E0.00700
G1 X109.565 Y109.636 E0.00700
G1 X109.771 Y109.722 E0.00700
G1 X109.982 Y109.796 E0.00700
G1 X110.196 Y109.860 E0.00700
G1 X110.413 Y109.912 E0.00700
G1 X110.632 Y109.952 E0.00700
G1 X110.854 Y109.982 E0.00700
G1 X111.076 Y109.999 E0.00700
G1 X111.299 Y110.005 E0.00700
G1 X111.523 Y109.999 E0.00700
G1 X111.745 Y109.982 E0.00700
G1 X111.967 Y109.952 E0.00700
G1 X112.186 Y109.912 E0.00700
G1 X112.403 Y109.860 E0.00700
G1 X112.617 Y109.796 E0.00700
G1 X112.828 Y109.722 E0.00700
G1 X113.034 Y109.636 E0.00700
G1 X113.236 Y109.540 E0.00700
G1 X113.432 Y109.434 E0.00700
G1 X113.622 Y109.317 E0.00700
G1 X113.806 Y109.190 E0.00700
G1 X113.983 Y109.055 E0.00700
G1 X114.153 Y108.910 E0.00700
G1 X114.315 Y108.756 E0.00700
G1 X114.469 Y108.594 E0.00700
G1 X114.614 Y108.424 E0.00700
G1 X114.750 Y108.247 E0.00700
G1 X114.876 Y108.063 E0.00700
G1 X114.993 Y107.873 E0.00700
G1 X115.099 Y107.676 E0.00700
G1 X115.195 Y107.475 E0.00700
G1 X115.281 Y107.269 E0.00700
G1 X115.355 Y107.058 E0.00700
G1 X115.419 Y106.844 E0.00700
G1 X115.471 Y106.627 E0.00700
G1 X115.512 Y106.408 E0.00700
G1 X115.541 Y106.186 E0.00700
G1 X115.558 Y105.964 E0.00700
G1 X115.564 Y105.740 E0.00700
G1 X115.558 Y105.517 E0.00700
G1 X115.541 Y105.295 E0.00700
G1 X115.512 Y105.073 E0.00700
G1 X115.471 Y104.854 E0.00700
G1 X115.419 Y104.637 E0.00700
G1 X115.355 Y104.423 E0.00700
G1 X115.281 Y104.212 E0.00700
G1 X115.195 Y104.006 E0.00700
G1 X115.099 Y103.804 E0.00700
G1 X114.993 Y103.608 E0.00700
G1 X114.876 Y103.418 E0.00700
G1 X114.750 Y103.234 E0.00700
G1 X114.614 Y103.057 E0.00700
G1 X114.469 Y102.887 E0.00700
G1 X114.315 Y102.725 E0.00700
G1 X114.153 Y102.571 E0.00700
G1 X113.983 Y102.426 E0.00700
G1 X113.806 Y102.290 E0.00700
G1 X113.622 Y102.164 E0.00700
G1 X113.432 Y102.047 E0.00700
G1 X113.236 Y101.941 E0.00700
G1 X113.034 Y101.845 E0.00700
G1 X112.828 Y101.759 E0.00700
G1 X112.617 Y101.685 E0.00700
G1 X112.403 Y101.621 E0.00700
G1 X112.186 Y101.569 E0.00700
G1 X111.967 Y101.528 E0.00700
G1 X111.745 Y101.499 E0.00700
G1 X111.523 Y101.482 E0.00700
G1 X111.299 Y101.476 E0.00700
G1 X111.076 Y101.482 E0.00700
G1 X110.854 Y101.499 E0.00700
G1 X110.632 Y101.528 E0.00700
G1 X110.413 Y101.569 E0.00700
G1 X110.196 Y101.621 E0.00700
G1 X109.982 Y101.685 E0.00700
G1 X109.771 Y101.759 E0.00700
G1 X109.565 Y101.845 E0.00700
G1 X109.363 Y101.941 E0.00700
G1 X109.167 Y102.047 E0.00700
G1 X108.977 Y102.164 E0.00700
G1 X108.793 Y102.290 E0.00700
G1 X108.616 Y102.426 E0.00700
G1 X108.446 Y102.571 E0.00700
G1 X108.327 Y102.684 E0.00512
G1 X108.587 Y102.957 F10800.000
G1 F1200.000
G1 X108.551 Y102.992 E0.00157
G1 X108.411 Y103.139 E0.00638
G1 X108.278 Y103.294 E0.00638
G1 X108.155 Y103.455 E0.00638
G1 X108.039 Y103.623 E0.00638
G1 X107.933 Y103.797 E0.00638
G1 X107.836 Y103.976 E0.00638
G1 X107.748 Y104.159 E0.00638
G1 X107.670 Y104.347 E0.00638
G1 X107.602 Y104.539 E0.00638
G1 X107.545 Y104.734 E0.00638
G1 X107.497 Y104.932 E0.00638
G1 X107.460 Y105.132 E0.00638
G1 X107.433 Y105.334 E0.00638
G1 X107.417 Y105.537 E0.00638
G1 X107.412 Y105.740 E0.00638
G1 X107.417 Y105.944 E0.00638
G1 X107.433 Y106.147 E0.00638
G1 X107.460 Y106.348 E0.00638
G1 X107.497 Y106.549 E0.00638
G1 X107.545 Y106.746 E0.00638
G1 X107.602 Y106.942 E0.00638
M73 Q3 S7
G1 X107.670 Y107.133 E0.00638
G1 X107.748 Y107.321 E0.00638
G1 X107.836 Y107.505 E0.00638
G1 X107.933 Y107.684 E0.00638
G1 X108.039 Y107.858 E0.00638
G1 X108.155 Y108.025 E0.00638
G1 X108.278 Y108.187 E0.00638
G1 X108.411 Y108.342 E0.00638
G1 X108.551 Y108.489 E0.00638
G1 X108.698 Y108.629 E0.00638
G1 X108.853 Y108.761 E0.00638
G1 X109.015 Y108.885 E0.00638
G1 X109.182 Y109.001 E0.00638
G1 X109.356 Y109.107 E0.00638
G1 X109.535 Y109.204 E0.00638
G1 X109.718 Y109.292 E0.00638
G1 X109.906 Y109.370 E0.00638
G1 X110.098 Y109.437 E0.00638
G1 X110.293 Y109.495 E0.00638
G1 X110.491 Y109.543 E0.00638
M73 P3 R7
G1 X110.691 Y109.580 E0.00638
G1 X110.893 Y109.606 E0.00638
G1 X111.096 Y109.622 E0.00638
G1 X111.299 Y109.628 E0.00638
G1 X111.503 Y109.622 E0.00638
G1 X111.706 Y109.606 E0.00638
G1 X111.908 Y109.580 E0.00638
G1 X112.108 Y109.543 E0.00638
G1 X112.306 Y109.495 E0.00638
G1 X112.501 Y109.437 E0.00638
G1 X112.693 Y109.370 E0.00638
G1 X112.881 Y109.292 E0.00638
G1 X113.064 Y109.204 E0.00638
G1 X113.243 Y109.107 E0.00638
G1 X113.417 Y109.001 E0.00638
G1 X113.584 Y108.885 E0.00638
G1 X113.746 Y108.761 E0.00638
G1 X113.901 Y108.629 E0.00638
G1 X114.048 Y108.489 E0.00638
G1 X114.188 Y108.342 E0.00638
G1 X114.320 Y108.187 E0.00638
G1 X114.444 Y108.025 E0.00638
G1 X114.560 Y107.858 E0.00638
G1 X114.666 Y107.684 E0.00638
G1 X114.763 Y107.505 E0.00638
G1 X114.851 Y107.322 E0.00638
G1 X114.929 Y107.133 E0.00638
G1 X114.997 Y106.942 E0.00638
G1 X115.054 Y106.746 E0.00638
G1 X115.102 Y106.549 E0.00638
G1 X115.139 Y106.348 E0.00638
G1 X115.166 Y106.147 E0.00638
G1 X115.181 Y105.944 E0.00638
G1 X115.187 Y105.740 E0.00638
G1 X115.181 Y105.537 E0.00638
G1 X115.166 Y105.334 E0.00638
G1 X115.139 Y105.132 E0.00638
G1 X115.102 Y104.932 E0.00638
G1 X115.054 Y104.734 E0.00638
G1 X114.997 Y104.539 E0.00638
G1 X114.929 Y104.347 E0.00638
G1 X114.851 Y104.159 E0.00638
G1 X114.763 Y103.976 E0.00638
G1 X114.666 Y103.797 E0.00638
G1 X114.560 Y103.623 E0.00638
G1 X114.444 Y103.455 E0.00638
G1 X114.320 Y103.294 E0.00638
G1 X114.188 Y103.139 E0.00638
G1 X114.048 Y102.992 E0.00638
G1 X113.901 Y102.852 E0.00638
G1 X113.746 Y102.719 E0.00638
G1 X113.584 Y102.595 E0.00638
G1 X113.417 Y102.480 E0.00638
G1 X113.243 Y102.374 E0.00638
G1 X113.064 Y102.277 E0.00638
G1 X112.881 Y102.189 E0.00638
G1 X112.693 Y102.111 E0.00638
G1 X112.501 Y102.043 E0.00638
G1 X112.306 Y101.985 E0.00638
G1 X112.108 Y101.938 E0.00638
G1 X111.908 Y101.901 E0.00638
G1 X111.706 Y101.874 E0.00638
G1 X111.503 Y101.858 E0.00638
G1 X111.299 Y101.853 E0.00638
G1 X111.096 Y101.858 E0.00638
G1 X110.893 Y101.874 E0.00638
G1 X110.691 Y101.901 E0.00638
G1 X110.491 Y101.938 E0.00638
G1 X110.293 Y101.985 E0.00638
G1 X110.098 Y102.043 E0.00638
G1 X109.906 Y102.111 E0.00638
G1 X109.718 Y102.189 E0.00638
G1 X109.535 Y102.277 E0.00638
G1 X109.356 Y102.374 E0.00638
G1 X109.182 Y102.480 E0.00638
G1 X109.015 Y102.595 E0.00638
G1 X108.853 Y102.719 E0.00638
G1 X108.698 Y102.852 E0.00638
G1 X108.631 Y102.916 E0.00293
G1 X108.890 Y103.189 F10800.000
;TYPE:External perimeter
G1 F1200.000
G1 X108.817 Y103.258 E0.00314
G1 X108.691 Y103.392 E0.00576
G1 X108.572 Y103.531 E0.00576
G1 X108.460 Y103.677 E0.00576
G1 X108.356 Y103.829 E0.00576
G1 X108.260 Y103.985 E0.00576
G1 X108.172 Y104.147 E0.00576
G1 X108.093 Y104.313 E0.00576
G1 X108.022 Y104.482 E0.00576
G1 X107.961 Y104.656 E0.00576
G1 X107.909 Y104.832 E0.00576
G1 X107.866 Y105.011 E0.00576
G1 X107.833 Y105.191 E0.00576
G1 X107.809 Y105.373 E0.00576
G1 X107.794 Y105.557 E0.00576
G1 X107.789 Y105.740 E0.00576
G1 X107.794 Y105.924 E0.00576
G1 X107.809 Y106.107 E0.00576
G1 X107.833 Y106.289 E0.00576
G1 X107.866 Y106.470 E0.00576
G1 X107.909 Y106.649 E0.00576
G1 X107.961 Y106.825 E0.00576
G1 X108.022 Y106.998 E0.00576
G1 X108.093 Y107.168 E0.00576
G1 X108.172 Y107.334 E0.00576
G1 X108.260 Y107.495 E0.00576
G1 X108.356 Y107.652 E0.00576
G1 X108.460 Y107.804 E0.00576
G1 X108.572 Y107.949 E0.00576
G1 X108.691 Y108.089 E0.00576
G1 X108.817 Y108.222 E0.00576
G1 X108.951 Y108.349 E0.00576
G1 X109.090 Y108.468 E0.00576
G1 X109.236 Y108.580 E0.00576
G1 X109.388 Y108.684 E0.00576
G1 X109.544 Y108.780 E0.00576
G1 X109.706 Y108.868 E0.00576
G1 X109.872 Y108.947 E0.00576
G1 X110.042 Y109.017 E0.00576
G1 X110.215 Y109.079 E0.00576
G1 X110.391 Y109.131 E0.00576
G1 X110.570 Y109.174 E0.00576
G1 X110.750 Y109.207 E0.00576
G1 X110.933 Y109.231 E0.00576
G1 X111.116 Y109.246 E0.00576
G1 X111.299 Y109.251 E0.00576
G1 X111.483 Y109.246 E0.00576
G1 X111.666 Y109.231 E0.00576
G1 X111.849 Y109.207 E0.00576
G1 X112.029 Y109.174 E0.00576
G1 X112.208 Y109.131 E0.00576
G1 X112.384 Y109.079 E0.00576
G1 X112.557 Y109.017 E0.00576
G1 X112.727 Y108.947 E0.00576
G1 X112.893 Y108.868 E0.00576
G1 X113.055 Y108.780 E0.00576
G1 X113.211 Y108.684 E0.00576
G1 X113.363 Y108.580 E0.00576
G1 X113.508 Y108.468 E0.00576
G1 X113.648 Y108.349 E0.00576
G1 X113.781 Y108.222 E0.00576
G1 X113.908 Y108.089 E0.00576
G1 X114.027 Y107.949 E0.00576
G1 X114.139 Y107.804 E0.00576
G1 X114.243 Y107.652 E0.00576
G1 X114.339 Y107.495 E0.00576
G1 X114.427 Y107.334 E0.00576
G1 X114.506 Y107.168 E0.00576
G1 X114.576 Y106.998 E0.00576
G1 X114.638 Y106.825 E0.00576
G1 X114.690 Y106.649 E0.00576
G1 X114.733 Y106.470 E0.00576
G1 X114.766 Y106.289 E0.00576
G1 X114.790 Y106.107 E0.00576
G1 X114.805 Y105.924 E0.00576
G1 X114.810 Y105.740 E0.00576
G1 X114.805 Y105.557 E0.00576
G1 X114.790 Y105.373 E0.00576
G1 X114.766 Y105.191 E0.00576
G1 X114.733 Y105.011 E0.00576
G1 X114.690 Y104.832 E0.00576
G1 X114.638 Y104.656 E0.00576
G1 X114.576 Y104.482 E0.00576
G1 X114.506 Y104.313 E0.00576
G1 X114.427 Y104.147 E0.00576
G1 X114.339 Y103.985 E0.00576
G1 X114.243 Y103.829 E0.00576
G1 X114.139 Y103.677 E0.00576
G1 X114.027 Y103.531 E0.00576
G1 X113.908 Y103.392 E0.00576
G1 X113.781 Y103.258 E0.00576
G1 X113.648 Y103.132 E0.00576
G1 X113.508 Y103.012 E0.00576
G1 X113.363 Y102.901 E0.00576
G1 X113.211 Y102.797 E0.00576
G1 X113.055 Y102.701 E0.00576
G1 X112.893 Y102.613 E0.00576
G1 X112.727 Y102.534 E0.00576
G1 X112.557 Y102.463 E0.00576
G1 X112.384 Y102.402 E0.00576
G1 X112.208 Y102.350 E0.00576
G1 X112.029 Y102.307 E0.00576
G1 X111.849 Y102.273 E0.00576
G1 X111.666 Y102.249 E0.00576
G1 X111.483 Y102.235 E0.00576
G1 X111.299 Y102.230 E0.00576
G1 X111.116 Y102.235 E0.00576
G1 X110.933 Y102.249 E0.00576
G1 X110.750 Y102.273 E0.00576
G1 X110.570 Y102.307 E0.00576
G1 X110.391 Y102.350 E0.00576
G1 X110.215 Y102.402 E0.00576
G1 X110.042 Y102.463 E0.00576
G1 X109.872 Y102.534 E0.00576
G1 X109.706 Y102.613 E0.00576
G1 X109.544 Y102.701 E0.00576
G1 X109.388 Y102.797 E0.00576
G1 X109.236 Y102.901 E0.00576
G1 X109.090 Y103.012 E0.00576
G1 X108.951 Y103.132 E0.00576
G1 X108.934 Y103.148 E0.00074
G1 X108.794 Y103.161 F10800.000
;WIPE_START
G1 F8640.000
G1 X108.817 Y103.258 E-0.03700
G1 X108.691 Y103.392 E-0.04243
G1 X108.572 Y103.531 E-0.04243
G1 X108.460 Y103.677 E-0.04243
G1 X108.356 Y103.829 E-0.04243
G1 X108.260 Y103.985 E-0.04243
G1 X108.172 Y104.147 E-0.04243
G1 X108.093 Y104.313 E-0.04243
G1 X108.022 Y104.482 E-0.04243
G1 X107.961 Y104.656 E-0.04243
G1 X107.909 Y104.832 E-0.04243
G1 X107.866 Y105.011 E-0.04243
G1 X107.833 Y105.191 E-0.04243
G1 X107.809 Y105.373 E-0.04243
G1 X107.794 Y105.557 E-0.04243
G1 X107.789 Y105.740 E-0.04243
