; generated by SuperSlicer 2.3.55 on 2021-06-22 at 17:45:24 UTC

; 

; external perimeters extrusion width = 0.45mm
; perimeters extrusion width = 0.45mm
; infill extrusion width = 0.45mm
; solid infill extrusion width = 0.45mm
; top infill extrusion width = 0.40mm
; support material extrusion width = 0.35mm
; first layer extrusion width = 0.42mm

; object:{"name":"contact","id":"contact.STL id:0 copy 0","object_center":[125.000000,105.000000,0.000000],"boundingbox_center":[125.000000,105.000000,3.000000],"boundingbox_size":[32.099998,14.000000,6.000000]}
; Total objects to print: 1
M486 T1
; plater:{"center":[125.000000,105.000000,0.000000],"boundingbox_center":[125.000000,105.000000,3.000000],"boundingbox_size":[32.099998,14.000000,6.000000]}

M73 P0 R5
M73 Q0 S5
;TYPE:Custom
M862.3 P "MK3S" ; printer model check
M862.1 P0.4 ; nozzle diameter check
M115 U3.9.2 ; tell printer latest fw version
G90 ; use absolute coordinates
M83 ; extruder relative mode
M104 S215 ; set extruder temp
M140 S60 ; set bed temp
M190 S60 ; wait for bed temp
M109 S215 ; wait for extruder temp
G28 W ; home all without mesh bed level
G80 ; mesh bed leveling
G1 Y-3.0 F1000.0 ; go outside print area
G92 E0.0
G1 X60.0 E9.0 F1000.0 ; intro line
M73 P1 R5
M73 Q1 S5
G1 X100.0 E12.5 F1000.0 ; intro line
G92 E0.0
M221 S95

; Don't change E values below. Excessive value can damage the printer.

M107
G21 ; set units to millimeters
G90 ; use absolute coordinates
M83 ; use relative distances for extrusion
M900 K0.05 ; Filament gcode LA 1.5
M900 K30 ; Filament gcode LA 1.0
;LAYER_CHANGE
;Z:0.2
;HEIGHT:0.2
;BEFORE_LAYER_CHANGE
;0.2


G1 E-0.80000 F2100.000
G1 Z0.400000 F10800.000
;AFTER_LAYER_CHANGE
;0.2
G1 X105.306 Y95.061
M73 P2 R5
M73 Q2 S5
G1 Z0.200000
G1 E0.80000 F2100.000
;TYPE:Skirt
;WIDTH:0.42
G1 F1200.000
G1 X106.243 Y94.141 E0.04117
G1 X107.349 Y93.245 E0.04461
G1 X109.245 Y92.070 E0.06996
G1 X111.093 Y91.273 E0.06310
G1 X113.208 Y90.698 E0.06870
G1 X114.493 Y90.508 E0.04074
G1 X115.955 Y90.434 E0.04589
G1 X139.214 Y92.231 E0.73146
G1 X140.906 Y92.620 E0.05442
G1 X142.464 Y93.384 E0.05442
G1 X143.722 Y94.397 E0.05061
G1 X144.736 Y95.653 E0.05061
G1 X145.458 Y97.089 E0.05040
G1 X145.861 Y98.652 E0.05061
M73 Q3 S5
G1 X145.941 Y99.715 E0.03342
G1 X145.897 Y105.671 E0.18675
M73 P3 R5
G1 X145.751 Y106.535 E0.02747
G1 X145.509 Y107.370 E0.02726
G1 X145.170 Y108.177 E0.02747
G1 X144.740 Y108.941 E0.02747
G1 X144.035 Y109.871 E0.03661
G1 X143.200 Y110.678 E0.03640
G1 X142.252 Y111.347 E0.03640
G1 X141.206 Y111.866 E0.03661
G1 X120.510 Y118.833 E0.68469
G1 X119.431 Y119.141 E0.03518
G1 X118.110 Y119.404 E0.04223
G1 X116.524 Y119.553 E0.04993
G1 X115.020 Y119.535 E0.04716
G1 X113.244 Y119.309 E0.05614
G1 X111.607 Y118.902 E0.05290
G1 X110.297 Y118.421 E0.04376
G1 X109.242 Y117.928 E0.03650
G1 X108.047 Y117.235 E0.04330
G1 X106.859 Y116.380 E0.04589
G1 X105.923 Y115.558 E0.03907
G1 X104.555 Y114.072 E0.06332
G1 X103.257 Y112.142 E0.07293
G1 X102.653 Y110.945 E0.04206
G1 X102.182 Y109.747 E0.04035
G1 X101.596 Y107.467 E0.07381
G1 X101.395 Y105.486 E0.06244
M73 Q4 S5
G1 X101.490 Y103.263 E0.06977
G1 X101.704 Y101.967 E0.04117
G1 X102.036 Y100.696 E0.04120
G1 X102.743 Y98.862 E0.06162
M73 P4 R5
G1 X103.315 Y97.754 E0.03907
G1 X103.921 Y96.793 E0.03565
G1 X105.268 Y95.107 E0.06764
G1 X105.562 Y95.342 F10800.000
G1 F1200.000
G1 X106.491 Y94.424 E0.04096
G1 X107.568 Y93.552 E0.04345
G1 X109.421 Y92.403 E0.06836
G1 X111.210 Y91.632 E0.06107
G1 X113.271 Y91.069 E0.06698
G1 X114.534 Y90.882 E0.04005
G1 X115.958 Y90.811 E0.04470
G1 X139.152 Y92.604 E0.72941
G1 X140.732 Y92.959 E0.05078
G1 X142.192 Y93.658 E0.05078
G1 X143.407 Y94.616 E0.04850
G1 X144.386 Y95.806 E0.04830
G1 X145.088 Y97.177 E0.04830
G1 X145.483 Y98.673 E0.04850
G1 X145.564 Y99.702 E0.03237
G1 X145.527 Y105.577 E0.18422
G1 X145.174 Y107.185 E0.05160
M73 Q5 S5
G1 X144.469 Y108.664 E0.05139
G1 X143.799 Y109.568 E0.03527
G1 X142.992 Y110.361 E0.03548
G1 X142.070 Y111.017 E0.03548
G1 X141.062 Y111.518 E0.03527
M73 P5 R5
G1 X119.368 Y118.768 E0.71721
G1 X118.064 Y119.030 E0.04170
G1 X116.526 Y119.176 E0.04843
G1 X115.054 Y119.159 E0.04615
G1 X113.337 Y118.942 E0.05426
G1 X111.722 Y118.543 E0.05215
G1 X110.465 Y118.082 E0.04200
G1 X109.446 Y117.610 E0.03520
G1 X108.322 Y116.963 E0.04067
G1 X106.738 Y115.785 E0.06189
G1 X105.842 Y114.956 E0.03826
G1 X104.865 Y113.856 E0.04615
G1 X103.590 Y111.966 E0.07146
G1 X102.998 Y110.794 E0.04117
G1 X102.544 Y109.640 E0.03889
G1 X102.036 Y107.773 E0.06065
G1 X101.772 Y105.490 E0.07208
G1 X101.862 Y103.322 E0.06802
G1 X102.070 Y102.055 E0.04026
G1 X102.392 Y100.823 E0.03993
G1 X103.078 Y99.036 E0.06003
G1 X104.224 Y97.017 E0.07278
G1 X105.524 Y95.388 E0.06534
;WIPE_START
M73 Q6 S5
G1 F8640.000
G1 X105.576 Y95.324 E-0.01908
G1 X106.491 Y94.424 E-0.29644
G1 X107.568 Y93.552 E-0.32001
G1 X108.027 Y93.268 E-0.12448
;WIPE_END
G1 E-0.04000 F2100.000
G1 Z1.000000 F10800.000
G1 X112.106 Y94.340
M73 P6 R5
G1 Z0.200000
G1 E0.80000 F2100.000
G1 F1200.000
G1 X113.746 Y93.882 E0.05341
G1 X114.806 Y93.722 E0.03362
G1 X116.578 Y93.681 E0.05557
G1 X118.222 Y93.894 E0.05197
G1 X119.856 Y94.360 E0.05327
G1 X120.882 Y94.803 E0.03505
G1 X121.282 Y95.431 E0.02334
G1 X119.847 Y94.757 E0.04972
G1 X118.894 Y94.444 E0.03146
G1 X117.237 Y94.118 E0.05294
G1 X115.967 Y94.041 E0.03989
G1 X114.844 Y94.097 E0.03527
G1 X113.080 Y94.423 E0.05622
G1 X111.652 Y94.930 E0.04752
G1 X111.324 Y95.495 E0.02048
G1 X112.314 Y95.065 E0.03385
G1 X113.877 Y94.624 E0.05093
G1 X114.881 Y94.472 E0.03182
G1 X115.965 Y94.418 E0.03405
G1 X117.185 Y94.492 E0.03831
G1 X118.788 Y94.806 E0.05120
G1 X119.714 Y95.110 E0.03057
G1 X120.618 Y95.505 E0.03092
G1 X121.525 Y96.016 E0.03266
G1 X121.744 Y96.545 E0.01793
G1 X121.650 Y96.545 E0.00294
G1 X120.471 Y95.853 E0.04286
G1 X119.627 Y95.480 E0.02894
G1 X118.706 Y95.176 E0.03041
G1 X117.133 Y94.865 E0.05026
G1 X115.964 Y94.795 E0.03673
G1 X114.918 Y94.847 E0.03284
G1 X113.943 Y94.996 E0.03090
G1 X112.433 Y95.423 E0.04922
G1 X111.103 Y96.027 E0.04578
G1 X110.880 Y96.592 E0.01904
G1 X111.517 Y96.229 E0.02297
G1 X112.458 Y95.814 E0.03226
G1 X113.349 Y95.523 E0.02939
G1 X114.944 Y95.224 E0.05089
G1 X116.489 Y95.187 E0.04845
G1 X117.936 Y95.375 E0.04576
G1 X119.491 Y95.832 E0.05081
G1 X120.333 Y96.205 E0.02886
M73 Q7 S5
G1 X121.538 Y96.922 E0.04398
G1 X121.796 Y96.922 E0.00808
G1 X121.846 Y97.299 E0.01193
G1 X121.426 Y97.299 E0.01315
G1 X120.188 Y96.553 E0.04534
G1 X119.356 Y96.184 E0.02854
G1 X118.507 Y95.904 E0.02803
G1 X117.029 Y95.612 E0.04723
M73 P7 R5
G1 X115.961 Y95.549 E0.03357
G1 X114.983 Y95.599 E0.03069
G1 X114.054 Y95.742 E0.02947
G1 X112.591 Y96.166 E0.04779
G1 X111.686 Y96.566 E0.03102
G1 X110.817 Y97.068 E0.03145
G1 X110.751 Y97.569 E0.01584
G1 X111.849 Y96.906 E0.04021
G1 X112.723 Y96.519 E0.02997
G1 X113.555 Y96.248 E0.02741
G1 X115.022 Y95.974 E0.04682
G1 X115.959 Y95.926 E0.02941
G1 X116.890 Y95.975 E0.02925
G1 X117.774 Y96.112 E0.02803
G1 X119.110 Y96.496 E0.04358
G1 X120.108 Y96.935 E0.03419
G1 X121.306 Y97.676 E0.04418
G1 X121.895 Y97.676 E0.01846
G1 X121.934 Y98.053 E0.01188
G1 X121.176 Y98.053 E0.02375
G1 X119.851 Y97.228 E0.04893
G1 X118.996 Y96.856 E0.02925
G1 X118.238 Y96.610 E0.02500
G1 X116.853 Y96.350 E0.04418
G1 X115.957 Y96.303 E0.02812
G1 X115.060 Y96.349 E0.02817
G1 X114.191 Y96.484 E0.02759
G1 X112.852 Y96.874 E0.04370
G1 X112.020 Y97.242 E0.02854
G1 X110.805 Y97.989 E0.04471
G1 X110.702 Y98.072 E0.00417
G1 X110.759 Y98.510 E0.01386
G1 X111.453 Y98.001 E0.02698
G1 X112.189 Y97.579 E0.02662
G1 X112.986 Y97.226 E0.02730
G1 X114.258 Y96.855 E0.04156
G1 X115.099 Y96.724 E0.02668
G1 X115.956 Y96.680 E0.02691
G1 X116.814 Y96.725 E0.02694
G1 X117.640 Y96.854 E0.02622
G1 X118.884 Y97.216 E0.04061
G1 X120.092 Y97.785 E0.04187
G1 X121.044 Y98.430 E0.03606
G1 X121.884 Y98.430 E0.02635
G1 X121.834 Y98.807 E0.01193
G1 X120.911 Y98.807 E0.02894
G1 X120.599 Y98.561 E0.01247
G1 X119.530 Y97.910 E0.03925
G1 X118.762 Y97.572 E0.02632
G1 X118.030 Y97.335 E0.02411
G1 X116.776 Y97.100 E0.04000
G1 X115.965 Y97.057 E0.02545
G1 X115.137 Y97.099 E0.02601
G1 X113.866 Y97.336 E0.04052
G1 X113.120 Y97.579 E0.02462
G1 X112.360 Y97.915 E0.02607
G1 X111.649 Y98.323 E0.02570
G1 X110.817 Y98.949 E0.03262
M73 Q8 S5
G1 X110.875 Y99.391 E0.01400
G1 X111.845 Y98.645 E0.03837
G1 X112.529 Y98.252 E0.02471
G1 X113.253 Y97.932 E0.02483
G1 X114.395 Y97.596 E0.03734
G1 X115.174 Y97.475 E0.02471
G1 X115.961 Y97.434 E0.02471
G1 X116.737 Y97.475 E0.02437
M73 P8 R5
G1 X117.926 Y97.697 E0.03792
G1 X118.647 Y97.932 E0.02379
G1 X119.368 Y98.251 E0.02471
G1 X120.384 Y98.870 E0.03731
G1 X120.779 Y99.184 E0.01581
G1 X121.785 Y99.184 E0.03154
G1 X121.708 Y99.561 E0.01207
G1 X120.646 Y99.561 E0.03328
G1 X120.167 Y99.179 E0.01923
G1 X119.205 Y98.591 E0.03537
G1 X118.535 Y98.293 E0.02297
G1 X117.820 Y98.059 E0.02359
G1 X116.321 Y97.821 E0.04758
G1 X115.189 Y97.852 E0.03552
G1 X114.080 Y98.059 E0.03537
G1 X113.383 Y98.286 E0.02297
G1 X112.695 Y98.591 E0.02359
G1 X111.717 Y99.190 E0.03598
G1 X111.016 Y99.781 E0.02874
;WIPE_START
G1 F8640.000
G1 X111.717 Y99.190 E-0.21166
G1 X112.695 Y98.591 E-0.26500
G1 X113.383 Y98.286 E-0.17373
G1 X113.835 Y98.139 E-0.10960
;WIPE_END
G1 E-0.04000 F2100.000
G1 Z0.600000 F10800.000
G1 X112.709 Y93.751
G1 Z0.200000
G1 E0.80000 F2100.000
G1 F1200.000
G1 X113.680 Y93.510 E0.03137
G1 X114.771 Y93.346 E0.03458
G1 X116.599 Y93.305 E0.05734
G1 X118.293 Y93.524 E0.05357
G1 X119.060 Y93.707 E0.02472
G1 X120.396 Y94.168 E0.04431
;WIPE_START
G1 F8640.000
G1 X119.060 Y93.707 E-0.32629
G1 X118.293 Y93.524 E-0.18201
G1 X117.212 Y93.384 E-0.25170
;WIPE_END
G1 E-0.04000 F2100.000
G1 Z0.600000 F10800.000
G1 X119.564 Y93.475
G1 Z0.200000
G1 E0.80000 F2100.000
G1 F1200.000
G1 X118.363 Y93.153 E0.03899
G1 X116.622 Y92.928 E0.05505
G1 X114.733 Y92.971 E0.05923
G1 X113.459 Y93.175 E0.04046
;WIPE_START
G1 F8640.000
G1 X114.733 Y92.971 E-0.29796
G1 X116.622 Y92.928 E-0.43620
G1 X116.733 Y92.943 E-0.02584
;WIPE_END
G1 E-0.04000 F2100.000
G1 Z0.600000 F10800.000
G1 X114.835 Y92.589
G1 Z0.200000
G1 E0.80000 F2100.000
G1 F1200.000
G1 X116.644 Y92.552 E0.05671
M73 Q9 S5
G1 X118.161 Y92.739 E0.04793
;WIPE_START
G1 F8640.000
G1 X116.644 Y92.552 E-0.35294
G1 X114.881 Y92.588 E-0.40706
;WIPE_END
G1 E-0.04000 F2100.000
G1 Z0.600000 F10800.000
G1 X123.069 Y105.942
M73 P9 R5
G1 Z0.200000
G1 E0.80000 F2100.000
G1 F1200.000
G1 X122.895 Y106.856 E0.02917
G1 X122.657 Y107.585 E0.02406
G1 X122.350 Y108.272 E0.02359
G1 X121.973 Y108.923 E0.02359
G1 X121.530 Y109.531 E0.02359
G1 X121.040 Y110.076 E0.02297
G1 X120.167 Y110.821 E0.03598
G1 X119.536 Y111.230 E0.02359
G1 X118.865 Y111.571 E0.02359
G1 X117.801 Y111.946 E0.03537
G1 X117.084 Y112.098 E0.02297
G1 X116.336 Y112.178 E0.02359
G1 X115.569 Y112.178 E0.02406
G1 X114.625 Y112.059 E0.02982
G1 X114.776 Y112.463 E0.01354
G1 X115.573 Y112.556 E0.02514
G1 X116.321 Y112.556 E0.02348
G1 X117.119 Y112.475 E0.02514
G1 X117.919 Y112.305 E0.02564
G1 X119.004 Y111.921 E0.03610
G1 X119.720 Y111.559 E0.02514
G1 X120.377 Y111.135 E0.02452
G1 X121.313 Y110.336 E0.03857
G1 X121.814 Y109.780 E0.02348
G1 X122.287 Y109.133 E0.02514
G1 X122.679 Y108.456 E0.02452
G1 X123.008 Y107.725 E0.02514
G1 X123.259 Y106.955 E0.02541
G1 X123.410 Y106.203 E0.02403
G1 X123.748 Y106.462 E0.01336
G1 X123.715 Y106.670 E0.00659
G1 X123.378 Y107.812 E0.03732
G1 X123.035 Y108.590 E0.02668
G1 X122.633 Y109.290 E0.02529
G1 X122.133 Y109.985 E0.02684
G1 X121.243 Y110.922 E0.04052
G1 X120.584 Y111.450 E0.02647
G1 X119.906 Y111.887 E0.02529
G1 X119.146 Y112.270 E0.02668
G1 X118.024 Y112.667 E0.03732
G1 X117.175 Y112.847 E0.02721
G1 X116.344 Y112.933 E0.02622
G1 X114.945 Y112.870 E0.04391
G1 X115.113 Y113.277 E0.01381
G1 X116.337 Y113.310 E0.03840
G1 X117.192 Y113.225 E0.02691
G1 X118.064 Y113.046 E0.02793
G1 X119.351 Y112.593 E0.04277
G1 X120.151 Y112.180 E0.02823
G1 X120.879 Y111.702 E0.02730
G1 X121.813 Y110.903 E0.03855
G1 X122.404 Y110.250 E0.02760
G1 X122.912 Y109.555 E0.02700
G1 X123.354 Y108.793 E0.02761
G1 X123.724 Y107.962 E0.02854
G1 X124.084 Y106.743 E0.03983
G1 X124.377 Y107.126 E0.01511
G1 X124.060 Y108.140 E0.03333
M73 Q10 S5
G1 X123.690 Y108.966 E0.02838
G1 X123.208 Y109.789 E0.02990
G1 X122.671 Y110.518 E0.02838
G1 X121.797 Y111.438 E0.03979
G1 X121.078 Y112.024 E0.02907
G1 X120.320 Y112.519 E0.02838
G1 X119.470 Y112.953 E0.02993
M73 P10 R5
G1 X118.155 Y113.412 E0.04368
G1 X117.368 Y113.580 E0.02521
G1 X116.484 Y113.679 E0.02788
G1 X115.346 Y113.671 E0.03571
G1 X115.644 Y114.060 E0.01535
G1 X116.405 Y114.062 E0.02388
G1 X117.390 Y113.959 E0.03105
G1 X118.342 Y113.753 E0.03052
G1 X119.577 Y113.316 E0.04109
G1 X120.402 Y112.905 E0.02889
G1 X121.262 Y112.357 E0.03198
G1 X122.409 Y111.372 E0.04742
G1 X123.058 Y110.638 E0.03070
G1 X123.575 Y109.918 E0.02781
G1 X124.066 Y109.056 E0.03109
G1 X124.445 Y108.186 E0.02978
G1 X124.667 Y107.503 E0.02249
G1 X124.939 Y107.863 E0.01415
G1 X124.785 Y108.356 E0.01618
G1 X124.382 Y109.268 E0.03128
G1 X123.865 Y110.164 E0.03242
G1 X123.266 Y110.982 E0.03178
G1 X122.595 Y111.720 E0.03127
G1 X121.571 Y112.596 E0.04227
G1 X120.704 Y113.168 E0.03256
G1 X119.879 Y113.594 E0.02913
G1 X118.941 Y113.964 E0.03162
G1 X117.398 Y114.339 E0.04978
G1 X115.936 Y114.441 E0.04594
G1 X116.322 Y114.818 E0.01693
G1 X117.455 Y114.712 E0.03566
G1 X119.052 Y114.325 E0.05152
G1 X119.999 Y113.955 E0.03189
G1 X120.888 Y113.498 E0.03133
G1 X121.782 Y112.910 E0.03355
G1 X122.574 Y112.260 E0.03213
G1 X123.530 Y111.254 E0.04350
G1 X124.175 Y110.379 E0.03408
G1 X124.692 Y109.491 E0.03222
G1 X125.163 Y108.404 E0.03716
G1 X125.370 Y108.904 E0.01698
G1 X125.097 Y109.522 E0.02120
G1 X124.565 Y110.468 E0.03399
G1 X123.898 Y111.401 E0.03597
G1 X123.126 Y112.256 E0.03614
G1 X122.010 Y113.210 E0.04601
G1 X121.034 Y113.848 E0.03656
G1 X120.036 Y114.351 E0.03505
G1 X119.177 Y114.681 E0.02886
G1 X117.576 Y115.075 E0.05171
G1 X116.773 Y115.164 E0.02532
G1 X117.204 Y115.495 E0.01702
G1 X118.733 Y115.210 E0.04876
G1 X120.153 Y114.710 E0.04722
M73 Q11 S5
G1 X121.175 Y114.202 E0.03577
G1 X122.153 Y113.573 E0.03646
G1 X123.091 Y112.809 E0.03795
G1 X124.124 Y111.720 E0.04706
G1 X124.813 Y110.782 E0.03649
G1 X125.531 Y109.472 E0.04684
M73 P11 R5
G1 X125.618 Y110.138 E0.02106
G1 X125.095 Y111.039 E0.03268
G1 X124.390 Y111.989 E0.03711
G1 X123.298 Y113.131 E0.04952
G1 X122.360 Y113.889 E0.03783
G1 X121.325 Y114.549 E0.03848
G1 X120.281 Y115.066 E0.03655
G1 X118.779 Y115.588 E0.04983
G1 X117.860 Y115.784 E0.02947
G1 X118.473 Y116.038 E0.02082
G1 X119.537 Y115.753 E0.03453
G1 X120.423 Y115.415 E0.02972
G1 X121.505 Y114.881 E0.03786
G1 X122.580 Y114.195 E0.03995
G1 X123.517 Y113.441 E0.03771
G1 X124.028 Y112.953 E0.02216
G1 X124.664 Y112.249 E0.02974
G1 X125.666 Y110.823 E0.05467
G1 X125.551 Y111.696 F10800.000
G1 F1200.000
G1 X124.929 Y112.518 E0.03232
G1 X124.299 Y113.215 E0.02946
G1 X123.727 Y113.759 E0.02474
G1 X122.799 Y114.502 E0.03730
G1 X121.684 Y115.212 E0.04142
G1 X120.880 Y115.623 E0.02832
G1 X119.376 Y116.195 E0.05046
G1 X120.355 Y116.248 F10800.000
G1 F1200.000
G1 X121.844 Y115.555 E0.05147
G1 X122.993 Y114.827 E0.04265
G1 X123.935 Y114.077 E0.03774
G1 X124.610 Y113.435 E0.02923
G1 X125.241 Y112.734 E0.02957
;WIPE_START
G1 F8640.000
G1 X124.610 Y113.435 E-0.21775
G1 X123.935 Y114.077 E-0.21524
G1 X122.993 Y114.827 E-0.27791
G1 X122.813 Y114.941 E-0.04909
;WIPE_END
G1 E-0.04000 F2100.000
G1 Z0.600000 F10800.000
G1 X124.448 Y114.107
G1 Z0.200000
G1 E0.80000 F2100.000
G1 F1200.000
G1 X123.210 Y115.135 E0.05047
G1 X122.026 Y115.885 E0.04394
;WIPE_START
G1 F8640.000
G1 X123.210 Y115.135 E-0.32357
G1 X124.448 Y114.107 E-0.37165
;WIPE_END
G1 E-0.10477 F2100.000
G1 Z0.600000 F10800.000
G1 X135.361 Y109.563
G1 Z0.200000
M73 Q12 S5
G1 E0.80000 F2100.000
G1 F1200.000
G1 X138.502 Y109.563 E0.09848
G1 X139.068 Y109.514 E0.01784
G1 X139.667 Y109.373 E0.01928
G1 X140.221 Y109.158 E0.01863
G1 X141.028 Y108.692 E0.02923
G1 X142.012 Y107.759 E0.04250
M73 P12 R5
G1 X142.284 Y107.409 E0.01391
G1 X142.580 Y106.918 E0.01799
G1 X142.817 Y106.374 E0.01860
G1 X143.039 Y105.548 E0.02680
