; generated by SuperSlicer 2.3.55 on 2021-06-22 at 17:28:42 UTC

; 

; external perimeters extrusion width = 0.45mm
; perimeters extrusion width = 0.45mm
; infill extrusion width = 0.45mm
; solid infill extrusion width = 0.45mm
; top infill extrusion width = 0.40mm
; first layer extrusion width = 0.42mm

; object:{"name":"endstopmount","id":"endstopmount.STL id:0 copy 0","object_center":[125.000000,105.000000,0.000000],"boundingbox_center":[125.000000,105.000000,8.000000],"boundingbox_size":[54.000000,13.000000,16.000000]}
; Total objects to print: 1
M486 T1
; plater:{"center":[125.000000,105.000000,0.000000],"boundingbox_center":[125.000000,105.000000,8.000000],"boundingbox_size":[54.000000,13.000000,16.000000]}

M73 P0 R37
M73 Q0 S37
;TYPE:Custom
M862.3 P "MK3S" ; printer model check
M862.1 P0.4 ; nozzle diameter check
M115 U3.9.2 ; tell printer latest fw version
G90 ; use absolute coordinates
M83 ; extruder relative mode
M104 S215 ; set extruder temp
M140 S60 ; set bed temp
M190 S60 ; wait for bed temp
M109 S215 ; wait for extruder temp
G28 W ; home all without mesh bed level
G80 ; mesh bed leveling
G1 Y-3.0 F1000.0 ; go outside print area
G92 E0.0
G1 X60.0 E9.0 F1000.0 ; intro line
G1 X100.0 E12.5 F1000.0 ; intro line
G92 E0.0
M221 S95

; Don't change E values below. Excessive value can damage the printer.

M107
G21 ; set units to millimeters
G90 ; use absolute coordinates
M83 ; use relative distances for extrusion
M900 K0.05 ; Filament gcode LA 1.5
M900 K30 ; Filament gcode LA 1.0
M107
;LAYER_CHANGE
;Z:0.2
;HEIGHT:0.2
;BEFORE_LAYER_CHANGE
;0.2


G1 E-0.80000 F2100.000
G1 Z0.400000 F10800.000
;AFTER_LAYER_CHANGE
;0.2
G1 X96.445 Y92.252
G1 Z0.200000
G1 E0.80000 F2100.000
;TYPE:Skirt
;WIDTH:0.42
G1 F1200.000
M204 P1000
G1 X97.985 Y91.600 E0.05243
G1 X98.961 Y91.387 E0.03134
G1 X99.958 Y91.312 E0.03134
G1 X150.007 Y91.311 E1.56924
G1 X151.069 Y91.391 E0.03341
G1 X152.102 Y91.626 E0.03320
G1 X153.095 Y92.012 E0.03341
G1 X154.020 Y92.540 E0.03341
G1 X154.924 Y93.263 E0.03631
G1 X157.157 Y95.492 E0.09893
G1 X158.182 Y96.831 E0.05284
G1 X158.828 Y98.251 E0.04892
G1 X159.152 Y99.777 E0.04892
G1 X159.184 Y106.765 E0.21911
G1 X159.036 Y107.973 E0.03817
G1 X158.684 Y109.145 E0.03838
G1 X158.138 Y110.241 E0.03838
G1 X157.415 Y111.228 E0.03838
G1 X151.670 Y116.965 E0.25457
G1 X150.422 Y117.822 E0.04747
G1 X149.015 Y118.400 E0.04768
G1 X148.032 Y118.614 E0.03154
G1 X147.029 Y118.688 E0.03154
G1 X102.987 Y118.689 E1.38091
G1 X101.794 Y118.587 E0.03755
G1 X100.766 Y118.332 E0.03320
G1 X99.792 Y117.933 E0.03299
G1 X98.887 Y117.396 E0.03299
G1 X98.071 Y116.732 E0.03299
G1 X92.518 Y111.150 E0.24689
G1 X91.669 Y109.904 E0.04727
G1 X91.100 Y108.515 E0.04706
G1 X90.903 Y107.643 E0.02802
G1 X90.816 Y106.754 E0.02802
G1 X90.813 Y100.341 E0.20107
G1 X90.961 Y99.040 E0.04106
G1 X91.341 Y97.793 E0.04086
G1 X91.827 Y96.816 E0.03424
G1 X92.457 Y95.923 E0.03424
G1 X95.098 Y93.242 E0.11801
G1 X96.397 Y92.287 E0.05054
;WIPE_START
G1 F8640.000
G1 X97.985 Y91.600 E-0.39957
G1 X98.961 Y91.387 E-0.23076
G1 X99.521 Y91.345 E-0.12967
;WIPE_END
G1 E-0.04000 F2100.000
G1 Z1.000000 F10800.000
G1 X92.533 Y101.686
G1 Z0.200000
G1 E0.80000 F2100.000
G1 F1200.000
G1 X92.567 Y99.880 E0.05663
G1 X92.742 Y99.022 E0.02748
G1 X93.288 Y97.736 E0.04379
G1 X93.812 Y96.984 E0.02876
G1 X96.265 Y94.504 E0.10938
G1 X96.750 Y94.104 E0.01968
G1 X97.304 Y93.759 E0.02046
G1 X97.851 Y93.509 E0.01889
G1 X98.496 Y93.299 E0.02125
G1 X98.933 Y93.200 E0.01406
G1 X99.806 Y93.125 E0.02747
G1 X100.263 Y93.148 E0.01433
G1 X101.578 Y93.376 E0.04186
G1 X102.500 Y93.716 E0.03081
G1 X103.089 Y93.474 E0.01995
G1 X103.718 Y93.311 E0.02040
G1 X104.797 Y93.142 E0.03423
G1 X105.667 Y93.148 E0.02729
G1 X106.338 Y93.256 E0.02130
G1 X107.114 Y93.495 E0.02545
G1 X107.684 Y93.753 E0.01963
G1 X108.238 Y94.095 E0.02040
G1 X108.760 Y94.528 E0.02128
G1 X111.034 Y96.807 E0.10096
G1 X111.741 Y97.788 E0.03792
G1 X112.132 Y98.648 E0.02960
G1 X112.349 Y99.386 E0.02414
G1 X112.467 Y100.393 E0.03178
G1 X112.468 Y101.680 E0.04037
;WIPE_START
G1 F8640.000
G1 X112.467 Y100.393 E-0.29727
G1 X112.349 Y99.386 E-0.23401
G1 X112.132 Y98.648 E-0.17775
G1 X112.041 Y98.447 E-0.05097
;WIPE_END
G1 E-0.04000 F2100.000
G1 Z0.600000 F10800.000
G1 X112.091 Y102.778
G1 Z0.200000
G1 E0.80000 F2100.000
G1 F1200.000
G1 X112.074 Y100.078 E0.08466
G1 X111.922 Y99.221 E0.02727
G1 X111.610 Y98.368 E0.02849
G1 X111.272 Y97.738 E0.02242
G1 X110.791 Y97.100 E0.02504
G1 X108.498 Y94.800 E0.10184
G1 X108.086 Y94.451 E0.01693
G1 X107.545 Y94.106 E0.02012
G1 X107.003 Y93.857 E0.01871
G1 X106.268 Y93.627 E0.02414
G1 X105.662 Y93.526 E0.01925
G1 X104.828 Y93.518 E0.02617
G1 X103.740 Y93.691 E0.03454
G1 X103.148 Y93.853 E0.01924
G1 X102.500 Y94.138 E0.02221
G1 X101.564 Y93.762 E0.03163
G1 X100.326 Y93.534 E0.03945
G1 X99.852 Y93.502 E0.01491
G1 X99.371 Y93.523 E0.01509
G1 X98.619 Y93.656 E0.02395
G1 X97.988 Y93.860 E0.02079
G1 X97.484 Y94.090 E0.01736
G1 X96.969 Y94.410 E0.01902
G1 X96.526 Y94.776 E0.01801
G1 X94.341 Y96.960 E0.09689
G1 X93.869 Y97.528 E0.02314
G1 X93.430 Y98.280 E0.02730
G1 X93.018 Y99.472 E0.03954
G1 X92.910 Y100.369 E0.02833
G1 X92.910 Y102.780 E0.07558
;WIPE_START
G1 F8640.000
G1 X92.910 Y100.369 E-0.55659
G1 X93.016 Y99.495 E-0.20341
;WIPE_END
G1 E-0.04000 F2100.000
G1 Z0.600000 F10800.000
G1 X92.910 Y104.220
G1 Z0.200000
G1 E0.80000 F2100.000
G1 F1200.000
G1 X92.910 Y106.644 E0.07600
G1 X92.962 Y107.228 E0.01840
G1 X93.232 Y108.249 E0.03309
G1 X93.518 Y108.898 E0.02222
G1 X94.169 Y109.855 E0.03632
G1 X96.027 Y111.717 E0.08246
G1 X96.807 Y111.966 F10800.000
G1 F1200.000
G1 X94.454 Y109.608 E0.10445
G1 X93.851 Y108.722 E0.03361
G1 X93.441 Y107.679 E0.03514
G1 X93.287 Y106.634 E0.03311
G1 X93.287 Y100.390 E0.19576
G1 X93.357 Y99.702 E0.02169
G1 X93.579 Y98.898 E0.02615
G1 X93.935 Y98.124 E0.02673
G1 X94.178 Y97.745 E0.01412
G1 X94.610 Y97.224 E0.02120
G1 X96.787 Y95.048 E0.09651
G1 X97.203 Y94.707 E0.01686
G1 X97.712 Y94.396 E0.01872
G1 X98.741 Y94.014 E0.03440
G1 X99.160 Y93.927 E0.01342
G1 X99.940 Y93.882 E0.02449
G1 X101.591 Y94.164 E0.05254
G1 X102.500 Y94.572 E0.03124
G1 X103.140 Y94.259 E0.02234
G1 X103.746 Y94.074 E0.01986
G1 X105.199 Y93.879 E0.04598
M73 Q1 S37
G1 X106.178 Y93.993 E0.03090
G1 X106.870 Y94.209 E0.02273
G1 X107.365 Y94.437 E0.01708
M73 P1 R37
G1 X107.894 Y94.778 E0.01974
G1 X110.521 Y97.364 E0.11558
G1 X110.964 Y97.958 E0.02324
G1 X111.279 Y98.555 E0.02117
G1 X111.564 Y99.341 E0.02619
G1 X111.702 Y100.149 E0.02571
G1 X111.712 Y103.517 E0.10559
G1 X111.336 Y104.007 E0.01937
G1 X111.331 Y100.255 E0.11765
G1 X111.234 Y99.582 E0.02132
G1 X110.889 Y98.604 E0.03252
G1 X110.289 Y97.671 E0.03476
G1 X107.983 Y95.351 E0.10256
G1 X107.519 Y94.973 E0.01875
G1 X106.818 Y94.594 E0.02501
G1 X106.142 Y94.373 E0.02230
G1 X105.198 Y94.256 E0.02982
G1 X103.740 Y94.462 E0.04616
G1 X103.033 Y94.715 E0.02354
G1 X102.500 Y95.023 E0.01929
G1 X102.136 Y94.799 E0.01339
G1 X101.469 Y94.521 E0.02266
G1 X100.278 Y94.289 E0.03806
G1 X99.335 Y94.284 E0.02955
G1 X98.289 Y94.553 E0.03388
G1 X97.420 Y95.015 E0.03086
G1 X97.047 Y95.321 E0.01510
G1 X94.694 Y97.692 E0.10473
G1 X94.250 Y98.334 E0.02450
G1 X93.807 Y99.414 E0.03660
G1 X93.664 Y100.395 E0.03108
G1 X93.699 Y107.056 E0.20884
G1 X93.933 Y107.972 E0.02964
G1 X94.184 Y108.545 E0.01963
G1 X94.747 Y109.369 E0.03129
G1 X100.022 Y114.654 E0.23414
G1 X100.470 Y115.020 E0.01813
G1 X101.044 Y115.360 E0.02092
G1 X102.034 Y115.723 E0.03306
G1 X102.928 Y115.836 E0.02825
G1 X106.506 Y115.836 E0.11220
G1 X106.989 Y115.459 E0.01920
G1 X102.531 Y115.432 E0.13978
G1 X101.706 Y115.231 E0.02661
G1 X101.159 Y114.996 E0.01867
G1 X100.385 Y114.475 E0.02926
G1 X95.122 Y109.220 E0.23318
G1 X94.600 Y108.519 E0.02741
G1 X94.275 Y107.811 E0.02443
G1 X94.063 Y106.922 E0.02866
G1 X94.041 Y106.576 E0.01085
G1 X94.043 Y100.323 E0.19606
G1 X94.081 Y99.938 E0.01213
G1 X94.269 Y99.205 E0.02374
G1 X94.597 Y98.486 E0.02477
G1 X95.081 Y97.823 E0.02575
G1 X97.287 Y95.614 E0.09786
G1 X98.020 Y95.087 E0.02832
G1 X98.920 Y94.747 E0.03019
G1 X99.828 Y94.633 E0.02866
G1 X101.052 Y94.803 E0.03877
G1 X101.982 Y95.145 E0.03107
G1 X102.500 Y95.493 E0.01957
G1 X103.073 Y95.115 E0.02151
G1 X103.764 Y94.845 E0.02329
G1 X104.899 Y94.647 E0.03611
M73 P1 R36
G1 X105.633 Y94.660 E0.02302
G1 X106.085 Y94.748 E0.01443
G1 X106.739 Y94.970 E0.02166
G1 X107.261 Y95.255 E0.01863
G1 X107.649 Y95.553 E0.01536
G1 X110.012 Y97.928 E0.10506
G1 X110.424 Y98.523 E0.02268
G1 X110.739 Y99.227 E0.02418
G1 X110.901 Y99.841 E0.01991
G1 X110.957 Y100.331 E0.01546
G1 X110.959 Y104.489 E0.13038
G1 X110.582 Y104.778 E0.01490
G1 X110.581 Y100.369 E0.13826
G1 X110.406 Y99.417 E0.03033
G1 X110.227 Y98.971 E0.01506
G1 X109.724 Y98.171 E0.02965
G1 X107.413 Y95.849 E0.10272
G1 X107.031 Y95.556 E0.01509
G1 X106.461 Y95.264 E0.02007
G1 X105.535 Y95.029 E0.02996
G1 X104.825 Y95.036 E0.02225
G1 X103.617 Y95.287 E0.03872
G1 X103.062 Y95.554 E0.01929
G1 X102.500 Y95.973 E0.02198
G1 X101.683 Y95.415 E0.03101
G1 X100.949 Y95.167 E0.02430
G1 X99.826 Y95.010 E0.03557
G1 X99.015 Y95.112 E0.02563
G1 X98.198 Y95.419 E0.02734
G1 X97.785 Y95.683 E0.01538
G1 X95.359 Y98.078 E0.10688
G1 X95.004 Y98.543 E0.01836
G1 X94.788 Y98.938 E0.01411
G1 X94.529 Y99.632 E0.02322
G1 X94.420 Y100.341 E0.02250
G1 X94.418 Y106.574 E0.19544
G1 X94.551 Y107.447 E0.02767
G1 X94.796 Y108.079 E0.02126
G1 X95.095 Y108.593 E0.01866
G1 X95.394 Y108.960 E0.01482
G1 X100.632 Y114.190 E0.23208
G1 X101.349 Y114.670 E0.02707
G1 X102.237 Y114.996 E0.02965
G1 X102.929 Y115.082 E0.02186
G1 X107.278 Y115.082 E0.13638
G1 X107.567 Y114.705 E0.01490
G1 X102.929 Y114.705 E0.14544
G1 X102.085 Y114.564 E0.02683
G1 X101.575 Y114.360 E0.01723
G1 X101.120 Y114.094 E0.01652
G1 X100.798 Y113.831 E0.01305
G1 X95.602 Y108.629 E0.23051
G1 X95.168 Y107.985 E0.02436
G1 X94.871 Y107.177 E0.02696
G1 X94.795 Y106.581 E0.01887
G1 X94.795 Y100.411 E0.19346
G1 X94.838 Y99.990 E0.01326
G1 X94.976 Y99.469 E0.01689
G1 X95.237 Y98.886 E0.02004
G1 X95.576 Y98.401 E0.01856
G1 X97.829 Y96.139 E0.10008
G1 X98.438 Y95.719 E0.02320
G1 X99.231 Y95.447 E0.02630
G1 X100.010 Y95.396 E0.02447
G1 X101.169 Y95.612 E0.03698
G1 X101.819 Y95.927 E0.02264
G1 X102.500 Y96.511 E0.02813
G1 X102.839 Y96.182 E0.01481
G1 X103.512 Y95.740 E0.02526
G1 X104.005 Y95.562 E0.01642
G1 X104.990 Y95.396 E0.03132
G1 X105.620 Y95.419 E0.01976
G1 X106.278 Y95.600 E0.02142
G1 X106.677 Y95.781 E0.01373
G1 X107.151 Y96.120 E0.01826
G1 X109.428 Y98.406 E0.10117
G1 X109.772 Y98.902 E0.01892
G1 X110.058 Y99.566 E0.02268
G1 X110.204 Y100.381 E0.02598
G1 X110.205 Y105.068 E0.14693
G1 X109.828 Y105.357 E0.01490
G1 X109.828 Y100.411 E0.15507
G1 X109.705 Y99.700 E0.02261
G1 X109.443 Y99.087 E0.02090
G1 X109.140 Y98.649 E0.01671
G1 X106.914 Y96.415 E0.09888
G1 X106.367 Y96.044 E0.02074
G1 X105.594 Y95.797 E0.02545
G1 X105.022 Y95.772 E0.01795
G1 X104.179 Y95.910 E0.02679
G1 X103.669 Y96.083 E0.01689
G1 X103.356 Y96.265 E0.01135
G1 X102.868 Y96.664 E0.01975
G1 X102.500 Y97.173 E0.01970
G1 X102.004 Y96.541 E0.02518
G1 X101.558 Y96.207 E0.01748
G1 X101.168 Y96.013 E0.01365
G1 X99.992 Y95.773 E0.03764
G1 X99.318 Y95.814 E0.02118
G1 X98.623 Y96.048 E0.02300
G1 X98.088 Y96.413 E0.02030
G1 X95.874 Y98.632 E0.09828
G1 X95.565 Y99.071 E0.01682
G1 X95.325 Y99.613 E0.01859
G1 X95.172 Y100.424 E0.02587
G1 X95.172 Y106.575 E0.19287
G1 X95.326 Y107.392 E0.02605
G1 X95.716 Y108.164 E0.02713
G1 X101.060 Y113.559 E0.23811
G1 X101.736 Y114.019 E0.02562
G1 X102.197 Y114.204 E0.01559
G1 X102.929 Y114.328 E0.02329
G1 X107.857 Y114.328 E0.15449
G1 X108.019 Y113.951 E0.01287
G1 X102.930 Y113.951 E0.15956
G1 X102.309 Y113.844 E0.01975
G1 X101.895 Y113.678 E0.01399
G1 X101.316 Y113.283 E0.02197
G1 X96.165 Y108.128 E0.22849
G1 X95.822 Y107.603 E0.01968
G1 X95.664 Y107.215 E0.01313
G1 X95.549 Y106.570 E0.02054
G1 X95.549 Y100.421 E0.19280
G1 X95.667 Y99.774 E0.02061
G1 X95.890 Y99.263 E0.01747
G1 X96.159 Y98.879 E0.01472
G1 X98.347 Y96.687 E0.09712
G1 X98.788 Y96.387 E0.01670
G1 X99.393 Y96.183 E0.02001
G1 X99.930 Y96.146 E0.01689
G1 X100.757 Y96.282 E0.02626
G1 X101.339 Y96.514 E0.01967
G1 X101.761 Y96.829 E0.01651
G1 X102.028 Y97.126 E0.01251
G1 X102.500 Y98.043 E0.03234
G1 X102.982 Y97.113 E0.03286
G1 X103.243 Y96.826 E0.01216
G1 X103.734 Y96.472 E0.01896
G1 X103.985 Y96.358 E0.00865
G1 X104.986 Y96.156 E0.03203
G1 X105.497 Y96.163 E0.01601
G1 X106.212 Y96.387 E0.02351
G1 X106.603 Y96.641 E0.01461
G1 X108.783 Y98.816 E0.09655
G1 X109.189 Y99.421 E0.02283
G1 X109.368 Y99.889 E0.01573
G1 X109.446 Y100.319 E0.01370
G1 X109.450 Y105.519 E0.16304
G1 X109.074 Y105.675 E0.01279
G1 X109.072 Y100.371 E0.16631
G1 X109.006 Y99.993 E0.01203
G1 X108.846 Y99.577 E0.01399
G1 X108.528 Y99.095 E0.01807
G1 X106.359 Y96.929 E0.09613
G1 X106.048 Y96.727 E0.01162
G1 X105.400 Y96.531 E0.02121
G1 X105.097 Y96.523 E0.00952
G1 X104.265 Y96.663 E0.02644
G1 X103.921 Y96.800 E0.01163
G1 X103.524 Y97.082 E0.01527
G1 X103.198 Y97.467 E0.01581
G1 X102.500 Y98.913 E0.05035
G1 X101.802 Y97.467 E0.05035
G1 X101.484 Y97.089 E0.01546
G1 X101.079 Y96.800 E0.01562
G1 X100.745 Y96.666 E0.01128
G1 X99.914 Y96.523 E0.02644
G1 X99.544 Y96.538 E0.01163
G1 X99.024 Y96.694 E0.01702
G1 X98.608 Y96.959 E0.01546
G1 X96.444 Y99.126 E0.09602
G1 X96.221 Y99.444 E0.01218
G1 X96.023 Y99.900 E0.01558
G1 X95.926 Y100.431 E0.01693
G1 X95.926 Y106.569 E0.19244
G1 X96.021 Y107.096 E0.01678
G1 X96.164 Y107.445 E0.01182
G1 X96.447 Y107.877 E0.01621
G1 X101.582 Y113.015 E0.22776
G1 X102.055 Y113.336 E0.01793
G1 X102.418 Y113.483 E0.01226
G1 X102.931 Y113.574 E0.01635
G1 X108.175 Y113.574 E0.16442
G1 X108.335 Y113.188 E0.01309
G1 X102.814 Y113.187 E0.17311
G1 X102.215 Y112.994 E0.01973
G1 X101.847 Y112.747 E0.01389
G1 X96.747 Y107.646 E0.22617
G1 X96.506 Y107.285 E0.01360
G1 X96.379 Y106.975 E0.01052
G1 X96.303 Y106.566 E0.01303
G1 X96.303 Y100.434 E0.19229
G1 X96.379 Y100.025 E0.01303
G1 X96.552 Y99.624 E0.01370
G1 X96.728 Y99.374 E0.00957
G1 X98.871 Y97.230 E0.09505
G1 X99.175 Y97.040 E0.01125
G1 X99.609 Y96.910 E0.01421
G1 X99.901 Y96.901 E0.00916
G1 X100.708 Y97.048 E0.02572
G1 X100.972 Y97.175 E0.00916
G1 X101.325 Y97.458 E0.01420
G1 X101.486 Y97.675 E0.00846
G1 X102.265 Y99.294 E0.05635
G1 X102.500 Y100.066 E0.02528
G1 X102.735 Y99.295 E0.02528
G1 X103.514 Y97.675 E0.05635
G1 X103.675 Y97.458 E0.00846
G1 X104.028 Y97.175 E0.01420
G1 X104.270 Y97.056 E0.00846
G1 X105.099 Y96.901 E0.02642
G1 X105.479 Y96.928 E0.01195
G1 X106.060 Y97.173 E0.01976
G1 X108.272 Y99.374 E0.09786
G1 X108.609 Y99.990 E0.02200
G1 X108.695 Y100.397 E0.01303
G1 X108.697 Y105.831 E0.17041
G1 X108.320 Y105.949 E0.01238
G1 X108.320 Y100.438 E0.17279
G1 X108.259 Y100.130 E0.00985
G1 X107.989 Y99.624 E0.01797
G1 X105.871 Y97.504 E0.09397
G1 X105.375 Y97.291 E0.01692
G1 X105.151 Y97.275 E0.00705
G1 X104.409 Y97.407 E0.02361
G1 X103.991 Y97.674 E0.01556
G1 X103.849 Y97.848 E0.00705
G1 X103.060 Y99.494 E0.05721
G1 X102.874 Y100.121 E0.02051
G1 X102.791 Y100.713 E0.01874
G1 X102.799 Y101.396 E0.02143
G1 X102.897 Y101.975 E0.01840
G1 X103.102 Y102.611 E0.02095
G1 X103.363 Y103.170 E0.01935
G1 X103.422 Y103.552 E0.01210
G1 X103.389 Y103.756 E0.00647
G1 X103.280 Y104.000 E0.00838
G1 X103.015 Y104.270 E0.01185
G1 X102.497 Y104.454 E0.01724
G1 X102.198 Y104.376 E0.00971
G1 X101.860 Y104.171 E0.01239
G1 X101.720 Y104.000 E0.00692
G1 X101.573 Y103.539 E0.01518
G1 X101.629 Y103.186 E0.01119
G1 X102.072 Y102.101 E0.03677
G1 X102.200 Y101.400 E0.02234
G1 X102.207 Y100.698 E0.02200
G1 X102.127 Y100.124 E0.01817
G1 X101.968 Y99.568 E0.01814
G1 X101.041 Y97.706 E0.06523
G1 X100.591 Y97.407 E0.01695
G1 X99.669 Y97.282 E0.02916
G1 X99.321 Y97.387 E0.01140
G1 X99.129 Y97.504 E0.00705
G1 X97.011 Y99.624 E0.09397
G1 X96.735 Y100.148 E0.01854
G1 X96.680 Y100.438 E0.00927
G1 X96.689 Y106.654 E0.19489
M73 P2 R36
G1 X96.849 Y107.128 E0.01569
G1 X97.023 Y107.390 E0.00985
G1 X102.110 Y112.477 E0.22559
M73 Q2 S37
G1 X102.372 Y112.651 E0.00985
G1 X102.864 Y112.813 E0.01626
G1 X108.450 Y112.813 E0.17513
G1 X108.499 Y112.439 E0.01183
G1 X102.911 Y112.439 E0.17523
G1 X102.524 Y112.307 E0.01280
