; generated by Slic3r Prusa Edition 1.42.0-beta2+linux64 on 2019-06-18 at 12:08:45

; 

; external perimeters extrusion width = 0.45mm
; perimeters extrusion width = 0.45mm
; infill extrusion width = 0.45mm
; solid infill extrusion width = 0.45mm
; top infill extrusion width = 0.40mm
; support material extrusion width = 0.35mm
; first layer extrusion width = 0.42mm

M73 P0 R91
M73 Q0 S92
M201 X1000 Y1000 Z1000 E5000 ; sets maximum accelerations, mm/sec^2
M203 X200 Y200 Z12 E120 ; sets maximum feedrates, mm/sec
M204 P1250 R1250 T1250 ; sets acceleration (P, T) and retract acceleration (R), mm/sec^2
M205 X8.00 Y8.00 Z0.40 E1.50 ; sets the jerk limits, mm/sec
M205 S0 T0 ; sets the minimum extruding and travel feed rate, mm/sec
M107
M115 U3.6.0 ; tell printer latest fw version
M83  ; extruder relative mode
M104 S215 ; set extruder temp
M140 S60 ; set bed temp
M190 S60 ; wait for bed temp
M109 S215 ; wait for extruder temp
G28 W ; home all without mesh bed level
G80 ; mesh bed leveling
G1 Y-3.0 F1000.0 ; go outside print area
G92 E0.0
G1 X60.0 E9.0  F1000.0 ; intro line
M73 Q0 S92
M73 P0 R91
G1 X100.0 E12.5  F1000.0 ; intro line
G92 E0.0
M221 S95
M900 K30 ; Filament gcode
G21 ; set units to millimeters
G90 ; use absolute coordinates
M83 ; use relative distances for extrusion
;BEFORE_LAYER_CHANGE
G92 E0.0
;0.2


G1 E-0.80000 F2100.00000
G1 Z0.600 F10800.000
;AFTER_LAYER_CHANGE
;0.2
G1 X104.476 Y86.666
G1 Z0.200
G1 E0.80000 F2100.00000
M204 S1000
G1 F1200
G1 X104.918 Y85.987 E0.02541
G1 X105.897 Y85.110 E0.04121
G1 X106.396 Y84.896 E0.01703
G1 X106.933 Y84.812 E0.01703
G1 X143.504 Y84.811 E1.14664
G1 X144.320 Y84.971 E0.02608
G1 X145.018 Y85.424 E0.02608
G1 X145.497 Y86.104 E0.02608
G1 X145.687 Y86.914 E0.02608
G1 X145.688 Y123.037 E1.13260
G1 X145.524 Y123.834 E0.02552
G1 X145.082 Y124.513 E0.02541
G1 X144.363 Y125.011 E0.02743
G1 X143.502 Y125.189 E0.02754
G1 X106.963 Y125.188 E1.14565
G1 X106.166 Y125.024 E0.02552
G1 X105.487 Y124.582 E0.02541
G1 X104.601 Y123.587 E0.04177
G1 X104.388 Y123.075 E0.01737
G1 X104.312 Y122.530 E0.01726
G1 X104.312 Y87.463 E1.09950
G1 X104.464 Y86.725 E0.02364
G1 F8640
G1 X104.918 Y85.987 E-0.20007
G1 X105.897 Y85.110 E-0.30348
G1 X106.396 Y84.896 E-0.12542
G1 X106.933 Y84.812 E-0.12542
G1 X106.957 Y84.812 E-0.00561
G1 E-0.04000 F2100.00000
G1 Z0.800 F10800.000
G1 X108.241 Y116.341
G1 Z0.200
G1 E0.80000 F2100.00000
G1 F1200
G1 X109.159 Y116.341 E0.02877
G1 X109.159 Y118.556 E0.06943
G1 X111.944 Y121.341 E0.12352
G1 X126.756 Y121.341 E0.46439
G1 X128.756 Y119.341 E0.08868
G1 X129.859 Y119.341 E0.03459
G1 X129.859 Y121.341 E0.06271
G1 X142.159 Y121.341 E0.38566
G1 X142.159 Y121.659 E0.00996
G1 X108.241 Y121.659 E1.06346
G1 X108.241 Y116.401 E0.16485
G1 F8640
G1 X109.159 Y116.341 E-0.21231
G1 X109.159 Y118.556 E-0.51129
G1 X109.270 Y118.667 E-0.03639
G1 E-0.04000 F2100.00000
G1 Z0.800 F10800.000
G1 X109.536 Y118.399
G1 Z0.200
G1 E0.80000 F2100.00000
G1 F1200
G1 X112.101 Y120.964 E0.11373
G1 X126.599 Y120.964 E0.45460
G1 X128.599 Y118.964 E0.08868
G1 X130.236 Y118.964 E0.05131
G1 X130.236 Y120.964 E0.06271
G1 X142.464 Y120.964 E0.38341
G1 X142.464 Y120.328 E0.01996
G1 X142.536 Y120.399 E0.00318
G1 X142.536 Y122.036 E0.05131
G1 X107.864 Y122.036 E1.08711
G1 X107.864 Y115.964 E0.19037
G1 X109.536 Y115.964 E0.05241
G1 X109.536 Y118.339 E0.07447
G1 X109.913 Y118.243 F10800.000
G1 F1200
G1 X112.257 Y120.587 E0.10393
G1 X126.443 Y120.587 E0.44480
G1 X128.443 Y118.587 E0.08868
G1 X130.613 Y118.587 E0.06803
G1 X130.613 Y120.587 E0.06271
G1 X142.087 Y120.587 E0.35976
G1 X142.087 Y119.417 E0.03668
G1 X142.913 Y120.243 E0.03662
G1 X142.913 Y122.413 E0.06803
G1 X107.487 Y122.413 E1.11075
G1 X107.487 Y115.587 E0.21402
G1 X109.913 Y115.587 E0.07606
G1 X109.913 Y118.183 E0.08140
G1 X110.290 Y118.087 F10800.000
G1 F1200
G1 X112.413 Y120.210 E0.09414
G1 X126.287 Y120.210 E0.43501
G1 X128.287 Y118.210 E0.08868
G1 X130.990 Y118.210 E0.08475
G1 X130.990 Y120.210 E0.06271
G1 X141.710 Y120.210 E0.33612
G1 X141.710 Y118.507 E0.05340
G1 X143.290 Y120.087 E0.07006
G1 X143.290 Y122.790 E0.08475
G1 X107.110 Y122.790 E1.13440
G1 X107.110 Y115.210 E0.23767
G1 X110.290 Y115.210 E0.09971
G1 X110.290 Y118.027 E0.08832
G1 X110.193 Y118.475 F10800.000
G1 F8640
G1 X112.413 Y120.210 E-0.70313
G1 X112.659 Y120.210 E-0.05687
G1 E-0.04000 F2100.00000
G1 Z0.800 F10800.000
G1 X109.046 Y117.295
G1 Z0.200
G1 E0.80000 F2100.00000
G1 F1200
G1 X108.524 Y116.774 E0.02541
G1 X108.524 Y117.360 E0.02018
G1 X108.876 Y117.712 E0.01714
G1 X108.876 Y118.297 E0.02018
G1 X108.524 Y117.945 E0.01714
G1 X108.524 Y118.531 E0.02018
G1 X111.369 Y121.376 E0.13857
G1 X110.783 Y121.376 E0.02018
G1 X108.524 Y119.117 E0.11003
G1 X108.524 Y119.703 E0.02018
G1 X110.197 Y121.376 E0.08150
G1 X109.611 Y121.376 E0.02018
G1 X108.524 Y120.289 E0.05297
G1 X108.524 Y120.874 E0.02018
G1 X109.195 Y121.546 E0.03270
G1 F8640
G1 X108.524 Y120.874 E-0.21919
G1 X108.524 Y120.289 E-0.13526
G1 X109.611 Y121.376 E-0.35507
G1 X109.830 Y121.376 E-0.05047
G1 E-0.04000 F2100.00000
G1 Z0.800 F10800.000
G1 X127.115 Y121.142
G1 Z0.200
G1 E0.80000 F2100.00000
G1 F1200
G1 X127.348 Y121.376 E0.01129
G1 X127.929 Y121.376 E0.01984
G1 X127.525 Y120.972 E0.01952
G1 X127.815 Y120.681 E0.01403
G1 X128.510 Y121.376 E0.03355
G1 X129.091 Y121.376 E0.01984
G1 X128.106 Y120.391 E0.04758
G1 X128.396 Y120.100 E0.01403
G1 X129.576 Y121.280 E0.05698
G1 X129.576 Y120.699 E0.01984
G1 X128.687 Y119.810 E0.04295
G1 X128.873 Y119.624 E0.00898
G1 X129.082 Y119.624 E0.00714
G1 X129.746 Y120.288 E0.03207
G1 F8640
G1 X129.082 Y119.624 E-0.21683
G1 X128.873 Y119.624 E-0.04825
G1 X128.687 Y119.810 E-0.06072
G1 X129.576 Y120.699 E-0.29038
G1 X129.576 Y121.280 E-0.13413
G1 X129.546 Y121.250 E-0.00969
G1 E-0.04000 F2100.00000
G1 Z0.800 F10800.000
G1 X109.159 Y101.659
G1 Z0.200
G1 E0.80000 F2100.00000
G1 F1200
G1 X108.241 Y101.659 E0.02877
G1 X108.241 Y88.341 E0.41756
G1 X142.159 Y88.341 E1.06346
G1 X142.159 Y88.659 E0.00996
G1 X129.859 Y88.659 E0.38566
G1 X129.859 Y90.659 E0.06271
G1 X128.756 Y90.659 E0.03459
G1 X126.756 Y88.659 E0.08868
G1 X111.944 Y88.659 E0.46439
G1 X109.159 Y91.444 E0.12352
G1 X109.159 Y101.599 E0.31838
G1 F8640
G1 X108.241 Y101.659 E-0.21231
G1 X108.241 Y99.287 E-0.54769
G1 E-0.04000 F2100.00000
G1 Z0.800 F10800.000
G1 X142.464 Y89.036
G1 Z0.200
G1 E0.80000 F2100.00000
G1 F1200
G1 X130.236 Y89.036 E0.38341
G1 X130.236 Y91.036 E0.06271
G1 X128.599 Y91.036 E0.05131
G1 X126.599 Y89.036 E0.08868
G1 X112.101 Y89.036 E0.45460
G1 X109.536 Y91.601 E0.11373
G1 X109.536 Y102.036 E0.32719
G1 X107.864 Y102.036 E0.05241
G1 X107.864 Y87.964 E0.44121
G1 X142.536 Y87.964 E1.08711
G1 X142.536 Y89.601 E0.05131
G1 X142.464 Y89.672 E0.00318
G1 X142.464 Y89.096 E0.01808
G1 X142.087 Y89.413 F10800.000
G1 F1200
G1 X130.613 Y89.413 E0.35976
G1 X130.613 Y91.413 E0.06271
G1 X128.443 Y91.413 E0.06803
G1 X126.443 Y89.413 E0.08868
G1 X112.257 Y89.413 E0.44480
G1 X109.913 Y91.757 E0.10393
G1 X109.913 Y102.413 E0.33411
G1 X107.487 Y102.413 E0.07606
G1 X107.487 Y87.587 E0.46485
G1 X142.913 Y87.587 E1.11075
G1 X142.913 Y89.757 E0.06803
G1 X142.087 Y90.583 E0.03662
G1 X142.087 Y89.473 E0.03480
G1 X141.710 Y89.790 F10800.000
G1 F1200
G1 X130.990 Y89.790 E0.33612
G1 X130.990 Y91.790 E0.06271
G1 X128.287 Y91.790 E0.08475
G1 X126.287 Y89.790 E0.08868
G1 X112.413 Y89.790 E0.43501
G1 X110.290 Y91.913 E0.09414
G1 X110.290 Y102.790 E0.34104
G1 X107.110 Y102.790 E0.09971
G1 X107.110 Y87.210 E0.48850
G1 X143.290 Y87.210 E1.13440
G1 X143.290 Y89.913 E0.08475
G1 X141.710 Y91.493 E0.07006
G1 X141.710 Y89.850 E0.05152
G1 X141.519 Y89.439 F10800.000
G1 F8640
G1 X138.419 Y89.832 E-0.76000
G1 E-0.04000 F2100.00000
G1 Z0.800 F10800.000
G1 X129.746 Y89.346
G1 Z0.200
G1 E0.80000 F2100.00000
G1 F1200
G1 X129.023 Y88.624 E0.03723
G1 X128.404 Y88.624 E0.02259
G1 X129.576 Y89.796 E0.06042
G1 X129.576 Y90.376 E0.02112
G1 X129.536 Y90.376 E0.00147
G1 X127.784 Y88.624 E0.09029
G1 X127.164 Y88.624 E0.02259
G1 X129.086 Y90.546 E0.09903
G1 F8640
G1 X127.164 Y88.624 E-0.62750
G1 X127.738 Y88.624 E-0.13250
G1 E-0.04000 F2100.00000
G1 Z0.800 F10800.000
G1 X111.614 Y88.829
G1 Z0.200
G1 E0.80000 F2100.00000
G1 F1200
G1 X111.409 Y88.624 E0.00927
G1 X110.866 Y88.624 E0.01733
G1 X111.223 Y88.981 E0.01610
G1 X110.951 Y89.252 E0.01225
G1 X110.323 Y88.624 E0.02835
G1 X109.780 Y88.624 E0.01733
G1 X110.680 Y89.524 E0.04060
G1 X110.408 Y89.795 E0.01225
G1 X109.237 Y88.624 E0.05285
G1 X108.694 Y88.624 E0.01733
G1 X110.137 Y90.066 E0.06511
G1 X109.865 Y90.338 E0.01225
G1 X108.524 Y88.996 E0.06055
G1 X108.524 Y89.539 E0.01733
G1 X109.594 Y90.609 E0.04830
G1 X109.323 Y90.881 E0.01225
G1 X108.524 Y90.082 E0.03604
G1 X108.524 Y90.625 E0.01733
G1 X109.051 Y91.152 E0.02379
G1 X108.876 Y91.327 E0.00791
G1 X108.876 Y91.520 E0.00614
G1 X108.524 Y91.168 E0.01589
G1 X108.524 Y91.711 E0.01733
G1 X108.876 Y92.063 E0.01589
G1 X108.876 Y92.605 E0.01733
G1 X108.524 Y92.253 E0.01589
G1 X108.524 Y92.796 E0.01733
G1 X108.876 Y93.148 E0.01589
G1 X108.876 Y93.691 E0.01733
G1 X108.524 Y93.339 E0.01589
G1 X108.524 Y93.882 E0.01733
G1 X108.876 Y94.234 E0.01589
G1 X108.876 Y94.777 E0.01733
G1 X108.524 Y94.425 E0.01589
G1 X108.524 Y94.968 E0.01733
G1 X108.876 Y95.320 E0.01589
G1 X108.876 Y95.862 E0.01733
G1 X108.524 Y95.510 E0.01589
G1 X108.524 Y96.053 E0.01733
G1 X108.876 Y96.405 E0.01589
G1 X108.876 Y96.948 E0.01733
G1 X108.524 Y96.596 E0.01589
G1 X108.524 Y97.139 E0.01733
G1 X108.876 Y97.491 E0.01589
G1 X108.876 Y98.034 E0.01733
G1 X108.524 Y97.682 E0.01589
G1 X108.524 Y98.225 E0.01733
G1 X108.876 Y98.577 E0.01589
G1 X108.876 Y99.119 E0.01733
G1 X108.524 Y98.767 E0.01589
G1 X108.524 Y99.310 E0.01733
G1 X108.876 Y99.662 E0.01589
G1 X108.876 Y100.205 E0.01733
G1 X108.524 Y99.853 E0.01589
G1 X108.524 Y100.396 E0.01733
G1 X108.876 Y100.748 E0.01589
G1 X108.876 Y101.291 E0.01733
G1 X108.354 Y100.769 E0.02355
M106 S255
;BEFORE_LAYER_CHANGE
G92 E0.0
;0.4


G1 F8640
G1 X108.876 Y101.291 E-0.17034
G1 X108.876 Y100.748 E-0.12534
G1 X108.524 Y100.396 E-0.11493
G1 X108.524 Y99.853 E-0.12534
G1 X108.876 Y100.205 E-0.11493
G1 X108.876 Y99.733 E-0.10912
G1 E-0.04000 F2100.00000
G1 Z0.800 F10800.000
;AFTER_LAYER_CHANGE
;0.4
G1 X104.476 Y86.666
G1 Z0.400
G1 E0.80000 F2100.00000
G1 F3000
G1 X104.918 Y85.987 E0.02541
G1 X105.897 Y85.110 E0.04121
G1 X106.396 Y84.896 E0.01703
G1 X106.933 Y84.812 E0.01703
G1 X143.504 Y84.811 E1.14664
M73 Q1 S91
G1 X144.320 Y84.971 E0.02608
G1 X145.018 Y85.424 E0.02608
G1 X145.497 Y86.104 E0.02608
G1 X145.687 Y86.914 E0.02608
G1 X145.688 Y123.037 E1.13260
M73 P1 R90
G1 X145.524 Y123.834 E0.02552
G1 X145.082 Y124.513 E0.02541
G1 X144.363 Y125.011 E0.02743
G1 X143.502 Y125.189 E0.02754
G1 X106.963 Y125.188 E1.14565
G1 X106.166 Y125.024 E0.02552
G1 X105.487 Y124.582 E0.02541
G1 X104.601 Y123.587 E0.04177
G1 X104.388 Y123.075 E0.01737
G1 X104.312 Y122.530 E0.01726
G1 X104.312 Y87.463 E1.09950
G1 X104.464 Y86.725 E0.02364
G1 F8640
G1 X104.918 Y85.987 E-0.20007
G1 X105.897 Y85.110 E-0.30348
G1 X106.396 Y84.896 E-0.12542
G1 X106.933 Y84.812 E-0.12542
G1 X106.957 Y84.812 E-0.00561
G1 E-0.04000 F2100.00000
G1 Z1.000 F10800.000
G1 X108.146 Y116.446
G1 Z0.400
G1 E0.80000 F2100.00000
M204 S800
G1 F3600
G1 X109.054 Y116.446 E0.03072
G1 X109.054 Y118.599 E0.07287
G1 X111.901 Y121.446 E0.13629
G1 X126.799 Y121.446 E0.50428
G1 X128.799 Y119.446 E0.09574
G1 X129.754 Y119.446 E0.03232
G1 X129.754 Y121.446 E0.06770
G1 X142.054 Y121.446 E0.41634
G1 X142.054 Y121.554 E0.00364
G1 X108.146 Y121.554 E1.14773
G1 X108.146 Y116.506 E0.17085
M204 S1000
G1 F8640
G1 X109.054 Y116.446 E-0.21001
G1 X109.054 Y118.599 E-0.49709
G1 X109.216 Y118.761 E-0.05290
G1 E-0.04000 F2100.00000
G1 Z1.000 F10800.000
G1 X109.461 Y118.430
G1 Z0.400
G1 E0.80000 F2100.00000
M204 S800
G1 F3600
G1 X112.070 Y121.039 E0.12488
G1 X126.630 Y121.039 E0.49287
G1 X128.630 Y119.039 E0.09574
G1 X130.161 Y119.039 E0.05180
G1 X130.161 Y121.039 E0.06770
G1 X142.461 Y121.039 E0.41634
G1 X142.461 Y121.961 E0.03120
G1 X107.739 Y121.961 E1.17529
G1 X107.739 Y116.039 E0.20044
G1 X109.461 Y116.039 E0.05828
G1 X109.461 Y118.370 E0.07891
M204 S1000
G1 X109.868 Y118.262 F10800.000
M204 S800
G1 F3600
G1 X112.238 Y120.632 E0.11346
G1 X126.462 Y120.632 E0.48145
G1 X128.462 Y118.632 E0.09574
G1 X130.568 Y118.632 E0.07129
G1 X130.568 Y120.632 E0.06770
G1 X142.132 Y120.632 E0.39143
G1 X142.132 Y119.526 E0.03744
G1 X142.868 Y120.262 E0.03522
G1 X142.868 Y122.368 E0.07129
G1 X107.332 Y122.368 E1.20285
G1 X107.332 Y115.632 E0.22800
G1 X109.868 Y115.632 E0.08584
G1 X109.868 Y118.202 E0.08698
M204 S1000
G1 X110.275 Y118.093 F10800.000
M204 S800
G1 F2100
G1 X112.407 Y120.225 E0.10205
G1 X126.293 Y120.225 E0.47004
G1 X128.293 Y118.225 E0.09574
G1 X130.975 Y118.225 E0.09078
G1 X130.975 Y120.225 E0.06770
G1 X141.725 Y120.225 E0.36387
G1 X141.725 Y118.543 E0.05693
G1 X143.275 Y120.093 E0.07420
G1 X143.275 Y122.775 E0.09078
G1 X107.093 Y122.775 E1.22471
G1 X106.925 Y122.607 E0.00805
G1 X106.925 Y115.393 E0.24417
G1 X107.093 Y115.225 E0.00805
G1 X110.275 Y115.225 E0.10770
G1 X110.275 Y118.033 E0.09505
M204 S1000
G1 X110.178 Y118.481 F10800.000
G1 F8640
G1 X112.407 Y120.225 E-0.70600
G1 X112.641 Y120.225 E-0.05400
G1 E-0.04000 F2100.00000
G1 Z1.000 F10800.000
G1 X108.268 Y117.404
G1 Z0.400
G1 E0.80000 F2100.00000
M204 S1250
G1 F7439
G1 X108.748 Y116.924 E0.02334
G1 X108.748 Y117.509 E0.02009
G1 X108.452 Y117.806 E0.01443
G1 X108.452 Y118.391 E0.02009
G1 X108.748 Y118.094 E0.01443
G1 X108.748 Y118.678 E0.02009
G1 X108.452 Y118.975 E0.01443
G1 X108.452 Y119.560 E0.02009
G1 X109.017 Y118.994 E0.02749
G1 X109.309 Y119.286 E0.01421
G1 X108.452 Y120.144 E0.04170
G1 X108.452 Y120.729 E0.02009
G1 X109.602 Y119.579 E0.05591
G1 X109.894 Y119.871 E0.01421
G1 X108.517 Y121.248 E0.06696
G1 X109.101 Y121.248 E0.02009
G1 X110.186 Y120.163 E0.05275
G1 X110.479 Y120.456 E0.01421
G1 X109.686 Y121.248 E0.03854
G1 X110.270 Y121.248 E0.02009
G1 X110.771 Y120.748 E0.02433
G1 X111.063 Y121.040 E0.01421
G1 X110.672 Y121.432 E0.01903
M204 S1000
G1 F8640
G1 X111.063 Y121.040 E-0.12781
G1 X110.771 Y120.748 E-0.09545
G1 X110.270 Y121.248 E-0.16344
G1 X109.686 Y121.248 E-0.13499
G1 X110.416 Y120.519 E-0.23831
G1 E-0.04000 F2100.00000
G1 Z1.000 F10800.000
G1 X128.654 Y121.432
G1 Z0.400
G1 E0.80000 F2100.00000
M204 S1250
G1 F7439
G1 X129.448 Y120.637 E0.04482
G1 X129.448 Y119.959 E0.02708
G1 X128.159 Y121.248 E0.07279
G1 X127.480 Y121.248 E0.02708
G1 X129.160 Y119.568 E0.09482
M204 S1000
G1 F8640
G1 X127.480 Y121.248 E-0.54864
G1 X128.159 Y121.248 E-0.15671
G1 X128.326 Y121.081 E-0.05465
G1 E-0.04000 F2100.00000
G1 Z1.000 F10800.000
G1 X109.054 Y101.554
G1 Z0.400
G1 E0.80000 F2100.00000
M204 S800
G1 F3600
G1 X108.146 Y101.554 E0.03072
G1 X108.146 Y88.446 E0.44367
G1 X142.054 Y88.446 E1.14773
G1 X142.054 Y88.554 E0.00364
G1 X129.754 Y88.554 E0.41634
G1 X129.754 Y90.554 E0.06770
G1 X128.799 Y90.554 E0.03232
G1 X126.799 Y88.554 E0.09574
G1 X111.901 Y88.554 E0.50428
G1 X109.054 Y91.401 E0.13629
G1 X109.054 Y101.494 E0.34163
M204 S1000
G1 F8640
G1 X108.146 Y101.554 E-0.21001
G1 X108.146 Y99.172 E-0.54999
G1 E-0.04000 F2100.00000
G1 Z1.000 F10800.000
G1 X130.161 Y88.961
G1 Z0.400
G1 E0.80000 F2100.00000
M204 S800
G1 F3600
G1 X130.161 Y90.961 E0.06770
G1 X128.630 Y90.961 E0.05180
G1 X126.630 Y88.961 E0.09574
G1 X112.070 Y88.961 E0.49287
G1 X109.461 Y91.570 E0.12488
G1 X109.461 Y101.961 E0.35173
G1 X107.739 Y101.961 E0.05828
G1 X107.739 Y88.039 E0.47123
G1 X142.461 Y88.039 E1.17529
G1 X142.461 Y88.961 E0.03120
G1 X130.221 Y88.961 E0.41431
M204 S1000
G1 X130.568 Y89.368 F10800.000
M204 S800
G1 F3600
G1 X130.568 Y91.368 E0.06770
G1 X128.462 Y91.368 E0.07129
G1 X126.462 Y89.368 E0.09574
G1 X112.238 Y89.368 E0.48145
G1 X109.868 Y91.738 E0.11346
G1 X109.868 Y102.368 E0.35980
G1 X107.332 Y102.368 E0.08584
G1 X107.332 Y87.632 E0.49879
G1 X142.868 Y87.632 E1.20285
G1 X142.868 Y89.738 E0.07129
G1 X142.132 Y90.474 E0.03522
G1 X142.132 Y89.368 E0.03744
G1 X130.628 Y89.368 E0.38940
M204 S1000
G1 X130.975 Y89.775 F10800.000
M204 S800
G1 F2100
G1 X130.975 Y91.775 E0.06770
G1 X128.293 Y91.775 E0.09078
