; generated by SuperSlicer 2.3.55 on 2021-06-22 at 17:30:30 UTC

; 

; external perimeters extrusion width = 0.45mm
; perimeters extrusion width = 0.45mm
; infill extrusion width = 0.45mm
; solid infill extrusion width = 0.45mm
; top infill extrusion width = 0.40mm
; first layer extrusion width = 0.42mm

; object:{"name":"frontspacer","id":"frontspacer.STL id:0 copy 0","object_center":[125.000000,105.000000,0.000000],"boundingbox_center":[125.000000,105.000000,5.000000],"boundingbox_size":[54.000000,10.500000,10.000000]}
; Total objects to print: 1
M486 T1
; plater:{"center":[125.000000,105.000000,0.000000],"boundingbox_center":[125.000000,105.000000,5.000000],"boundingbox_size":[54.000000,10.500000,10.000000]}

M73 P0 R20
M73 Q0 S20
;TYPE:Custom
M862.3 P "MK3S" ; printer model check
M862.1 P0.4 ; nozzle diameter check
M115 U3.9.2 ; tell printer latest fw version
G90 ; use absolute coordinates
M83 ; extruder relative mode
M104 S215 ; set extruder temp
M140 S60 ; set bed temp
M190 S60 ; wait for bed temp
M109 S215 ; wait for extruder temp
G28 W ; home all without mesh bed level
G80 ; mesh bed leveling
G1 Y-3.0 F1000.0 ; go outside print area
G92 E0.0
G1 X60.0 E9.0 F1000.0 ; intro line
M73 P0 R19
G1 X100.0 E12.5 F1000.0 ; intro line
G92 E0.0
M221 S95

; Don't change E values below. Excessive value can damage the printer.

M107
G21 ; set units to millimeters
G90 ; use absolute coordinates
M83 ; use relative distances for extrusion
M900 K0.05 ; Filament gcode LA 1.5
M900 K30 ; Filament gcode LA 1.0
M107
;LAYER_CHANGE
;Z:0.2
;HEIGHT:0.2
;BEFORE_LAYER_CHANGE
;0.2


G1 E-0.80000 F2100.000
G1 Z0.400000 F10800.000
;AFTER_LAYER_CHANGE
;0.2
G1 X94.520 Y94.982
G1 Z0.200000
G1 E0.80000 F2100.000
;TYPE:Skirt
;WIDTH:0.42
G1 F1200.000
M204 P1000
G1 X95.163 Y94.343 E0.02843
G1 X95.887 Y93.786 E0.02864
G1 X96.676 Y93.325 E0.02864
G1 X97.511 Y92.970 E0.02843
G1 X98.656 Y92.670 E0.03713
G1 X99.842 Y92.562 E0.03734
G1 X150.107 Y92.561 E1.57600
G1 X151.417 Y92.683 E0.04127
G1 X152.690 Y93.044 E0.04148
G1 X153.875 Y93.632 E0.04148
G1 X154.932 Y94.428 E0.04148
G1 X155.826 Y95.403 E0.04148
G1 X156.525 Y96.526 E0.04148
G1 X157.005 Y97.752 E0.04127
G1 X157.254 Y99.051 E0.04148
G1 X157.288 Y110.363 E0.35467
G1 X157.221 Y111.234 E0.02740
G1 X157.049 Y112.091 E0.02740
G1 X156.774 Y112.920 E0.02740
G1 X156.401 Y113.710 E0.02740
G1 X155.935 Y114.449 E0.02740
G1 X155.382 Y115.126 E0.02740
G1 X154.751 Y115.731 E0.02740
G1 X154.052 Y116.255 E0.02740
G1 X153.294 Y116.690 E0.02740
G1 X152.489 Y117.030 E0.02740
G1 X151.337 Y117.331 E0.03734
M73 Q1 S20
G1 X150.151 Y117.438 E0.03734
G1 X99.371 Y117.419 E1.59219
M73 P1 R19
G1 X98.343 Y117.268 E0.03258
G1 X97.347 Y116.970 E0.03258
G1 X96.405 Y116.532 E0.03258
G1 X95.536 Y115.962 E0.03258
G1 X94.758 Y115.273 E0.03258
G1 X94.088 Y114.480 E0.03258
G1 X93.535 Y113.592 E0.03279
G1 X93.120 Y112.639 E0.03258
G1 X92.824 Y111.520 E0.03631
G1 X92.712 Y110.367 E0.03631
G1 X92.712 Y99.651 E0.33601
G1 X92.884 Y98.186 E0.04623
G1 X93.136 Y97.315 E0.02843
G1 X93.500 Y96.477 E0.02864
G1 X93.963 Y95.697 E0.02843
G1 X94.483 Y95.029 E0.02655
;WIPE_START
G1 F8640.000
G1 X95.163 Y94.343 E-0.22315
G1 X95.887 Y93.786 E-0.21092
G1 X96.676 Y93.325 E-0.21092
G1 X97.134 Y93.130 E-0.11500
;WIPE_END
G1 E-0.04000 F2100.000
G1 Z1.000000 F10800.000
G1 X94.432 Y100.930
G1 Z0.200000
G1 E0.80000 F2100.000
G1 F1200.000
G1 X94.432 Y99.614 E0.04127
G1 X94.550 Y98.637 E0.03086
G1 X94.724 Y98.037 E0.01959
G1 X95.034 Y97.319 E0.02453
G1 X95.392 Y96.733 E0.02153
G1 X95.786 Y96.245 E0.01967
G1 X96.454 Y95.582 E0.02949
G1 X96.924 Y95.214 E0.01872
G1 X97.560 Y94.838 E0.02318
G1 X98.369 Y94.512 E0.02734
G1 X99.455 Y94.297 E0.03472
G1 X101.080 Y94.282 E0.05094
;WIPE_START
G1 F8640.000
G1 X99.455 Y94.297 E-0.37513
G1 X98.369 Y94.512 E-0.25571
G1 X97.850 Y94.721 E-0.12916
;WIPE_END
G1 E-0.04000 F2100.000
G1 Z0.600000 F10800.000
G1 X102.178 Y94.659
G1 Z0.200000
G1 E0.80000 F2100.000
G1 F1200.000
G1 X99.772 Y94.659 E0.07545
G1 X99.166 Y94.711 E0.01907
G1 X98.497 Y94.867 E0.02153
G1 X97.726 Y95.177 E0.02607
G1 X97.135 Y95.526 E0.02151
G1 X96.672 Y95.894 E0.01856
G1 X96.063 Y96.501 E0.02696
G1 X95.701 Y96.949 E0.01804
G1 X95.360 Y97.510 E0.02058
G1 X95.078 Y98.167 E0.02243
M73 Q1 S19
G1 X94.914 Y98.735 E0.01853
G1 X94.809 Y99.616 E0.02781
G1 X94.809 Y102.028 E0.07563
G1 X95.187 Y102.765 F10800.000
G1 F1200.000
G1 X95.187 Y99.618 E0.09867
G1 X95.283 Y98.812 E0.02546
G1 X95.432 Y98.296 E0.01683
G1 X95.696 Y97.681 E0.02099
G1 X96.011 Y97.163 E0.01902
G1 X96.348 Y96.748 E0.01676
G1 X96.985 Y96.120 E0.02804
G1 X97.487 Y95.744 E0.01967
G1 X97.987 Y95.471 E0.01784
G1 X98.690 Y95.202 E0.02362
G1 X99.241 Y95.081 E0.01768
G1 X99.776 Y95.037 E0.01681
G1 X102.915 Y95.037 E0.09843
G1 X103.406 Y95.414 E0.01942
G1 X99.778 Y95.414 E0.11377
G1 X98.810 Y95.560 E0.03068
G1 X98.141 Y95.815 E0.02244
G1 X97.686 Y96.065 E0.01629
G1 X97.222 Y96.413 E0.01819
G1 X96.597 Y97.034 E0.02762
G1 X96.304 Y97.403 E0.01476
G1 X96.003 Y97.910 E0.01851
G1 X95.758 Y98.504 E0.02014
G1 X95.621 Y99.049 E0.01763
G1 X95.564 Y99.622 E0.01803
G1 X95.564 Y103.256 E0.11396
G1 X95.941 Y103.739 E0.01920
G1 X95.941 Y99.632 E0.12877
G1 X95.989 Y99.131 E0.01576
G1 X96.113 Y98.632 E0.01613
G1 X96.342 Y98.075 E0.01889
G1 X96.882 Y97.282 E0.03008
G1 X97.473 Y96.695 E0.02612
G1 X97.895 Y96.379 E0.01655
G1 X98.298 Y96.158 E0.01438
G1 X98.930 Y95.917 E0.02123
G1 X99.356 Y95.826 E0.01365
G1 X103.889 Y95.791 E0.14212
G1 X104.178 Y96.168 E0.01490
G1 X99.782 Y96.168 E0.13784
G1 X99.042 Y96.278 E0.02345
G1 X98.429 Y96.513 E0.02059
G1 X97.980 Y96.775 E0.01630
G1 X97.685 Y97.012 E0.01186
G1 X96.928 Y97.826 E0.03484
G1 X96.679 Y98.244 E0.01526
G1 X96.471 Y98.752 E0.01722
G1 X96.318 Y99.632 E0.02802
G1 X96.318 Y104.028 E0.13783
G1 X96.695 Y104.317 E0.01490
G1 X96.724 Y99.306 E0.15715
G1 X97.004 Y98.439 E0.02856
G1 X97.238 Y98.041 E0.01446
G1 X97.935 Y97.294 E0.03205
G1 X98.593 Y96.852 E0.02483
G1 X99.162 Y96.636 E0.01910
G1 X99.784 Y96.545 E0.01970
G1 X104.467 Y96.545 E0.14686
G1 X104.757 Y96.922 E0.01490
G1 X99.561 Y96.939 E0.16292
G1 X98.752 Y97.194 E0.02660
G1 X98.401 Y97.401 E0.01276
G1 X97.713 Y98.049 E0.02963
G1 X97.345 Y98.600 E0.02076
G1 X97.181 Y99.007 E0.01378
G1 X97.072 Y99.634 E0.01997
G1 X97.072 Y104.607 E0.15591
G1 X97.449 Y104.769 E0.01287
G1 X97.462 Y99.465 E0.16631
G1 X97.540 Y99.122 E0.01102
G1 X97.784 Y98.581 E0.01861
G1 X98.440 Y97.855 E0.03068
G1 X98.910 Y97.537 E0.01779
G1 X99.365 Y97.362 E0.01529
G1 X99.785 Y97.299 E0.01333
G1 X104.919 Y97.299 E0.16095
G1 X105.075 Y97.676 E0.01280
G1 X99.788 Y97.676 E0.16578
G1 X99.486 Y97.721 E0.00957
G1 X99.069 Y97.879 E0.01398
G1 X98.823 Y98.026 E0.00899
G1 X98.270 Y98.558 E0.02406
G1 X98.029 Y98.919 E0.01360
G1 X97.836 Y99.518 E0.01973
G1 X97.831 Y104.927 E0.16960
;WIPE_START
M73 P2 R19
M73 Q2 S19
G1 F8640.000
G1 X97.834 Y101.636 E-0.76000
;WIPE_END
G1 E-0.04000 F2100.000
G1 Z0.600000 F10800.000
G1 X94.809 Y107.972
G1 Z0.200000
G1 E0.80000 F2100.000
G1 F1200.000
G1 X94.809 Y110.378 E0.07545
G1 X94.861 Y110.984 E0.01907
G1 X95.017 Y111.653 E0.02153
G1 X95.337 Y112.444 E0.02675
G1 X95.724 Y113.084 E0.02345
G1 X96.617 Y114.054 E0.04134
G1 X97.519 Y114.715 E0.03506
G1 X98.253 Y115.048 E0.02527
G1 X98.850 Y115.228 E0.01956
G1 X99.561 Y115.333 E0.02255
G1 X102.195 Y115.333 E0.08258
G1 X102.922 Y114.958 F10800.000
G1 F1200.000
G1 X99.602 Y114.958 E0.10411
G1 X98.929 Y114.860 E0.02132
G1 X98.360 Y114.685 E0.01868
G1 X97.664 Y114.364 E0.02401
G1 X97.057 Y113.942 E0.02319
G1 X96.345 Y113.249 E0.03114
G1 X95.997 Y112.816 E0.01740
G1 X95.660 Y112.246 E0.02078
G1 X95.352 Y111.460 E0.02648
G1 X95.231 Y110.909 E0.01768
G1 X95.187 Y110.376 E0.01677
G1 X95.187 Y107.235 E0.09848
G1 X95.564 Y106.744 E0.01942
G1 X95.564 Y110.374 E0.11382
G1 X95.710 Y111.340 E0.03064
G1 X96.000 Y112.083 E0.02501
G1 X96.308 Y112.603 E0.01896
G1 X96.620 Y112.990 E0.01559
G1 X97.296 Y113.650 E0.02961
G1 X98.122 Y114.176 E0.03073
G1 X98.500 Y114.335 E0.01283
G1 X99.346 Y114.554 E0.02741
G1 X103.413 Y114.582 E0.12751
G1 X103.892 Y114.206 E0.01910
G1 X99.652 Y114.205 E0.13292
G1 X99.091 Y114.123 E0.01779
G1 X98.640 Y113.985 E0.01480
G1 X98.037 Y113.708 E0.02079
G1 X97.529 Y113.354 E0.01943
G1 X96.900 Y112.738 E0.02759
G1 X96.619 Y112.390 E0.01402
G1 X96.322 Y111.883 E0.01842
G1 X96.067 Y111.220 E0.02228
G1 X95.976 Y110.794 E0.01365
G1 X95.941 Y106.261 E0.14212
G1 X96.318 Y105.972 E0.01490
G1 X96.318 Y110.369 E0.13788
G1 X96.428 Y111.108 E0.02341
G1 X96.663 Y111.722 E0.02062
G1 X96.936 Y112.185 E0.01686
G1 X97.774 Y113.067 E0.03816
G1 X98.240 Y113.390 E0.01776
G1 X98.791 Y113.639 E0.01895
G1 X99.188 Y113.758 E0.01301
G1 X99.710 Y113.831 E0.01652
G1 X104.179 Y113.831 E0.14012
G1 X104.468 Y113.454 E0.01489
G1 X99.728 Y113.454 E0.14862
G1 X99.266 Y113.389 E0.01464
G1 X98.425 Y113.062 E0.02828
G1 X98.010 Y112.773 E0.01584
G1 X97.448 Y112.219 E0.02477
G1 X97.004 Y111.560 E0.02491
G1 X96.786 Y110.988 E0.01921
G1 X96.716 Y110.644 E0.01099
G1 X96.695 Y105.683 E0.15557
G1 X97.072 Y105.393 E0.01490
G1 X97.072 Y110.366 E0.15591
G1 X97.147 Y110.880 E0.01630
G1 X97.345 Y111.400 E0.01746
G1 X97.556 Y111.757 E0.01298
G1 X98.247 Y112.480 E0.03136
G1 X98.612 Y112.734 E0.01392
G1 X99.068 Y112.937 E0.01565
G1 X99.747 Y113.077 E0.02176
G1 X104.757 Y113.077 E0.15709
G1 X104.919 Y112.701 E0.01285
G1 X99.767 Y112.701 E0.16154
G1 X99.419 Y112.651 E0.01102
G1 X98.794 Y112.404 E0.02106
G1 X98.491 Y112.192 E0.01160
G1 X98.005 Y111.710 E0.02147
G1 X97.687 Y111.240 E0.01779
G1 X97.512 Y110.785 E0.01529
G1 X97.449 Y110.365 E0.01333
G1 X97.449 Y105.231 E0.16095
G1 X97.831 Y105.073 E0.01296
G1 X97.826 Y110.362 E0.16584
G1 X97.871 Y110.664 E0.00957
G1 X98.176 Y111.327 E0.02289
G1 X98.729 Y111.899 E0.02493
G1 X99.344 Y112.236 E0.02200
G1 X99.779 Y112.324 E0.01389
G1 X105.075 Y112.324 E0.16607
G1 X105.231 Y111.947 E0.01279
G1 X99.792 Y111.947 E0.17053
G1 X99.484 Y111.886 E0.00985
G1 X98.978 Y111.616 E0.01797
G1 X98.487 Y111.114 E0.02204
G1 X98.371 Y110.924 E0.00696
G1 X98.203 Y110.358 E0.01853
G1 X98.209 Y99.569 E0.33828
G1 X98.371 Y99.076 E0.01626
G1 X98.546 Y98.815 E0.00985
G1 X99.036 Y98.337 E0.02146
G1 X99.573 Y98.088 E0.01856
G1 X105.231 Y98.053 E0.17742
G1 X105.349 Y98.431 E0.01240
G1 X99.656 Y98.456 E0.17852
G1 X99.253 Y98.646 E0.01395
G1 X98.716 Y99.229 E0.02486
G1 X98.580 Y99.652 E0.01393
G1 X98.580 Y110.348 E0.33539
G1 X98.796 Y110.897 E0.01847
G1 X99.225 Y111.331 E0.01914
G1 X99.620 Y111.534 E0.01393
G1 X99.802 Y111.570 E0.00580
G1 X105.349 Y111.570 E0.17394
G1 X105.399 Y111.193 E0.01193
G1 X99.820 Y111.193 E0.17491
G1 X99.478 Y111.051 E0.01160
G1 X99.099 Y110.672 E0.01683
G1 X98.957 Y110.330 E0.01160
G1 X98.957 Y99.670 E0.33422
G1 X99.099 Y99.328 E0.01160
G1 X99.478 Y98.949 E0.01683
G1 X99.820 Y98.807 E0.01160
G1 X105.399 Y98.807 E0.17491
G1 X105.448 Y99.184 E0.01193
G1 X99.857 Y99.184 E0.17531
G1 X99.719 Y99.242 E0.00470
G1 X99.392 Y99.569 E0.01450
G1 X99.334 Y99.707 E0.00470
G1 X99.334 Y110.293 E0.33190
M73 P3 R19
G1 X99.392 Y110.431 E0.00470
G1 X99.719 Y110.758 E0.01450
G1 X99.857 Y110.816 E0.00470
G1 X105.448 Y110.816 E0.17531
M73 Q3 S19
G1 X105.498 Y110.439 E0.01193
G1 X99.932 Y110.439 E0.17451
G1 X99.711 Y110.218 E0.00979
G1 X99.711 Y99.782 E0.32719
G1 X99.932 Y99.561 E0.00979
G1 X105.498 Y99.561 E0.17451
;WIPE_START
G1 F8640.000
G1 X102.207 Y99.561 E-0.76000
;WIPE_END
G1 E-0.04000 F2100.000
G1 Z0.600000 F10800.000
G1 X94.433 Y109.069
G1 Z0.200000
G1 E0.80000 F2100.000
G1 F1200.000
G1 X94.433 Y110.398 E0.04166
G1 X94.492 Y111.066 E0.02103
G1 X94.770 Y112.083 E0.03306
G1 X94.999 Y112.612 E0.01805
G1 X95.417 Y113.303 E0.02534
G1 X96.357 Y114.328 E0.04361
G1 X97.337 Y115.045 E0.03807
G1 X98.118 Y115.400 E0.02689
G1 X98.770 Y115.597 E0.02135
G1 X99.537 Y115.709 E0.02432
G1 X101.140 Y115.710 E0.05026
;WIPE_START
G1 F8640.000
G1 X99.537 Y115.709 E-0.37015
G1 X98.770 Y115.597 E-0.17913
G1 X98.118 Y115.400 E-0.15726
G1 X97.907 Y115.304 E-0.05346
;WIPE_END
G1 E-0.04000 F2100.000
G1 Z0.600000 F10800.000
G1 X144.502 Y99.561
G1 Z0.200000
G1 E0.80000 F2100.000
G1 F1200.000
G1 X150.068 Y99.561 E0.17451
G1 X150.289 Y99.782 E0.00979
G1 X150.289 Y105.348 E0.17451
G1 X150.666 Y105.298 E0.01193
G1 X150.666 Y99.707 E0.17531
G1 X150.608 Y99.569 E0.00470
G1 X150.281 Y99.242 E0.01450
G1 X150.143 Y99.184 E0.00470
G1 X144.552 Y99.184 E0.17531
G1 X144.601 Y98.807 E0.01193
G1 X150.180 Y98.807 E0.17491
G1 X150.522 Y98.949 E0.01160
G1 X150.901 Y99.328 E0.01683
G1 X151.043 Y99.670 E0.01160
G1 X151.043 Y105.249 E0.17491
G1 X151.420 Y105.199 E0.01193
G1 X151.420 Y99.652 E0.17394
G1 X151.384 Y99.470 E0.00580
G1 X151.181 Y99.075 E0.01393
G1 X150.747 Y98.646 E0.01914
G1 X150.235 Y98.434 E0.01735
G1 X144.650 Y98.433 E0.17511
G1 X144.768 Y98.054 E0.01246
G1 X150.226 Y98.054 E0.17112
G1 X150.498 Y98.108 E0.00870
G1 X151.035 Y98.396 E0.01911
G1 X151.594 Y99.010 E0.02604
G1 X151.736 Y99.334 E0.01109
G1 X151.797 Y99.642 E0.00985
G1 X151.794 Y105.083 E0.17057
G1 X152.169 Y104.927 E0.01274
G1 X152.174 Y99.638 E0.16584
G1 X152.086 Y99.194 E0.01418
G1 X151.925 Y98.828 E0.01254
G1 X151.724 Y98.551 E0.01073
G1 X151.030 Y97.930 E0.02922
G1 X150.612 Y97.749 E0.01428
G1 X150.221 Y97.676 E0.01245
G1 X144.925 Y97.676 E0.16607
G1 X145.081 Y97.299 E0.01280
G1 X150.219 Y97.299 E0.16110
G1 X150.639 Y97.363 E0.01333
G1 X151.269 Y97.634 E0.02149
G1 X152.033 Y98.331 E0.03241
G1 X152.254 Y98.644 E0.01204
G1 X152.462 Y99.126 E0.01645
G1 X152.551 Y99.617 E0.01564
G1 X152.551 Y104.769 E0.16154
G1 X152.928 Y104.607 E0.01286
G1 X152.904 Y99.367 E0.16430
G1 X152.843 Y99.084 E0.00907
G1 X152.587 Y98.468 E0.02093
G1 X152.318 Y98.083 E0.01472
G1 X151.829 Y97.590 E0.02176
G1 X151.215 Y97.179 E0.02319
G1 X150.439 Y96.939 E0.02545
G1 X145.243 Y96.922 E0.16292
G1 X145.533 Y96.545 E0.01490
G1 X150.217 Y96.545 E0.14689
G1 X150.730 Y96.610 E0.01619
G1 X151.085 Y96.718 E0.01163
G1 X151.608 Y96.957 E0.01804
G1 X152.092 Y97.320 E0.01897
G1 X152.615 Y97.851 E0.02336
G1 X152.921 Y98.291 E0.01682
G1 X153.132 Y98.765 E0.01627
G1 X153.276 Y99.306 E0.01753
G1 X153.305 Y104.318 E0.15716
G1 X153.681 Y104.029 E0.01489
G1 X153.681 Y99.566 E0.13993
G1 X153.488 Y98.638 E0.02970
G1 X153.291 Y98.185 E0.01551
G1 X152.917 Y97.624 E0.02112
G1 X152.356 Y97.050 E0.02517
G1 X151.834 Y96.653 E0.02057
G1 X151.227 Y96.369 E0.02100
G1 X150.804 Y96.240 E0.01388
G1 X150.219 Y96.168 E0.01847
G1 X145.822 Y96.168 E0.13787
G1 X146.111 Y95.791 E0.01490
G1 X150.546 Y95.813 E0.13905
G1 X151.370 Y96.019 E0.02664
G1 X151.767 Y96.188 E0.01353
G1 X152.353 Y96.551 E0.02160
G1 X152.619 Y96.780 E0.01101
G1 X153.083 Y97.245 E0.02059
G1 X153.484 Y97.764 E0.02058
G1 X153.838 Y98.499 E0.02556
G1 X154.020 Y99.183 E0.02221
G1 X154.058 Y103.740 E0.14288
G1 X154.433 Y103.260 E0.01909
G1 X154.432 Y99.480 E0.11855
G1 X154.390 Y99.110 E0.01167
G1 X154.188 Y98.359 E0.02439
G1 X153.800 Y97.559 E0.02788
G1 X153.355 Y96.983 E0.02283
G1 X152.870 Y96.499 E0.02147
G1 X152.230 Y96.012 E0.02521
G1 X151.512 Y95.670 E0.02494
G1 X150.952 Y95.501 E0.01836
G1 X150.223 Y95.414 E0.02303
G1 X146.594 Y95.414 E0.11378
G1 X147.085 Y95.037 E0.01942
M73 P4 R19
G1 X150.224 Y95.037 E0.09843
M73 Q4 S19
G1 X151.272 Y95.191 E0.03320
G1 X152.091 Y95.507 E0.02753
G1 X152.809 Y95.951 E0.02648
G1 X153.849 Y96.977 E0.04579
G1 X154.301 Y97.674 E0.02606
G1 X154.660 Y98.583 E0.03063
G1 X154.808 Y99.457 E0.02781
G1 X154.810 Y102.770 E0.10386
G1 X155.185 Y102.041 F10800.000
G1 F1200.000
G1 X155.184 Y99.421 E0.08214
G1 X155.019 Y98.466 E0.03040
G1 X154.635 Y97.501 E0.03255
G1 X154.433 Y97.148 E0.01275
G1 X153.898 Y96.460 E0.02731
G1 X153.383 Y95.946 E0.02283
G1 X152.623 Y95.368 E0.02995
G1 X152.265 Y95.173 E0.01279
G1 X151.375 Y94.828 E0.02994
G1 X150.226 Y94.659 E0.03640
G1 X147.822 Y94.659 E0.07537
;WIPE_START
G1 F8640.000
G1 X150.226 Y94.659 E-0.55508
G1 X151.104 Y94.788 E-0.20492
;WIPE_END
G1 E-0.04000 F2100.000
G1 Z0.600000 F10800.000
G1 X148.920 Y94.282
G1 Z0.200000
G1 E0.80000 F2100.000
G1 F1200.000
G1 X150.662 Y94.308 E0.05461
G1 X151.477 Y94.465 E0.02603
G1 X151.937 Y94.622 E0.01524
G1 X152.429 Y94.833 E0.01679
G1 X153.267 Y95.351 E0.03088
