; generated by Slic3r Prusa Edition 1.42.0-beta2+linux64 on 2019-06-18 at 12:09:02

; 

; external perimeters extrusion width = 0.45mm
; perimeters extrusion width = 0.45mm
; infill extrusion width = 0.45mm
; solid infill extrusion width = 0.45mm
; top infill extrusion width = 0.40mm
; support material extrusion width = 0.35mm
; first layer extrusion width = 0.42mm

M73 P0 R18
M73 Q0 S19
M201 X1000 Y1000 Z1000 E5000 ; sets maximum accelerations, mm/sec^2
M203 X200 Y200 Z12 E120 ; sets maximum feedrates, mm/sec
M204 P1250 R1250 T1250 ; sets acceleration (P, T) and retract acceleration (R), mm/sec^2
M205 X8.00 Y8.00 Z0.40 E1.50 ; sets the jerk limits, mm/sec
M205 S0 T0 ; sets the minimum extruding and travel feed rate, mm/sec
M107
M115 U3.6.0 ; tell printer latest fw version
M83  ; extruder relative mode
M104 S215 ; set extruder temp
M140 S60 ; set bed temp
M190 S60 ; wait for bed temp
M109 S215 ; wait for extruder temp
G28 W ; home all without mesh bed level
G80 ; mesh bed leveling
G1 Y-3.0 F1000.0 ; go outside print area
G92 E0.0
G1 X60.0 E9.0  F1000.0 ; intro line
M73 Q0 S19
M73 P0 R18
G1 X100.0 E12.5  F1000.0 ; intro line
G92 E0.0
M221 S95
M900 K30 ; Filament gcode
G21 ; set units to millimeters
G90 ; use absolute coordinates
M83 ; use relative distances for extrusion
;BEFORE_LAYER_CHANGE
G92 E0.0
;0.2


G1 E-0.80000 F2100.00000
G1 Z0.600 F10800.000
;AFTER_LAYER_CHANGE
;0.2
G1 X70.354 Y109.927
G1 Z0.200
G1 E0.80000 F2100.00000
M204 S1000
G1 F1200
G1 X70.335 Y100.180 E0.30563
G1 X70.533 Y99.540 E0.02100
G1 X70.916 Y98.990 E0.02100
G1 X71.444 Y98.583 E0.02089
G1 X72.073 Y98.354 E0.02100
G1 X151.047 Y93.316 E2.48122
G1 X153.821 Y93.311 E0.08698
G1 X177.963 Y98.361 E0.77332
G1 X178.737 Y98.694 E0.02642
G1 X179.116 Y99.025 E0.01578
G1 X179.411 Y99.433 E0.01578
G1 X179.605 Y99.901 E0.01589
G1 X179.686 Y100.398 E0.01578
G1 X179.687 Y109.580 E0.28792
G1 X179.578 Y110.186 E0.01930
G1 X179.307 Y110.735 E0.01919
G1 X178.719 Y111.318 E0.02597
G1 X177.952 Y111.641 E0.02608
G1 X154.223 Y116.651 E0.76040
G1 X151.164 Y116.688 E0.09592
G1 X72.317 Y111.681 E2.47716
G1 X71.636 Y111.511 E0.02202
G1 X71.041 Y111.131 E0.02213
G1 X70.599 Y110.585 E0.02202
G1 X70.375 Y109.983 E0.02014
G1 F8640
G1 X70.361 Y106.692 E-0.76000
G1 E-0.04000 F2100.00000
G1 Z0.800 F10800.000
G1 X160.932 Y105.000
G1 Z0.200
G1 E0.80000 F2100.00000
G1 F1200
G1 X160.979 Y104.467 E0.01677
G1 X161.117 Y103.951 E0.01677
G1 X161.343 Y103.466 E0.01677
G1 X161.650 Y103.028 E0.01677
G1 X162.028 Y102.650 E0.01677
G1 X162.466 Y102.343 E0.01677
G1 X162.951 Y102.117 E0.01677
G1 X163.467 Y101.979 E0.01677
G1 X163.958 Y101.936 E0.01544
G1 X170.040 Y101.936 E0.19070
G1 X170.505 Y101.974 E0.01463
G1 X170.996 Y102.099 E0.01588
G1 X171.460 Y102.302 E0.01589
G1 X171.884 Y102.579 E0.01588
G1 X172.192 Y102.863 E0.01311
G1 X172.561 Y103.310 E0.01819
G1 X172.809 Y103.768 E0.01633
G1 X172.974 Y104.247 E0.01588
G1 X173.057 Y104.747 E0.01588
G1 X173.057 Y105.253 E0.01588
G1 X172.974 Y105.753 E0.01588
G1 X172.809 Y106.232 E0.01588
G1 X172.568 Y106.678 E0.01588
G1 X172.257 Y107.078 E0.01588
G1 X171.884 Y107.421 E0.01588
G1 X171.460 Y107.698 E0.01588
G1 X170.996 Y107.901 E0.01589
G1 X170.505 Y108.026 E0.01588
G1 X170.040 Y108.064 E0.01463
G1 X163.958 Y108.064 E0.19070
G1 X163.467 Y108.021 E0.01544
G1 X162.951 Y107.883 E0.01677
G1 X162.466 Y107.657 E0.01677
G1 X162.028 Y107.350 E0.01677
G1 X161.650 Y106.972 E0.01677
G1 X161.343 Y106.534 E0.01677
G1 X161.117 Y106.049 E0.01677
G1 X160.979 Y105.533 E0.01677
G1 X160.937 Y105.060 E0.01489
G1 X161.313 Y105.027 F10800.000
G1 F1200
G1 X161.352 Y104.533 E0.01553
G1 X161.473 Y104.080 E0.01470
G1 X161.671 Y103.655 E0.01470
G1 X161.940 Y103.271 E0.01470
G1 X162.271 Y102.940 E0.01470
G1 X162.655 Y102.671 E0.01470
G1 X163.080 Y102.473 E0.01470
G1 X163.533 Y102.352 E0.01470
G1 X163.974 Y102.313 E0.01389
G1 X170.024 Y102.313 E0.18969
G1 X170.443 Y102.348 E0.01316
G1 X170.873 Y102.457 E0.01393
G1 X171.280 Y102.635 E0.01393
G1 X171.652 Y102.878 E0.01393
G1 X171.917 Y103.123 E0.01133
G1 X172.247 Y103.522 E0.01623
G1 X172.463 Y103.920 E0.01420
G1 X172.607 Y104.340 E0.01393
G1 X172.680 Y104.778 E0.01393
G1 X172.680 Y105.222 E0.01393
G1 X172.607 Y105.660 E0.01393
G1 X172.463 Y106.080 E0.01393
G1 X172.251 Y106.471 E0.01393
G1 X171.978 Y106.821 E0.01393
G1 X171.652 Y107.122 E0.01393
G1 X171.280 Y107.365 E0.01393
G1 X170.873 Y107.543 E0.01393
G1 X170.443 Y107.652 E0.01393
G1 X170.024 Y107.687 E0.01316
G1 X163.974 Y107.687 E0.18969
G1 X163.533 Y107.648 E0.01389
G1 X163.080 Y107.527 E0.01470
G1 X162.655 Y107.329 E0.01470
G1 X162.271 Y107.060 E0.01470
G1 X161.940 Y106.729 E0.01470
G1 X161.671 Y106.345 E0.01470
G1 X161.473 Y105.920 E0.01470
G1 X161.352 Y105.467 E0.01470
G1 X161.318 Y105.087 E0.01197
G1 X161.694 Y105.054 F10800.000
G1 F1200
G1 X161.724 Y104.599 E0.01430
G1 X161.829 Y104.210 E0.01263
G1 X161.999 Y103.845 E0.01263
G1 X162.230 Y103.515 E0.01263
G1 X162.515 Y103.230 E0.01263
G1 X162.845 Y102.999 E0.01263
G1 X163.210 Y102.829 E0.01263
G1 X163.599 Y102.724 E0.01263
G1 X163.991 Y102.690 E0.01234
G1 X170.009 Y102.690 E0.18869
G1 X170.380 Y102.721 E0.01169
G1 X170.750 Y102.814 E0.01197
G1 X171.100 Y102.968 E0.01197
G1 X171.419 Y103.177 E0.01197
G1 X171.643 Y103.383 E0.00954
G1 X171.933 Y103.733 E0.01427
G1 X172.116 Y104.072 E0.01206
G1 X172.240 Y104.433 E0.01197
G1 X172.303 Y104.809 E0.01197
G1 X172.303 Y105.191 E0.01197
G1 X172.240 Y105.567 E0.01197
G1 X172.116 Y105.928 E0.01197
G1 X171.934 Y106.264 E0.01197
G1 X171.700 Y106.565 E0.01197
G1 X171.419 Y106.823 E0.01197
G1 X171.100 Y107.032 E0.01197
G1 X170.750 Y107.186 E0.01197
G1 X170.380 Y107.279 E0.01197
G1 X170.009 Y107.310 E0.01169
G1 X163.991 Y107.310 E0.18869
G1 X163.599 Y107.276 E0.01234
G1 X163.210 Y107.171 E0.01263
G1 X162.845 Y107.001 E0.01263
G1 X162.515 Y106.770 E0.01263
G1 X162.230 Y106.485 E0.01263
G1 X161.999 Y106.155 E0.01263
G1 X161.829 Y105.790 E0.01263
G1 X161.724 Y105.401 E0.01263
G1 X161.699 Y105.114 E0.00905
G1 X161.344 Y104.859 F10800.000
G1 F8640
G1 X161.724 Y104.599 E-0.11902
G1 X161.829 Y104.210 E-0.09301
G1 X161.999 Y103.845 E-0.09301
G1 X162.230 Y103.515 E-0.09301
G1 X162.515 Y103.230 E-0.09301
G1 X162.845 Y102.999 E-0.09301
G1 X163.210 Y102.829 E-0.09301
G1 X163.557 Y102.736 E-0.08293
G1 E-0.04000 F2100.00000
G1 Z0.800 F10800.000
G1 X162.097 Y107.859
G1 Z0.200
G1 E0.80000 F2100.00000
G1 F1200
G1 X74.141 Y107.859 E2.75779
G1 X74.141 Y102.141 E0.17927
G1 X162.097 Y102.141 E2.75779
G1 X161.785 Y102.360 E0.01196
G1 X161.360 Y102.785 E0.01884
G1 X161.015 Y103.277 E0.01884
G1 X160.761 Y103.821 E0.01884
G1 X160.606 Y104.402 E0.01884
G1 X160.554 Y105.000 E0.01884
G1 X160.606 Y105.598 E0.01884
G1 X160.761 Y106.179 E0.01884
G1 X161.015 Y106.723 E0.01884
G1 X161.360 Y107.215 E0.01884
G1 X161.785 Y107.640 E0.01884
G1 X162.048 Y107.824 E0.01007
G1 F8640
G1 X158.756 Y107.826 E-0.76000
G1 E-0.04000 F2100.00000
G1 Z0.800 F10800.000
G1 X171.903 Y107.859
G1 Z0.200
G1 E0.80000 F2100.00000
G1 F1200
G1 X172.116 Y107.719 E0.00800
G1 X172.535 Y107.334 E0.01784
G1 X172.885 Y106.885 E0.01784
G1 X173.156 Y106.384 E0.01784
G1 X173.340 Y105.846 E0.01784
G1 X173.434 Y105.285 E0.01784
G1 X173.434 Y104.715 E0.01784
G1 X173.340 Y104.154 E0.01784
G1 X173.156 Y103.616 E0.01784
G1 X172.875 Y103.098 E0.01846
G1 X172.466 Y102.603 E0.02015
G1 X172.116 Y102.281 E0.01490
G1 X171.903 Y102.141 E0.00800
G1 X175.859 Y102.141 E0.12403
G1 X175.859 Y107.859 E0.17927
G1 X171.963 Y107.859 E0.12215
G1 F8640
G1 X172.116 Y107.719 E-0.04791
G1 X172.535 Y107.334 E-0.13141
G1 X172.885 Y106.885 E-0.13141
G1 X173.156 Y106.384 E-0.13141
G1 X173.340 Y105.846 E-0.13141
G1 X173.434 Y105.285 E-0.13141
G1 X173.434 Y105.046 E-0.05505
G1 E-0.04000 F2100.00000
G1 Z0.800 F10800.000
G1 X176.236 Y108.236
G1 Z0.200
G1 E0.80000 F2100.00000
G1 F1200
G1 X73.764 Y108.236 E3.21293
G1 X73.764 Y101.764 E0.20292
G1 X176.236 Y101.764 E3.21293
G1 X176.236 Y108.176 E0.20103
G1 F8640
G1 X172.944 Y108.178 E-0.76000
G1 E-0.04000 F2100.00000
G1 Z0.800 F10800.000
G1 X152.532 Y101.387
G1 Z0.200
G1 E0.80000 F2100.00000
G1 F1200
G1 X176.613 Y101.387 E0.75505
G1 X176.613 Y108.613 E0.22656
G1 X152.533 Y108.613 E0.75501
G1 X152.521 Y113.913 E0.16618
G1 X152.479 Y113.913 E0.00134
G1 X152.467 Y108.613 E0.16618
G1 X73.387 Y108.613 E2.47950
G1 X73.387 Y101.387 E0.22656
G1 X152.467 Y101.387 E2.47950
G1 X152.479 Y96.087 E0.16618
G1 X152.523 Y96.087 E0.00140
G1 X152.532 Y101.327 E0.16430
G1 X152.909 Y101.010 F10800.000
G1 F1200
G1 X176.990 Y101.010 E0.75505
G1 X176.990 Y108.990 E0.25021
G1 X152.909 Y108.990 E0.75504
M73 Q5 S18
G1 X152.898 Y114.290 E0.16618
G1 X152.102 Y114.290 E0.02493
G1 X152.091 Y108.990 E0.16618
G1 X73.010 Y108.990 E2.47953
M73 P6 R17
G1 X73.010 Y101.010 E0.25021
G1 X152.091 Y101.010 E2.47953
G1 X152.102 Y95.710 E0.16618
G1 X152.898 Y95.710 E0.02495
G1 X152.909 Y100.950 E0.16430
G1 X152.929 Y101.409 F10800.000
G1 F8640
G1 X156.200 Y100.958 E-0.76000
G1 E-0.04000 F2100.00000
G1 Z0.800 F10800.000
G1 X161.361 Y102.623
G1 Z0.200
G1 E0.80000 F2100.00000
G1 F1200
G1 X161.162 Y102.424 E0.00886
G1 X160.627 Y102.424 E0.01682
G1 X161.004 Y102.801 E0.01674
G1 X160.783 Y103.115 E0.01208
G1 X160.092 Y102.424 E0.03074
G1 X159.557 Y102.424 E0.01682
G1 X160.610 Y103.477 E0.04682
G1 X160.495 Y103.724 E0.00858
G1 X160.458 Y103.860 E0.00442
G1 X159.022 Y102.424 E0.06386
G1 X158.488 Y102.424 E0.01682
G1 X160.345 Y104.282 E0.08262
G1 X160.291 Y104.762 E0.01520
G1 X157.953 Y102.424 E0.10398
G1 X157.418 Y102.424 E0.01682
G1 X160.296 Y105.302 E0.12802
G1 X160.326 Y105.648 E0.01090
G1 X160.407 Y105.948 E0.00977
G1 X156.883 Y102.424 E0.15673
G1 X156.348 Y102.424 E0.01682
G1 X161.670 Y107.746 E0.23668
G1 X161.135 Y107.746 F10800.000
G1 F1200
G1 X155.813 Y102.424 E0.23668
G1 X155.278 Y102.424 E0.01682
G1 X160.430 Y107.576 E0.22913
G1 X159.895 Y107.576 E0.01682
G1 X154.743 Y102.424 E0.22913
G1 X154.209 Y102.424 E0.01682
G1 X159.360 Y107.576 E0.22913
G1 X158.826 Y107.576 E0.01682
G1 X153.674 Y102.424 E0.22913
G1 X153.139 Y102.424 E0.01682
G1 X158.291 Y107.576 E0.22913
G1 X157.756 Y107.576 E0.01682
G1 X152.604 Y102.424 E0.22913
G1 X152.069 Y102.424 E0.01682
G1 X157.221 Y107.576 E0.22913
G1 X156.686 Y107.576 E0.01682
G1 X151.534 Y102.424 E0.22913
G1 X150.999 Y102.424 E0.01682
G1 X156.151 Y107.576 E0.22913
G1 X155.616 Y107.576 E0.01682
G1 X150.464 Y102.424 E0.22913
G1 X149.930 Y102.424 E0.01682
G1 X155.081 Y107.576 E0.22913
G1 X154.547 Y107.576 E0.01682
G1 X149.395 Y102.424 E0.22913
G1 X148.860 Y102.424 E0.01682
G1 X154.012 Y107.576 E0.22913
G1 X153.477 Y107.576 E0.01682
G1 X148.325 Y102.424 E0.22913
G1 X147.790 Y102.424 E0.01682
G1 X152.942 Y107.576 E0.22913
G1 X152.407 Y107.576 E0.01682
G1 X147.255 Y102.424 E0.22913
G1 X146.720 Y102.424 E0.01682
G1 X151.872 Y107.576 E0.22913
G1 X151.337 Y107.576 E0.01682
G1 X146.185 Y102.424 E0.22913
G1 X145.650 Y102.424 E0.01682
G1 X150.802 Y107.576 E0.22913
G1 X150.267 Y107.576 E0.01682
G1 X145.116 Y102.424 E0.22913
G1 X144.581 Y102.424 E0.01682
G1 X149.733 Y107.576 E0.22913
G1 X149.198 Y107.576 E0.01682
G1 X144.046 Y102.424 E0.22913
G1 X143.511 Y102.424 E0.01682
G1 X148.663 Y107.576 E0.22913
G1 X148.128 Y107.576 E0.01682
G1 X142.976 Y102.424 E0.22913
G1 X142.441 Y102.424 E0.01682
G1 X147.593 Y107.576 E0.22913
G1 X147.058 Y107.576 E0.01682
G1 X141.906 Y102.424 E0.22913
G1 X141.371 Y102.424 E0.01682
G1 X146.523 Y107.576 E0.22913
G1 X145.988 Y107.576 E0.01682
G1 X140.837 Y102.424 E0.22913
G1 X140.302 Y102.424 E0.01682
G1 X145.454 Y107.576 E0.22913
G1 X144.919 Y107.576 E0.01682
G1 X139.767 Y102.424 E0.22913
G1 X139.232 Y102.424 E0.01682
G1 X144.384 Y107.576 E0.22913
G1 X143.849 Y107.576 E0.01682
G1 X138.697 Y102.424 E0.22913
G1 X138.162 Y102.424 E0.01682
G1 X143.314 Y107.576 E0.22913
G1 X142.779 Y107.576 E0.01682
G1 X137.627 Y102.424 E0.22913
G1 X137.092 Y102.424 E0.01682
G1 X142.244 Y107.576 E0.22913
G1 X141.709 Y107.576 E0.01682
G1 X136.557 Y102.424 E0.22913
G1 X136.023 Y102.424 E0.01682
G1 X141.175 Y107.576 E0.22913
G1 X140.640 Y107.576 E0.01682
G1 X135.488 Y102.424 E0.22913
G1 X134.953 Y102.424 E0.01682
G1 X140.105 Y107.576 E0.22913
G1 X139.570 Y107.576 E0.01682
G1 X134.418 Y102.424 E0.22913
G1 X133.883 Y102.424 E0.01682
G1 X139.035 Y107.576 E0.22913
G1 X138.500 Y107.576 E0.01682
G1 X133.348 Y102.424 E0.22913
G1 X132.813 Y102.424 E0.01682
G1 X137.965 Y107.576 E0.22913
G1 X137.430 Y107.576 E0.01682
G1 X132.278 Y102.424 E0.22913
G1 X131.744 Y102.424 E0.01682
G1 X136.895 Y107.576 E0.22913
G1 X136.361 Y107.576 E0.01682
G1 X131.209 Y102.424 E0.22913
G1 X130.674 Y102.424 E0.01682
G1 X135.826 Y107.576 E0.22913
G1 X135.291 Y107.576 E0.01682
G1 X130.139 Y102.424 E0.22913
G1 X129.604 Y102.424 E0.01682
G1 X134.756 Y107.576 E0.22913
G1 X134.221 Y107.576 E0.01682
G1 X129.069 Y102.424 E0.22913
G1 X128.534 Y102.424 E0.01682
G1 X133.686 Y107.576 E0.22913
G1 X133.151 Y107.576 E0.01682
G1 X127.999 Y102.424 E0.22913
G1 X127.465 Y102.424 E0.01682
G1 X132.616 Y107.576 E0.22913
G1 X132.082 Y107.576 E0.01682
G1 X126.930 Y102.424 E0.22913
G1 X126.395 Y102.424 E0.01682
G1 X131.547 Y107.576 E0.22913
G1 X131.012 Y107.576 E0.01682
G1 X125.860 Y102.424 E0.22913
G1 X125.325 Y102.424 E0.01682
G1 X130.477 Y107.576 E0.22913
G1 X129.942 Y107.576 E0.01682
G1 X124.790 Y102.424 E0.22913
G1 X124.255 Y102.424 E0.01682
G1 X129.407 Y107.576 E0.22913
G1 X128.872 Y107.576 E0.01682
G1 X123.720 Y102.424 E0.22913
G1 X123.185 Y102.424 E0.01682
G1 X128.337 Y107.576 E0.22913
G1 X127.802 Y107.576 E0.01682
G1 X122.651 Y102.424 E0.22913
G1 X122.116 Y102.424 E0.01682
G1 X127.268 Y107.576 E0.22913
G1 X126.733 Y107.576 E0.01682
G1 X121.581 Y102.424 E0.22913
G1 X121.046 Y102.424 E0.01682
G1 X126.198 Y107.576 E0.22913
G1 X125.663 Y107.576 E0.01682
G1 X120.511 Y102.424 E0.22913
G1 X119.976 Y102.424 E0.01682
G1 X125.128 Y107.576 E0.22913
G1 X124.593 Y107.576 E0.01682
G1 X119.441 Y102.424 E0.22913
G1 X118.906 Y102.424 E0.01682
G1 X124.058 Y107.576 E0.22913
G1 X123.523 Y107.576 E0.01682
G1 X118.372 Y102.424 E0.22913
G1 X117.837 Y102.424 E0.01682
G1 X122.989 Y107.576 E0.22913
G1 X122.454 Y107.576 E0.01682
G1 X117.302 Y102.424 E0.22913
G1 X116.767 Y102.424 E0.01682
G1 X121.919 Y107.576 E0.22913
G1 X121.384 Y107.576 E0.01682
G1 X116.232 Y102.424 E0.22913
G1 X115.697 Y102.424 E0.01682
G1 X120.849 Y107.576 E0.22913
G1 X120.314 Y107.576 E0.01682
G1 X115.162 Y102.424 E0.22913
G1 X114.627 Y102.424 E0.01682
G1 X119.779 Y107.576 E0.22913
G1 X119.244 Y107.576 E0.01682
G1 X114.092 Y102.424 E0.22913
G1 X113.558 Y102.424 E0.01682
G1 X118.710 Y107.576 E0.22913
G1 X118.175 Y107.576 E0.01682
G1 X113.023 Y102.424 E0.22913
G1 X112.488 Y102.424 E0.01682
G1 X117.640 Y107.576 E0.22913
G1 X117.105 Y107.576 E0.01682
G1 X111.953 Y102.424 E0.22913
G1 X111.418 Y102.424 E0.01682
G1 X116.570 Y107.576 E0.22913
G1 X116.035 Y107.576 E0.01682
G1 X110.883 Y102.424 E0.22913
G1 X110.348 Y102.424 E0.01682
G1 X115.500 Y107.576 E0.22913
G1 X114.965 Y107.576 E0.01682
G1 X109.813 Y102.424 E0.22913
G1 X109.279 Y102.424 E0.01682
G1 X114.430 Y107.576 E0.22913
G1 X113.896 Y107.576 E0.01682
G1 X108.744 Y102.424 E0.22913
G1 X108.209 Y102.424 E0.01682
G1 X113.361 Y107.576 E0.22913
G1 X112.826 Y107.576 E0.01682
G1 X107.674 Y102.424 E0.22913
G1 X107.139 Y102.424 E0.01682
G1 X112.291 Y107.576 E0.22913
G1 X111.756 Y107.576 E0.01682
G1 X106.604 Y102.424 E0.22913
G1 X106.069 Y102.424 E0.01682
G1 X111.221 Y107.576 E0.22913
G1 X110.686 Y107.576 E0.01682
G1 X105.534 Y102.424 E0.22913
G1 X104.999 Y102.424 E0.01682
G1 X110.151 Y107.576 E0.22913
G1 X109.617 Y107.576 E0.01682
G1 X104.465 Y102.424 E0.22913
G1 X103.930 Y102.424 E0.01682
G1 X109.082 Y107.576 E0.22914
G1 X108.547 Y107.576 E0.01682
G1 X103.395 Y102.424 E0.22914
G1 X102.860 Y102.424 E0.01682
G1 X108.012 Y107.576 E0.22914
G1 X107.477 Y107.576 E0.01682
G1 X102.325 Y102.424 E0.22914
G1 X101.790 Y102.424 E0.01682
G1 X106.942 Y107.576 E0.22914
G1 X106.407 Y107.576 E0.01682
G1 X101.255 Y102.424 E0.22914
G1 X100.720 Y102.424 E0.01682
G1 X105.872 Y107.576 E0.22914
G1 X105.338 Y107.576 E0.01682
G1 X100.186 Y102.424 E0.22914
G1 X99.651 Y102.424 E0.01682
G1 X104.803 Y107.576 E0.22914
