; generated by Slic3r Prusa Edition 1.42.0-beta2+linux64 on 2019-06-18 at 12:09:15

; 

; external perimeters extrusion width = 0.45mm
; perimeters extrusion width = 0.45mm
; infill extrusion width = 0.45mm
; solid infill extrusion width = 0.45mm
; top infill extrusion width = 0.40mm
; support material extrusion width = 0.35mm
; first layer extrusion width = 0.42mm

M73 P0 R37
M73 Q0 S37
M201 X1000 Y1000 Z1000 E5000 ; sets maximum accelerations, mm/sec^2
M203 X200 Y200 Z12 E120 ; sets maximum feedrates, mm/sec
M204 P1250 R1250 T1250 ; sets acceleration (P, T) and retract acceleration (R), mm/sec^2
M205 X8.00 Y8.00 Z0.40 E1.50 ; sets the jerk limits, mm/sec
M205 S0 T0 ; sets the minimum extruding and travel feed rate, mm/sec
M107
M115 U3.6.0 ; tell printer latest fw version
M83  ; extruder relative mode
M104 S215 ; set extruder temp
M140 S60 ; set bed temp
M190 S60 ; wait for bed temp
M109 S215 ; wait for extruder temp
G28 W ; home all without mesh bed level
G80 ; mesh bed leveling
G1 Y-3.0 F1000.0 ; go outside print area
G92 E0.0
G1 X60.0 E9.0  F1000.0 ; intro line
M73 Q0 S37
M73 P0 R36
G1 X100.0 E12.5  F1000.0 ; intro line
G92 E0.0
M221 S95
M900 K30 ; Filament gcode
G21 ; set units to millimeters
G90 ; use absolute coordinates
M83 ; use relative distances for extrusion
;BEFORE_LAYER_CHANGE
G92 E0.0
;0.2


G1 E-0.80000 F2100.00000
G1 Z0.600 F10800.000
;AFTER_LAYER_CHANGE
;0.2
G1 X71.512 Y86.047
G1 Z0.200
G1 E0.80000 F2100.00000
M204 S1000
G1 F1200
G1 X72.359 Y85.816 E0.02754
G1 X151.047 Y80.816 E2.47219
G1 X153.821 Y80.811 E0.08698
G1 X178.009 Y85.872 E0.77481
G1 X178.811 Y86.248 E0.02777
G1 X179.398 Y86.911 E0.02777
G1 X179.612 Y87.426 E0.01749
G1 X179.688 Y87.982 E0.01760
G1 X179.688 Y122.048 E1.06811
G1 X179.604 Y122.602 E0.01760
G1 X179.382 Y123.118 E0.01760
G1 X179.038 Y123.557 E0.01749
G1 X178.591 Y123.897 E0.01760
G1 X177.963 Y124.139 E0.02112
G1 X154.230 Y129.149 E0.76052
G1 X151.164 Y129.188 E0.09615
G1 X72.332 Y124.182 E2.47670
G1 X71.783 Y124.068 E0.01760
G1 X71.283 Y123.819 E0.01749
G1 X70.861 Y123.450 E0.01760
G1 X70.547 Y122.988 E0.01749
G1 X70.373 Y122.516 E0.01578
G1 X70.312 Y122.013 E0.01589
G1 X70.312 Y87.942 E1.06829
G1 X70.406 Y87.362 E0.01839
G1 X70.651 Y86.829 E0.01839
G1 X71.028 Y86.380 E0.01839
G1 X71.462 Y86.081 E0.01651
G1 F8640
G1 X72.359 Y85.816 E-0.21596
G1 X74.710 Y85.667 E-0.54404
G1 E-0.04000 F2100.00000
G1 Z0.800 F10800.000
G1 X160.932 Y92.500
G1 Z0.200
G1 E0.80000 F2100.00000
G1 F1200
G1 X160.979 Y91.967 E0.01677
G1 X161.117 Y91.451 E0.01677
G1 X161.343 Y90.966 E0.01677
G1 X161.650 Y90.528 E0.01677
G1 X162.028 Y90.150 E0.01677
G1 X162.466 Y89.843 E0.01677
G1 X162.951 Y89.617 E0.01677
G1 X163.467 Y89.479 E0.01677
G1 X163.958 Y89.436 E0.01544
G1 X170.040 Y89.436 E0.19070
G1 X170.505 Y89.474 E0.01463
G1 X170.996 Y89.599 E0.01588
G1 X171.460 Y89.802 E0.01589
G1 X171.884 Y90.079 E0.01588
G1 X172.192 Y90.363 E0.01311
G1 X172.561 Y90.810 E0.01819
G1 X172.809 Y91.268 E0.01633
G1 X172.974 Y91.747 E0.01588
G1 X173.057 Y92.247 E0.01588
G1 X173.057 Y92.753 E0.01588
G1 X172.974 Y93.253 E0.01588
G1 X172.809 Y93.732 E0.01588
G1 X172.568 Y94.178 E0.01588
G1 X172.257 Y94.578 E0.01588
G1 X171.884 Y94.921 E0.01588
G1 X171.460 Y95.198 E0.01588
G1 X170.996 Y95.401 E0.01589
G1 X170.505 Y95.526 E0.01588
G1 X170.040 Y95.564 E0.01463
G1 X163.958 Y95.564 E0.19070
G1 X163.467 Y95.521 E0.01544
G1 X162.951 Y95.383 E0.01677
G1 X162.466 Y95.157 E0.01677
G1 X162.028 Y94.850 E0.01677
G1 X161.650 Y94.472 E0.01677
G1 X161.343 Y94.034 E0.01677
G1 X161.117 Y93.549 E0.01677
G1 X160.979 Y93.033 E0.01677
G1 X160.937 Y92.560 E0.01489
G1 X161.313 Y92.527 F10800.000
G1 F1200
G1 X161.352 Y92.033 E0.01553
G1 X161.473 Y91.580 E0.01470
G1 X161.671 Y91.155 E0.01470
G1 X161.940 Y90.771 E0.01470
G1 X162.271 Y90.440 E0.01470
G1 X162.655 Y90.171 E0.01470
G1 X163.080 Y89.973 E0.01470
G1 X163.533 Y89.852 E0.01470
G1 X163.974 Y89.813 E0.01389
G1 X170.024 Y89.813 E0.18969
G1 X170.443 Y89.848 E0.01316
G1 X170.873 Y89.957 E0.01393
G1 X171.280 Y90.135 E0.01393
G1 X171.652 Y90.378 E0.01393
G1 X171.917 Y90.623 E0.01133
G1 X172.247 Y91.022 E0.01623
G1 X172.463 Y91.420 E0.01420
G1 X172.607 Y91.840 E0.01393
G1 X172.680 Y92.278 E0.01393
G1 X172.680 Y92.722 E0.01393
G1 X172.607 Y93.160 E0.01393
G1 X172.463 Y93.580 E0.01393
G1 X172.251 Y93.971 E0.01393
G1 X171.978 Y94.321 E0.01393
G1 X171.652 Y94.622 E0.01393
G1 X171.280 Y94.865 E0.01393
G1 X170.873 Y95.043 E0.01393
G1 X170.443 Y95.152 E0.01393
G1 X170.024 Y95.187 E0.01316
G1 X163.974 Y95.187 E0.18969
G1 X163.533 Y95.148 E0.01389
G1 X163.080 Y95.027 E0.01470
G1 X162.655 Y94.829 E0.01470
G1 X162.271 Y94.560 E0.01470
G1 X161.940 Y94.229 E0.01470
G1 X161.671 Y93.845 E0.01470
G1 X161.473 Y93.420 E0.01470
G1 X161.352 Y92.967 E0.01470
G1 X161.318 Y92.587 E0.01197
G1 X161.694 Y92.554 F10800.000
G1 F1200
G1 X161.724 Y92.099 E0.01430
G1 X161.829 Y91.710 E0.01263
G1 X161.999 Y91.345 E0.01263
G1 X162.230 Y91.015 E0.01263
G1 X162.515 Y90.730 E0.01263
G1 X162.845 Y90.499 E0.01263
G1 X163.210 Y90.329 E0.01263
G1 X163.599 Y90.224 E0.01263
G1 X163.991 Y90.190 E0.01234
G1 X170.009 Y90.190 E0.18869
G1 X170.380 Y90.221 E0.01169
G1 X170.750 Y90.314 E0.01197
G1 X171.100 Y90.468 E0.01197
G1 X171.419 Y90.677 E0.01197
G1 X171.643 Y90.883 E0.00954
G1 X171.933 Y91.233 E0.01427
G1 X172.116 Y91.572 E0.01206
G1 X172.240 Y91.933 E0.01197
G1 X172.303 Y92.309 E0.01197
G1 X172.303 Y92.691 E0.01197
G1 X172.240 Y93.067 E0.01197
G1 X172.116 Y93.428 E0.01197
G1 X171.934 Y93.764 E0.01197
G1 X171.700 Y94.065 E0.01197
G1 X171.419 Y94.323 E0.01197
G1 X171.100 Y94.532 E0.01197
G1 X170.750 Y94.686 E0.01197
G1 X170.380 Y94.779 E0.01197
G1 X170.009 Y94.810 E0.01169
G1 X163.991 Y94.810 E0.18869
G1 X163.599 Y94.776 E0.01234
G1 X163.210 Y94.671 E0.01263
G1 X162.845 Y94.501 E0.01263
G1 X162.515 Y94.270 E0.01263
G1 X162.230 Y93.985 E0.01263
G1 X161.999 Y93.655 E0.01263
G1 X161.829 Y93.290 E0.01263
G1 X161.724 Y92.901 E0.01263
G1 X161.699 Y92.614 E0.00905
G1 X161.344 Y92.359 F10800.000
G1 F8640
G1 X161.724 Y92.099 E-0.11902
G1 X161.829 Y91.710 E-0.09301
G1 X161.999 Y91.345 E-0.09301
G1 X162.230 Y91.015 E-0.09301
G1 X162.515 Y90.730 E-0.09301
G1 X162.845 Y90.499 E-0.09301
G1 X163.210 Y90.329 E-0.09301
G1 X163.557 Y90.236 E-0.08293
G1 E-0.04000 F2100.00000
G1 Z0.800 F10800.000
G1 X162.097 Y95.359
G1 Z0.200
G1 E0.80000 F2100.00000
G1 F1200
G1 X74.141 Y95.359 E2.75779
G1 X74.141 Y89.641 E0.17927
G1 X162.097 Y89.641 E2.75779
G1 X161.785 Y89.860 E0.01196
G1 X161.360 Y90.285 E0.01884
G1 X161.015 Y90.777 E0.01884
G1 X160.761 Y91.321 E0.01884
G1 X160.606 Y91.902 E0.01884
G1 X160.554 Y92.500 E0.01884
G1 X160.606 Y93.098 E0.01884
G1 X160.761 Y93.679 E0.01884
G1 X161.015 Y94.223 E0.01884
G1 X161.360 Y94.715 E0.01884
G1 X161.785 Y95.140 E0.01884
G1 X162.048 Y95.324 E0.01007
G1 F8640
G1 X158.756 Y95.326 E-0.76000
G1 E-0.04000 F2100.00000
G1 Z0.800 F10800.000
G1 X171.903 Y95.359
G1 Z0.200
G1 E0.80000 F2100.00000
G1 F1200
G1 X172.116 Y95.219 E0.00800
G1 X172.535 Y94.834 E0.01784
G1 X172.885 Y94.385 E0.01784
G1 X173.156 Y93.884 E0.01784
G1 X173.340 Y93.346 E0.01784
G1 X173.434 Y92.785 E0.01784
G1 X173.434 Y92.215 E0.01784
G1 X173.340 Y91.654 E0.01784
G1 X173.156 Y91.116 E0.01784
G1 X172.875 Y90.598 E0.01846
G1 X172.466 Y90.103 E0.02015
G1 X172.116 Y89.781 E0.01490
G1 X171.903 Y89.641 E0.00800
G1 X175.859 Y89.641 E0.12403
G1 X175.859 Y95.359 E0.17927
G1 X171.963 Y95.359 E0.12215
G1 F8640
G1 X172.116 Y95.219 E-0.04791
G1 X172.535 Y94.834 E-0.13141
G1 X172.885 Y94.385 E-0.13141
G1 X173.156 Y93.884 E-0.13141
G1 X173.340 Y93.346 E-0.13141
G1 X173.434 Y92.785 E-0.13141
G1 X173.434 Y92.546 E-0.05505
G1 E-0.04000 F2100.00000
G1 Z0.800 F10800.000
G1 X176.236 Y95.736
G1 Z0.200
G1 E0.80000 F2100.00000
G1 F1200
G1 X73.764 Y95.736 E3.21293
G1 X73.764 Y89.264 E0.20292
G1 X176.236 Y89.264 E3.21293
G1 X176.236 Y95.676 E0.20103
G1 F8640
G1 X172.944 Y95.678 E-0.76000
G1 E-0.04000 F2100.00000
G1 Z0.800 F10800.000
G1 X152.532 Y88.887
G1 Z0.200
G1 E0.80000 F2100.00000
G1 F1200
G1 X176.613 Y88.887 E0.75505
G1 X176.613 Y96.113 E0.22656
G1 X152.533 Y96.113 E0.75501
G1 X152.521 Y101.413 E0.16618
G1 X152.479 Y101.413 E0.00134
G1 X152.467 Y96.113 E0.16618
G1 X73.387 Y96.113 E2.47950
G1 X73.387 Y88.887 E0.22656
G1 X152.467 Y88.887 E2.47950
G1 X152.479 Y83.587 E0.16618
G1 X152.523 Y83.587 E0.00140
G1 X152.532 Y88.827 E0.16430
G1 X152.909 Y88.510 F10800.000
G1 F1200
G1 X176.990 Y88.510 E0.75505
M73 Q2 S36
M73 P2 R35
G1 X176.990 Y96.490 E0.25021
G1 X152.909 Y96.490 E0.75504
G1 X152.898 Y101.790 E0.16618
G1 X152.102 Y101.790 E0.02493
G1 X152.091 Y96.490 E0.16618
G1 X73.010 Y96.490 E2.47953
G1 X73.010 Y88.510 E0.25021
G1 X152.091 Y88.510 E2.47953
G1 X152.102 Y83.210 E0.16618
G1 X152.898 Y83.210 E0.02495
G1 X152.909 Y88.450 E0.16430
G1 X152.929 Y88.909 F10800.000
G1 F8640
G1 X156.200 Y88.458 E-0.76000
G1 E-0.04000 F2100.00000
G1 Z0.800 F10800.000
G1 X161.361 Y90.123
G1 Z0.200
G1 E0.80000 F2100.00000
G1 F1200
G1 X161.162 Y89.924 E0.00886
G1 X160.627 Y89.924 E0.01682
G1 X161.004 Y90.301 E0.01674
G1 X160.783 Y90.615 E0.01208
G1 X160.092 Y89.924 E0.03074
G1 X159.557 Y89.924 E0.01682
G1 X160.610 Y90.977 E0.04682
G1 X160.495 Y91.224 E0.00858
G1 X160.458 Y91.360 E0.00442
G1 X159.022 Y89.924 E0.06386
G1 X158.488 Y89.924 E0.01682
G1 X160.345 Y91.782 E0.08262
G1 X160.291 Y92.262 E0.01520
G1 X157.953 Y89.924 E0.10398
G1 X157.418 Y89.924 E0.01682
G1 X160.296 Y92.802 E0.12802
G1 X160.326 Y93.148 E0.01090
G1 X160.407 Y93.448 E0.00977
G1 X156.883 Y89.924 E0.15673
G1 X156.348 Y89.924 E0.01682
G1 X161.670 Y95.246 E0.23668
G1 X161.135 Y95.246 F10800.000
G1 F1200
G1 X155.813 Y89.924 E0.23668
G1 X155.278 Y89.924 E0.01682
G1 X160.430 Y95.076 E0.22913
G1 X159.895 Y95.076 E0.01682
G1 X154.743 Y89.924 E0.22913
G1 X154.209 Y89.924 E0.01682
G1 X159.360 Y95.076 E0.22913
G1 X158.826 Y95.076 E0.01682
G1 X153.674 Y89.924 E0.22913
G1 X153.139 Y89.924 E0.01682
G1 X158.291 Y95.076 E0.22913
G1 X157.756 Y95.076 E0.01682
G1 X152.604 Y89.924 E0.22913
G1 X152.069 Y89.924 E0.01682
G1 X157.221 Y95.076 E0.22913
G1 X156.686 Y95.076 E0.01682
G1 X151.534 Y89.924 E0.22913
G1 X150.999 Y89.924 E0.01682
G1 X156.151 Y95.076 E0.22913
G1 X155.616 Y95.076 E0.01682
G1 X150.464 Y89.924 E0.22913
G1 X149.930 Y89.924 E0.01682
G1 X155.081 Y95.076 E0.22913
G1 X154.547 Y95.076 E0.01682
G1 X149.395 Y89.924 E0.22913
G1 X148.860 Y89.924 E0.01682
G1 X154.012 Y95.076 E0.22913
G1 X153.477 Y95.076 E0.01682
G1 X148.325 Y89.924 E0.22913
G1 X147.790 Y89.924 E0.01682
G1 X152.942 Y95.076 E0.22913
G1 X152.407 Y95.076 E0.01682
G1 X147.255 Y89.924 E0.22913
G1 X146.720 Y89.924 E0.01682
G1 X151.872 Y95.076 E0.22913
G1 X151.337 Y95.076 E0.01682
G1 X146.185 Y89.924 E0.22913
G1 X145.650 Y89.924 E0.01682
G1 X150.802 Y95.076 E0.22913
G1 X150.267 Y95.076 E0.01682
G1 X145.116 Y89.924 E0.22913
G1 X144.581 Y89.924 E0.01682
G1 X149.733 Y95.076 E0.22913
G1 X149.198 Y95.076 E0.01682
G1 X144.046 Y89.924 E0.22913
G1 X143.511 Y89.924 E0.01682
G1 X148.663 Y95.076 E0.22913
G1 X148.128 Y95.076 E0.01682
G1 X142.976 Y89.924 E0.22913
G1 X142.441 Y89.924 E0.01682
G1 X147.593 Y95.076 E0.22913
G1 X147.058 Y95.076 E0.01682
G1 X141.906 Y89.924 E0.22913
G1 X141.371 Y89.924 E0.01682
G1 X146.523 Y95.076 E0.22913
G1 X145.988 Y95.076 E0.01682
G1 X140.837 Y89.924 E0.22913
G1 X140.302 Y89.924 E0.01682
G1 X145.454 Y95.076 E0.22913
G1 X144.919 Y95.076 E0.01682
G1 X139.767 Y89.924 E0.22913
G1 X139.232 Y89.924 E0.01682
G1 X144.384 Y95.076 E0.22913
G1 X143.849 Y95.076 E0.01682
G1 X138.697 Y89.924 E0.22913
G1 X138.162 Y89.924 E0.01682
G1 X143.314 Y95.076 E0.22913
G1 X142.779 Y95.076 E0.01682
G1 X137.627 Y89.924 E0.22913
G1 X137.092 Y89.924 E0.01682
G1 X142.244 Y95.076 E0.22913
G1 X141.709 Y95.076 E0.01682
G1 X136.557 Y89.924 E0.22913
G1 X136.023 Y89.924 E0.01682
G1 X141.175 Y95.076 E0.22913
G1 X140.640 Y95.076 E0.01682
G1 X135.488 Y89.924 E0.22913
G1 X134.953 Y89.924 E0.01682
G1 X140.105 Y95.076 E0.22913
G1 X139.570 Y95.076 E0.01682
G1 X134.418 Y89.924 E0.22913
G1 X133.883 Y89.924 E0.01682
G1 X139.035 Y95.076 E0.22913
G1 X138.500 Y95.076 E0.01682
G1 X133.348 Y89.924 E0.22913
G1 X132.813 Y89.924 E0.01682
G1 X137.965 Y95.076 E0.22913
G1 X137.430 Y95.076 E0.01682
G1 X132.278 Y89.924 E0.22913
G1 X131.744 Y89.924 E0.01682
G1 X136.895 Y95.076 E0.22913
G1 X136.361 Y95.076 E0.01682
G1 X131.209 Y89.924 E0.22913
G1 X130.674 Y89.924 E0.01682
G1 X135.826 Y95.076 E0.22913
G1 X135.291 Y95.076 E0.01682
G1 X130.139 Y89.924 E0.22913
G1 X129.604 Y89.924 E0.01682
G1 X134.756 Y95.076 E0.22913
G1 X134.221 Y95.076 E0.01682
G1 X129.069 Y89.924 E0.22913
G1 X128.534 Y89.924 E0.01682
G1 X133.686 Y95.076 E0.22913
G1 X133.151 Y95.076 E0.01682
G1 X127.999 Y89.924 E0.22913
G1 X127.465 Y89.924 E0.01682
G1 X132.616 Y95.076 E0.22913
G1 X132.082 Y95.076 E0.01682
G1 X126.930 Y89.924 E0.22913
G1 X126.395 Y89.924 E0.01682
G1 X131.547 Y95.076 E0.22913
G1 X131.012 Y95.076 E0.01682
G1 X125.860 Y89.924 E0.22913
G1 X125.325 Y89.924 E0.01682
G1 X130.477 Y95.076 E0.22913
G1 X129.942 Y95.076 E0.01682
G1 X124.790 Y89.924 E0.22913
G1 X124.255 Y89.924 E0.01682
G1 X129.407 Y95.076 E0.22913
G1 X128.872 Y95.076 E0.01682
G1 X123.720 Y89.924 E0.22913
G1 X123.185 Y89.924 E0.01682
G1 X128.337 Y95.076 E0.22913
G1 X127.802 Y95.076 E0.01682
G1 X122.651 Y89.924 E0.22913
G1 X122.116 Y89.924 E0.01682
G1 X127.268 Y95.076 E0.22913
G1 X126.733 Y95.076 E0.01682
G1 X121.581 Y89.924 E0.22913
G1 X121.046 Y89.924 E0.01682
G1 X126.198 Y95.076 E0.22913
G1 X125.663 Y95.076 E0.01682
G1 X120.511 Y89.924 E0.22913
G1 X119.976 Y89.924 E0.01682
G1 X125.128 Y95.076 E0.22913
G1 X124.593 Y95.076 E0.01682
G1 X119.441 Y89.924 E0.22913
G1 X118.906 Y89.924 E0.01682
G1 X124.058 Y95.076 E0.22913
G1 X123.523 Y95.076 E0.01682
G1 X118.372 Y89.924 E0.22913
G1 X117.837 Y89.924 E0.01682
G1 X122.989 Y95.076 E0.22913
G1 X122.454 Y95.076 E0.01682
G1 X117.302 Y89.924 E0.22913
G1 X116.767 Y89.924 E0.01682
G1 X121.919 Y95.076 E0.22913
G1 X121.384 Y95.076 E0.01682
G1 X116.232 Y89.924 E0.22913
G1 X115.697 Y89.924 E0.01682
G1 X120.849 Y95.076 E0.22913
G1 X120.314 Y95.076 E0.01682
G1 X115.162 Y89.924 E0.22913
G1 X114.627 Y89.924 E0.01682
G1 X119.779 Y95.076 E0.22913
G1 X119.244 Y95.076 E0.01682
G1 X114.092 Y89.924 E0.22913
G1 X113.558 Y89.924 E0.01682
G1 X118.710 Y95.076 E0.22913
G1 X118.175 Y95.076 E0.01682
G1 X113.023 Y89.924 E0.22913
G1 X112.488 Y89.924 E0.01682
G1 X117.640 Y95.076 E0.22913
G1 X117.105 Y95.076 E0.01682
G1 X111.953 Y89.924 E0.22913
G1 X111.418 Y89.924 E0.01682
G1 X116.570 Y95.076 E0.22913
G1 X116.035 Y95.076 E0.01682
G1 X110.883 Y89.924 E0.22913
G1 X110.348 Y89.924 E0.01682
G1 X115.500 Y95.076 E0.22913
G1 X114.965 Y95.076 E0.01682
G1 X109.813 Y89.924 E0.22913
G1 X109.279 Y89.924 E0.01682
G1 X114.430 Y95.076 E0.22913
G1 X113.896 Y95.076 E0.01682
G1 X108.744 Y89.924 E0.22913
G1 X108.209 Y89.924 E0.01682
G1 X113.361 Y95.076 E0.22913
G1 X112.826 Y95.076 E0.01682
G1 X107.674 Y89.924 E0.22913
G1 X107.139 Y89.924 E0.01682
G1 X112.291 Y95.076 E0.22913
G1 X111.756 Y95.076 E0.01682
G1 X106.604 Y89.924 E0.22913
G1 X106.069 Y89.924 E0.01682
G1 X111.221 Y95.076 E0.22913
G1 X110.686 Y95.076 E0.01682
G1 X105.534 Y89.924 E0.22913
G1 X104.999 Y89.924 E0.01682
G1 X110.151 Y95.076 E0.22913
G1 X109.617 Y95.076 E0.01682
G1 X104.465 Y89.924 E0.22913
G1 X103.930 Y89.924 E0.01682
G1 X109.082 Y95.076 E0.22914
G1 X108.547 Y95.076 E0.01682
G1 X103.395 Y89.924 E0.22914
G1 X102.860 Y89.924 E0.01682
G1 X108.012 Y95.076 E0.22914
G1 X107.477 Y95.076 E0.01682
G1 X102.325 Y89.924 E0.22914
G1 X101.790 Y89.924 E0.01682
G1 X106.942 Y95.076 E0.22914
G1 X106.407 Y95.076 E0.01682
G1 X101.255 Y89.924 E0.22914
G1 X100.720 Y89.924 E0.01682
G1 X105.872 Y95.076 E0.22914
G1 X105.338 Y95.076 E0.01682
G1 X100.186 Y89.924 E0.22914
G1 X99.651 Y89.924 E0.01682
G1 X104.803 Y95.076 E0.22914
G1 X104.268 Y95.076 E0.01682
G1 X99.116 Y89.924 E0.22914
G1 X98.581 Y89.924 E0.01682
G1 X103.733 Y95.076 E0.22914
G1 X103.198 Y95.076 E0.01682
G1 X98.046 Y89.924 E0.22914
G1 X97.511 Y89.924 E0.01682
G1 X102.663 Y95.076 E0.22914
G1 X102.128 Y95.076 E0.01682
G1 X96.976 Y89.924 E0.22914
G1 X96.441 Y89.924 E0.01682
