; generated by SuperSlicer 2.3.55 on 2021-06-22 at 17:30:01 UTC

; 

; external perimeters extrusion width = 0.45mm
; perimeters extrusion width = 0.45mm
; infill extrusion width = 0.45mm
; solid infill extrusion width = 0.45mm
; top infill extrusion width = 0.40mm
; first layer extrusion width = 0.42mm

; object:{"name":"frontfinger","id":"frontfinger.STL id:0 copy 0","object_center":[125.000000,97.500000,0.000000],"boundingbox_center":[125.000000,97.500000,2.500000],"boundingbox_size":[105.000000,9.000000,5.000000]}
; object:{"name":"frontfinger","id":"frontfinger.STL id:0 copy 1","object_center":[125.000000,129.240561,0.000000],"boundingbox_center":[125.000000,129.240561,2.500000],"boundingbox_size":[105.000000,9.000000,5.000000]}
; Total objects to print: 2
M486 T2
; plater:{"center":[125.000000,113.370280,0.000000],"boundingbox_center":[125.000000,113.370280,2.500000],"boundingbox_size":[105.000000,40.740561,5.000000]}

M73 P0 R35
M73 Q0 S36
;TYPE:Custom
M862.3 P "MK3S" ; printer model check
M862.1 P0.4 ; nozzle diameter check
M115 U3.9.2 ; tell printer latest fw version
G90 ; use absolute coordinates
M83 ; extruder relative mode
M104 S215 ; set extruder temp
M140 S60 ; set bed temp
M190 S60 ; wait for bed temp
M109 S215 ; wait for extruder temp
G28 W ; home all without mesh bed level
G80 ; mesh bed leveling
G1 Y-3.0 F1000.0 ; go outside print area
G92 E0.0
G1 X60.0 E9.0 F1000.0 ; intro line
G1 X100.0 E12.5 F1000.0 ; intro line
G92 E0.0
M221 S95

; Don't change E values below. Excessive value can damage the printer.

M107
G21 ; set units to millimeters
G90 ; use absolute coordinates
M83 ; use relative distances for extrusion
M900 K0.05 ; Filament gcode LA 1.5
M900 K30 ; Filament gcode LA 1.0
;LAYER_CHANGE
;Z:0.2
;HEIGHT:0.2
;BEFORE_LAYER_CHANGE
;0.2


G1 E-0.80000 F2100.000
G1 Z0.400000 F10800.000
;AFTER_LAYER_CHANGE
;0.2
G1 X68.199 Y87.777
G1 Z0.200000
G1 E0.80000 F2100.000
;TYPE:Skirt
;WIDTH:0.42
G1 F1200.000
G1 X68.982 Y87.209 E0.03030
G1 X69.833 Y86.752 E0.03030
G1 X71.257 Y86.279 E0.04706
G1 X72.756 Y86.112 E0.04727
G1 X177.207 Y86.111 E3.27499
G1 X178.556 Y86.241 E0.04251
G1 X179.864 Y86.623 E0.04272
G1 X181.070 Y87.242 E0.04251
G1 X182.144 Y88.081 E0.04272
G1 X183.036 Y89.102 E0.04251
G1 X183.723 Y90.279 E0.04272
G1 X184.174 Y91.558 E0.04251
G1 X184.378 Y92.905 E0.04272
G1 X184.360 Y134.082 E1.29109
G1 X184.213 Y135.017 E0.02968
G1 X183.946 Y135.925 E0.02968
G1 X183.558 Y136.796 E0.02988
G1 X183.062 Y137.602 E0.02968
G1 X182.464 Y138.336 E0.02968
G1 X181.775 Y138.985 E0.02968
G1 X181.007 Y139.538 E0.02968
G1 X180.167 Y139.988 E0.02988
G1 X178.743 Y140.462 E0.04706
G1 X177.244 Y140.629 E0.04727
G1 X72.575 Y140.626 E3.28184
M73 P1 R34
G1 X71.581 Y140.525 E0.03134
G1 X70.610 Y140.287 E0.03134
G1 X69.681 Y139.917 E0.03134
G1 X68.813 Y139.422 E0.03134
G1 X68.022 Y138.812 E0.03134
G1 X67.323 Y138.097 E0.03134
G1 X66.727 Y137.287 E0.03154
G1 X66.252 Y136.407 E0.03134
M73 Q1 S36
G1 X65.785 Y135.009 E0.04623
G1 X65.612 Y133.545 E0.04623
G1 X65.630 Y92.784 E1.27803
G1 X65.764 Y91.827 E0.03030
G1 X66.023 Y90.903 E0.03009
G1 X66.403 Y90.021 E0.03009
G1 X66.900 Y89.193 E0.03030
G1 X67.500 Y88.444 E0.03009
G1 X68.156 Y87.818 E0.02842
;WIPE_START
G1 F8640.000
G1 X68.982 Y87.209 E-0.23687
G1 X69.833 Y86.752 E-0.22313
G1 X71.066 Y86.343 E-0.30000
;WIPE_END
G1 E-0.04000 F2100.000
G1 Z1.000000 F10800.000
G1 X73.980 Y87.832
G1 Z0.200000
G1 E0.80000 F2100.000
G1 F1200.000
G1 X72.117 Y87.872 E0.05842
G1 X71.054 Y88.136 E0.03434
G1 X70.607 Y88.320 E0.01516
G1 X69.713 Y88.842 E0.03246
G1 X68.687 Y89.794 E0.04388
G1 X68.086 Y90.597 E0.03143
G1 X67.571 Y91.740 E0.03932
G1 X67.393 Y92.478 E0.02379
G1 X67.333 Y93.123 E0.02034
G1 X67.333 Y94.483 E0.04264
;WIPE_START
G1 F8640.000
G1 X67.333 Y93.123 E-0.31398
G1 X67.393 Y92.478 E-0.14978
G1 X67.571 Y91.740 E-0.17519
G1 X67.786 Y91.262 E-0.12104
;WIPE_END
G1 E-0.04000 F2100.000
G1 Z0.600000 F10800.000
G1 X67.710 Y95.579
G1 Z0.200000
G1 E0.80000 F2100.000
G1 F1200.000
G1 X67.710 Y93.130 E0.07678
G1 X67.837 Y92.184 E0.02993
G1 X68.232 Y91.115 E0.03574
G1 X68.601 Y90.499 E0.02252
G1 X68.974 Y90.040 E0.01854
G1 X69.681 Y89.347 E0.03104
G1 X70.237 Y88.942 E0.02157
G1 X70.761 Y88.665 E0.01858
G1 X71.495 Y88.387 E0.02460
G1 X72.182 Y88.244 E0.02203
G1 X72.673 Y88.209 E0.01543
G1 X75.078 Y88.209 E0.07540
;WIPE_START
G1 F8640.000
G1 X72.673 Y88.209 E-0.55526
G1 X72.182 Y88.244 E-0.11364
G1 X71.796 Y88.324 E-0.09110
;WIPE_END
G1 E-0.04000 F2100.000
G1 Z0.600000 F10800.000
G1 X78.398 Y93.111
G1 Z0.200000
G1 E0.80000 F2100.000
G1 F1200.000
G1 X72.832 Y93.111 E0.17451
G1 X72.611 Y93.332 E0.00979
G1 X72.611 Y101.668 E0.26135
G1 X72.832 Y101.889 E0.00979
G1 X78.398 Y101.889 E0.17451
G1 X78.348 Y102.266 E0.01193
G1 X72.757 Y102.266 E0.17531
G1 X72.619 Y102.208 E0.00470
G1 X72.292 Y101.881 E0.01450
G1 X72.234 Y101.743 E0.00470
G1 X72.234 Y93.257 E0.26605
G1 X72.292 Y93.119 E0.00470
G1 X72.619 Y92.792 E0.01450
G1 X72.757 Y92.734 E0.00470
G1 X78.348 Y92.734 E0.17531
G1 X78.299 Y92.357 E0.01193
G1 X72.720 Y92.357 E0.17491
G1 X72.378 Y92.499 E0.01160
G1 X71.958 Y92.940 E0.01912
G1 X71.857 Y93.220 E0.00933
G1 X71.857 Y101.780 E0.26838
G1 X71.958 Y102.060 E0.00933
G1 X72.378 Y102.501 E0.01912
G1 X72.720 Y102.643 E0.01160
G1 X78.299 Y102.643 E0.17491
G1 X78.249 Y103.020 E0.01193
G1 X72.702 Y103.020 E0.17394
G1 X72.520 Y102.984 E0.00580
G1 X72.125 Y102.781 E0.01393
G1 X71.634 Y102.254 E0.02258
G1 X71.480 Y101.798 E0.01508
G1 X71.484 Y93.165 E0.27070
G1 X71.616 Y92.779 E0.01280
G1 X72.125 Y92.219 E0.02371
G1 X72.520 Y92.016 E0.01393
G1 X72.702 Y91.980 E0.00580
G1 X78.249 Y91.980 E0.17394
G1 X78.132 Y91.604 E0.01236
G1 X72.674 Y91.604 E0.17112
G1 X72.126 Y91.771 E0.01797
G1 X71.865 Y91.946 E0.00985
G1 X71.315 Y92.544 E0.02547
G1 X71.112 Y93.100 E0.01856
G1 X71.104 Y101.826 E0.27359
G1 X71.158 Y102.098 E0.00870
G1 X71.315 Y102.456 E0.01225
G1 X71.865 Y103.054 E0.02547
G1 X72.060 Y103.194 E0.00754
G1 X72.384 Y103.336 E0.01109
G1 X72.692 Y103.397 E0.00985
G1 X78.131 Y103.397 E0.17053
G1 X77.975 Y103.774 E0.01278
G1 X72.531 Y103.759 E0.17069
G1 X71.878 Y103.525 E0.02175
G1 X71.170 Y102.892 E0.02979
G1 X70.994 Y102.654 E0.00928
G1 X70.802 Y102.221 E0.01485
G1 X70.735 Y101.923 E0.00957
G1 X70.726 Y93.188 E0.27388
G1 X70.811 Y92.753 E0.01389
G1 X71.151 Y92.129 E0.02229
G1 X71.601 Y91.676 E0.02002
G1 X71.969 Y91.429 E0.01389
G1 X72.577 Y91.235 E0.02002
G1 X77.978 Y91.234 E0.16936
M73 Q1 S35
G1 X77.823 Y90.859 E0.01273
G1 X72.538 Y90.860 E0.16572
G1 X72.176 Y90.938 E0.01160
G1 X71.511 Y91.264 E0.02321
G1 X70.870 Y91.877 E0.02782
G1 X70.674 Y92.147 E0.01045
G1 X70.458 Y92.619 E0.01630
G1 X70.349 Y93.185 E0.01808
G1 X70.360 Y101.962 E0.27519
G1 X70.446 Y102.346 E0.01232
G1 X70.672 Y102.849 E0.01731
G1 X70.870 Y103.123 E0.01059
G1 X71.350 Y103.605 E0.02132
G1 X71.682 Y103.847 E0.01290
G1 X72.319 Y104.101 E0.02149
G1 X72.681 Y104.151 E0.01145
G1 X77.819 Y104.150 E0.16111
G1 X77.657 Y104.528 E0.01288
G1 X72.673 Y104.528 E0.15628
G1 X71.959 Y104.384 E0.02283
G1 X71.493 Y104.174 E0.01601
G1 X71.092 Y103.880 E0.01558
G1 X70.584 Y103.368 E0.02263
G1 X70.330 Y103.013 E0.01370
G1 X70.087 Y102.463 E0.01884
G1 X69.985 Y102.003 E0.01478
G1 X69.972 Y93.184 E0.27649
G1 X70.102 Y92.496 E0.02197
G1 X70.369 Y91.924 E0.01977
G1 X70.590 Y91.625 E0.01168
G1 X71.099 Y91.113 E0.02263
G1 X71.422 Y90.870 E0.01269
G1 X72.066 Y90.578 E0.02215
G1 X72.684 Y90.472 E0.01968
G1 X77.657 Y90.472 E0.15591
G1 X77.367 Y90.095 E0.01490
G1 X72.684 Y90.095 E0.14686
G1 X72.027 Y90.196 E0.02084
G1 X71.523 Y90.389 E0.01693
G1 X70.872 Y90.810 E0.02430
G1 X70.310 Y91.372 E0.02491
G1 X69.883 Y92.036 E0.02476
G1 X69.671 Y92.620 E0.01949
G1 X69.595 Y93.179 E0.01768
G1 X69.595 Y101.816 E0.27081
G1 X69.730 Y102.584 E0.02444
G1 X70.000 Y103.196 E0.02098
G1 X70.298 Y103.614 E0.01609
G1 X71.046 Y104.330 E0.03246
G1 X71.815 Y104.732 E0.02723
G1 X72.166 Y104.839 E0.01149
G1 X72.647 Y104.905 E0.01522
G1 X77.368 Y104.905 E0.14803
G1 X77.079 Y105.281 E0.01490
G1 X72.636 Y105.281 E0.13930
G1 X72.090 Y105.209 E0.01728
G1 X71.673 Y105.081 E0.01367
G1 X71.101 Y104.818 E0.01974
G1 X70.577 Y104.432 E0.02039
G1 X70.000 Y103.846 E0.02578
G1 X69.671 Y103.379 E0.01791
G1 X69.296 Y102.431 E0.03197
G1 X69.218 Y101.818 E0.01938
G1 X69.218 Y93.177 E0.27095
G1 X69.316 Y92.487 E0.02184
G1 X69.541 Y91.878 E0.02036
G1 X70.030 Y91.120 E0.02827
G1 X70.625 Y90.525 E0.02639
G1 X71.021 Y90.232 E0.01544
G1 X71.918 Y89.835 E0.03075
G1 X72.682 Y89.718 E0.02424
G1 X77.078 Y89.718 E0.13784
G1 X76.789 Y89.341 E0.01490
G1 X72.680 Y89.341 E0.12883
G1 X71.816 Y89.472 E0.02739
G1 X70.822 Y89.911 E0.03408
G1 X70.383 Y90.235 E0.01711
G1 X69.792 Y90.821 E0.02611
G1 X69.511 Y91.171 E0.01405
G1 X69.217 Y91.678 E0.01838
G1 X68.958 Y92.364 E0.02297
G1 X68.870 Y92.799 E0.01393
G1 X68.841 Y101.820 E0.28285
G1 X69.014 Y102.821 E0.03185
G1 X69.343 Y103.566 E0.02553
G1 X69.714 Y104.091 E0.02016
G1 X70.598 Y104.937 E0.03838
G1 X71.171 Y105.280 E0.02091
G1 X72.012 Y105.578 E0.02799
G1 X72.618 Y105.658 E0.01916
G1 X76.790 Y105.658 E0.13079
G1 X76.308 Y106.035 E0.01917
G1 X72.274 Y106.007 E0.12650
G1 X71.388 Y105.780 E0.02868
G1 X70.972 Y105.602 E0.01418
G1 X70.340 Y105.215 E0.02322
G1 X70.064 Y104.984 E0.01130
G1 X69.420 Y104.329 E0.02879
G1 X69.004 Y103.732 E0.02281
G1 X68.565 Y102.620 E0.03749
G1 X68.464 Y101.822 E0.02521
G1 X68.464 Y98.194 E0.11377
G1 X68.087 Y98.685 E0.01942
G1 X68.087 Y101.824 E0.09844
G1 X68.198 Y102.706 E0.02786
G1 X68.300 Y103.062 E0.01160
G1 X68.676 Y103.918 E0.02932
G1 X69.122 Y104.560 E0.02452
G1 X70.090 Y105.499 E0.04227
G1 X70.702 Y105.889 E0.02278
G1 X71.402 Y106.188 E0.02385
G1 X72.193 Y106.377 E0.02549
G1 X72.577 Y106.411 E0.01209
G1 X75.818 Y106.411 E0.10162
M73 P2 R34
G1 X75.084 Y106.788 F10800.000
G1 F1200.000
G1 X72.562 Y106.788 E0.07908
G1 X71.668 Y106.659 E0.02830
G1 X70.527 Y106.223 E0.03833
G1 X69.850 Y105.790 E0.02519
G1 X69.551 Y105.537 E0.01226
G1 X68.598 Y104.497 E0.04422
G1 X68.164 Y103.739 E0.02739
G1 X67.942 Y103.182 E0.01881
G1 X67.744 Y102.318 E0.02782
G1 X67.709 Y101.827 E0.01543
G1 X67.710 Y99.422 E0.07541
;WIPE_START
G1 F8640.000
G1 X67.709 Y101.827 E-0.55534
G1 X67.744 Y102.318 E-0.11364
G1 X67.832 Y102.702 E-0.09102
;WIPE_END
G1 E-0.04000 F2100.000
G1 Z0.600000 F10800.000
G1 X67.332 Y100.520
G1 Z0.200000
G1 E0.80000 F2100.000
M73 Q2 S35
G1 F1200.000
G1 X67.372 Y102.383 E0.05844
G1 X67.585 Y103.303 E0.02960
G1 X67.820 Y103.892 E0.01989
G1 X68.288 Y104.712 E0.02960
G1 X69.295 Y105.814 E0.04679
G1 X69.620 Y106.089 E0.01335
G1 X70.351 Y106.557 E0.02722
G1 X71.579 Y107.026 E0.04122
G1 X72.530 Y107.164 E0.03014
G1 X74.005 Y107.164 E0.04624
;WIPE_START
G1 F8640.000
G1 X72.530 Y107.164 E-0.34051
G1 X71.579 Y107.026 E-0.22199
G1 X70.780 Y106.720 E-0.19750
;WIPE_END
G1 E-0.04000 F2100.000
G1 Z0.600000 F10800.000
G1 X68.464 Y96.806
G1 Z0.200000
G1 E0.80000 F2100.000
G1 F1200.000
G1 X68.464 Y93.155 E0.11449
G1 X68.504 Y92.692 E0.01456
G1 X68.608 Y92.215 E0.01531
G1 X68.879 Y91.510 E0.02368
G1 X69.204 Y90.953 E0.02024
G1 X69.515 Y90.565 E0.01559
G1 X70.142 Y89.945 E0.02764
G1 X70.618 Y89.594 E0.01855
G1 X71.065 Y89.354 E0.01589
G1 X71.709 Y89.110 E0.02160
G1 X72.678 Y88.964 E0.03072
G1 X76.306 Y88.964 E0.11377
G1 X75.815 Y88.587 E0.01942
G1 X72.232 Y88.618 E0.11234
G1 X71.590 Y88.752 E0.02056
G1 X70.888 Y89.021 E0.02358
G1 X70.404 Y89.283 E0.01726
G1 X69.894 Y89.661 E0.01989
G1 X69.239 Y90.308 E0.02887
G1 X68.892 Y90.741 E0.01741
G1 X68.557 Y91.310 E0.02070
G1 X68.250 Y92.096 E0.02645
G1 X68.087 Y93.150 E0.03346
G1 X68.087 Y96.315 E0.09923
;WIPE_START
G1 F8640.000
G1 X68.087 Y93.150 E-0.73076
G1 X68.106 Y93.025 E-0.02924
;WIPE_END
G1 E-0.04000 F2100.000
G1 Z0.600000 F10800.000
G1 X73.980 Y119.573
G1 Z0.200000
G1 E0.80000 F2100.000
G1 F1200.000
G1 X72.117 Y119.613 E0.05842
G1 X71.054 Y119.877 E0.03434
G1 X70.607 Y120.061 E0.01516
G1 X69.713 Y120.582 E0.03246
G1 X68.687 Y121.535 E0.04388
G1 X68.086 Y122.337 E0.03143
G1 X67.571 Y123.480 E0.03932
G1 X67.393 Y124.218 E0.02379
G1 X67.333 Y124.864 E0.02034
G1 X67.333 Y126.224 E0.04264
;WIPE_START
G1 F8640.000
G1 X67.333 Y124.864 E-0.31398
G1 X67.393 Y124.218 E-0.14978
G1 X67.571 Y123.480 E-0.17519
G1 X67.786 Y123.003 E-0.12104
;WIPE_END
G1 E-0.04000 F2100.000
G1 Z0.600000 F10800.000
G1 X67.710 Y127.319
G1 Z0.200000
G1 E0.80000 F2100.000
G1 F1200.000
G1 X67.710 Y124.871 E0.07678
G1 X67.837 Y123.925 E0.02993
G1 X68.232 Y122.856 E0.03574
G1 X68.601 Y122.239 E0.02252
G1 X68.974 Y121.780 E0.01854
G1 X69.681 Y121.088 E0.03104
G1 X70.237 Y120.683 E0.02157
G1 X70.761 Y120.405 E0.01858
G1 X71.495 Y120.128 E0.02460
G1 X72.182 Y119.984 E0.02203
G1 X72.673 Y119.950 E0.01543
G1 X75.078 Y119.950 E0.07540
;WIPE_START
G1 F8640.000
G1 X72.673 Y119.950 E-0.55526
G1 X72.182 Y119.984 E-0.11364
G1 X71.796 Y120.065 E-0.09110
;WIPE_END
G1 E-0.04000 F2100.000
G1 Z0.600000 F10800.000
G1 X78.398 Y124.852
G1 Z0.200000
G1 E0.80000 F2100.000
G1 F1200.000
G1 X72.832 Y124.852 E0.17451
G1 X72.611 Y125.073 E0.00979
G1 X72.611 Y133.408 E0.26135
G1 X72.832 Y133.629 E0.00979
G1 X78.398 Y133.629 E0.17451
G1 X78.348 Y134.006 E0.01193
G1 X72.757 Y134.006 E0.17531
G1 X72.619 Y133.949 E0.00470
G1 X72.292 Y133.622 E0.01450
G1 X72.234 Y133.483 E0.00470
G1 X72.234 Y124.998 E0.26605
G1 X72.292 Y124.859 E0.00470
G1 X72.619 Y124.532 E0.01450
G1 X72.757 Y124.475 E0.00470
G1 X78.348 Y124.475 E0.17531
G1 X78.299 Y124.098 E0.01193
G1 X72.720 Y124.098 E0.17491
G1 X72.378 Y124.239 E0.01160
G1 X71.958 Y124.681 E0.01912
G1 X71.857 Y124.961 E0.00933
G1 X71.857 Y133.520 E0.26838
G1 X71.958 Y133.800 E0.00933
G1 X72.378 Y134.242 E0.01912
G1 X72.720 Y134.383 E0.01160
G1 X78.299 Y134.383 E0.17491
G1 X78.249 Y134.760 E0.01193
G1 X72.702 Y134.760 E0.17394
G1 X72.520 Y134.724 E0.00580
G1 X72.125 Y134.521 E0.01393
G1 X71.634 Y133.995 E0.02258
G1 X71.480 Y133.539 E0.01508
G1 X71.484 Y124.905 E0.27070
G1 X71.616 Y124.519 E0.01280
G1 X72.125 Y123.960 E0.02371
G1 X72.520 Y123.757 E0.01393
G1 X72.702 Y123.721 E0.00580
G1 X78.249 Y123.721 E0.17394
G1 X78.132 Y123.345 E0.01236
G1 X72.674 Y123.345 E0.17112
G1 X72.126 Y123.512 E0.01797
G1 X71.865 Y123.687 E0.00985
G1 X71.315 Y124.285 E0.02547
G1 X71.112 Y124.841 E0.01856
G1 X71.104 Y133.567 E0.27359
G1 X71.158 Y133.839 E0.00870
G1 X71.315 Y134.196 E0.01225
G1 X71.865 Y134.795 E0.02547
G1 X72.060 Y134.935 E0.00754
G1 X72.384 Y135.076 E0.01109
G1 X72.692 Y135.137 E0.00985
G1 X78.131 Y135.137 E0.17053
G1 X77.975 Y135.514 E0.01278
G1 X72.531 Y135.499 E0.17069
G1 X71.878 Y135.265 E0.02175
G1 X71.170 Y134.632 E0.02979
G1 X70.994 Y134.394 E0.00928
G1 X70.802 Y133.961 E0.01485
G1 X70.735 Y133.663 E0.00957
G1 X70.726 Y124.928 E0.27388
G1 X70.811 Y124.494 E0.01389
G1 X71.151 Y123.869 E0.02229
G1 X71.601 Y123.417 E0.02002
G1 X71.969 Y123.169 E0.01389
G1 X72.577 Y122.975 E0.02002
G1 X77.978 Y122.975 E0.16936
G1 X77.823 Y122.600 E0.01273
G1 X72.538 Y122.600 E0.16572
G1 X72.176 Y122.679 E0.01160
G1 X71.511 Y123.005 E0.02321
G1 X70.870 Y123.618 E0.02782
G1 X70.674 Y123.887 E0.01045
G1 X70.458 Y124.360 E0.01630
G1 X70.349 Y124.926 E0.01808
G1 X70.360 Y133.703 E0.27519
G1 X70.446 Y134.086 E0.01232
G1 X70.672 Y134.590 E0.01731
G1 X70.870 Y134.863 E0.01059
G1 X71.350 Y135.346 E0.02132
G1 X71.682 Y135.588 E0.01290
G1 X72.319 Y135.841 E0.02149
G1 X72.681 Y135.892 E0.01145
G1 X77.819 Y135.891 E0.16111
G1 X77.657 Y136.269 E0.01288
G1 X72.673 Y136.269 E0.15628
G1 X71.959 Y136.124 E0.02283
G1 X71.493 Y135.914 E0.01601
G1 X71.092 Y135.621 E0.01558
G1 X70.584 Y135.109 E0.02263
G1 X70.330 Y134.753 E0.01370
G1 X70.087 Y134.203 E0.01884
G1 X69.985 Y133.743 E0.01478
G1 X69.972 Y124.925 E0.27649
G1 X70.102 Y124.236 E0.02197
G1 X70.369 Y123.665 E0.01977
G1 X70.590 Y123.365 E0.01168
G1 X71.099 Y122.854 E0.02263
G1 X71.422 Y122.611 E0.01269
G1 X72.066 Y122.319 E0.02215
G1 X72.684 Y122.212 E0.01968
G1 X77.657 Y122.212 E0.15591
G1 X77.367 Y121.835 E0.01490
G1 X72.684 Y121.835 E0.14686
G1 X72.027 Y121.936 E0.02084
G1 X71.523 Y122.130 E0.01693
G1 X70.872 Y122.551 E0.02430
G1 X70.310 Y123.113 E0.02491
G1 X69.883 Y123.777 E0.02476
G1 X69.671 Y124.361 E0.01949
