; generated by SuperSlicer 2.3.55 on 2021-06-22 at 17:29:13 UTC

; 

; external perimeters extrusion width = 0.45mm
; perimeters extrusion width = 0.45mm
; infill extrusion width = 0.45mm
; solid infill extrusion width = 0.45mm
; top infill extrusion width = 0.40mm
; first layer extrusion width = 0.42mm

; object:{"name":"frontfinger","id":"frontfinger.STL id:0 copy 0","object_center":[125.000000,105.000000,0.000000],"boundingbox_center":[125.000000,105.000000,2.500000],"boundingbox_size":[105.000000,9.000000,5.000000]}
; Total objects to print: 1
M486 T1
; plater:{"center":[125.000000,105.000000,0.000000],"boundingbox_center":[125.000000,105.000000,2.500000],"boundingbox_size":[105.000000,9.000000,5.000000]}

M73 P0 R18
M73 Q0 S18
;TYPE:Custom
M862.3 P "MK3S" ; printer model check
M862.1 P0.4 ; nozzle diameter check
M115 U3.9.2 ; tell printer latest fw version
G90 ; use absolute coordinates
M83 ; extruder relative mode
M104 S215 ; set extruder temp
M140 S60 ; set bed temp
M190 S60 ; wait for bed temp
M109 S215 ; wait for extruder temp
G28 W ; home all without mesh bed level
G80 ; mesh bed leveling
G1 Y-3.0 F1000.0 ; go outside print area
G92 E0.0
G1 X60.0 E9.0 F1000.0 ; intro line
M73 P0 R17
G1 X100.0 E12.5 F1000.0 ; intro line
G92 E0.0
M221 S95

; Don't change E values below. Excessive value can damage the printer.

M107
G21 ; set units to millimeters
G90 ; use absolute coordinates
M83 ; use relative distances for extrusion
M900 K0.05 ; Filament gcode LA 1.5
M900 K30 ; Filament gcode LA 1.0
;LAYER_CHANGE
;Z:0.2
;HEIGHT:0.2
;BEFORE_LAYER_CHANGE
;0.2


G1 E-0.80000 F2100.000
G1 Z0.400000 F10800.000
;AFTER_LAYER_CHANGE
;0.2
G1 X68.256 Y95.230
G1 Z0.200000
G1 E0.80000 F2100.000
;TYPE:Skirt
;WIDTH:0.42
G1 F1200.000
G1 X69.044 Y94.671 E0.03030
G1 X69.894 Y94.225 E0.03009
G1 X70.802 Y93.895 E0.03030
G1 X71.739 Y93.690 E0.03009
G1 X72.795 Y93.611 E0.03320
G1 X177.207 Y93.611 E3.27374
M73 P1 R17
M73 Q1 S18
G1 X178.563 Y93.742 E0.04272
G1 X179.876 Y94.128 E0.04293
G1 X181.093 Y94.757 E0.04293
G1 X182.163 Y95.600 E0.04272
G1 X183.059 Y96.635 E0.04293
G1 X183.742 Y97.821 E0.04293
G1 X184.187 Y99.109 E0.04272
G1 X184.381 Y100.464 E0.04293
G1 X184.382 Y109.498 E0.28325
G1 X184.239 Y110.660 E0.03672
G1 X183.906 Y111.790 E0.03693
G1 X183.507 Y112.649 E0.02968
G1 X183.000 Y113.447 E0.02968
G1 X182.391 Y114.173 E0.02968
G1 X181.693 Y114.811 E0.02968
G1 X180.917 Y115.353 E0.02968
G1 X180.076 Y115.788 E0.02968
G1 X179.186 Y116.109 E0.02968
G1 X178.261 Y116.310 E0.02968
G1 X177.205 Y116.389 E0.03320
G1 X72.416 Y116.378 E3.28558
G1 X71.197 Y116.208 E0.03858
G1 X70.026 Y115.832 E0.03858
G1 X68.935 Y115.261 E0.03858
G1 X67.963 Y114.518 E0.03838
G1 X67.127 Y113.615 E0.03858
G1 X66.457 Y112.583 E0.03858
G1 X65.973 Y111.451 E0.03858
G1 X65.690 Y110.261 E0.03838
G1 X65.612 Y109.258 E0.03154
G1 X65.615 Y100.581 E0.27204
G1 X65.741 Y99.444 E0.03589
G1 X66.048 Y98.334 E0.03610
G1 X66.436 Y97.457 E0.03009
G1 X66.942 Y96.633 E0.03030
G1 X67.554 Y95.885 E0.03030
G1 X68.212 Y95.271 E0.02821
;WIPE_START
G1 F8640.000
G1 X69.044 Y94.671 E-0.23687
G1 X69.894 Y94.225 E-0.22161
G1 X70.802 Y93.895 E-0.22313
G1 X71.133 Y93.822 E-0.07839
;WIPE_END
G1 E-0.04000 F2100.000
G1 Z1.000000 F10800.000
G1 X73.980 Y95.332
G1 Z0.200000
M73 P2 R17
G1 E0.80000 F2100.000
G1 F1200.000
G1 X72.117 Y95.372 E0.05842
M73 Q2 S18
G1 X71.054 Y95.636 E0.03434
G1 X70.607 Y95.820 E0.01516
G1 X69.713 Y96.342 E0.03246
G1 X68.687 Y97.294 E0.04388
G1 X68.086 Y98.097 E0.03143
G1 X67.571 Y99.240 E0.03932
G1 X67.393 Y99.978 E0.02379
G1 X67.333 Y100.623 E0.02034
G1 X67.333 Y101.983 E0.04264
;WIPE_START
G1 F8640.000
G1 X67.333 Y100.623 E-0.31398
G1 X67.393 Y99.978 E-0.14978
G1 X67.571 Y99.240 E-0.17519
G1 X67.786 Y98.762 E-0.12104
;WIPE_END
G1 E-0.04000 F2100.000
G1 Z0.600000 F10800.000
G1 X67.710 Y103.079
G1 Z0.200000
G1 E0.80000 F2100.000
G1 F1200.000
G1 X67.710 Y100.630 E0.07678
G1 X67.837 Y99.684 E0.02993
G1 X68.232 Y98.615 E0.03574
G1 X68.601 Y97.999 E0.02252
G1 X68.974 Y97.540 E0.01854
G1 X69.681 Y96.847 E0.03104
G1 X70.237 Y96.442 E0.02157
G1 X70.761 Y96.165 E0.01858
G1 X71.495 Y95.887 E0.02460
G1 X72.182 Y95.744 E0.02203
G1 X72.673 Y95.709 E0.01543
G1 X75.078 Y95.709 E0.07540
G1 X75.815 Y96.087 F10800.000
G1 F1200.000
G1 X72.676 Y96.087 E0.09843
G1 X72.232 Y96.118 E0.01393
G1 X71.309 Y96.346 E0.02983
G1 X70.404 Y96.783 E0.03151
G1 X69.894 Y97.161 E0.01989
G1 X69.239 Y97.808 E0.02887
G1 X68.892 Y98.241 E0.01741
G1 X68.557 Y98.810 E0.02070
G1 X68.250 Y99.596 E0.02645
G1 X68.087 Y100.650 E0.03346
G1 X68.087 Y103.815 E0.09923
G1 X68.464 Y104.306 E0.01942
G1 X68.464 Y100.655 E0.11449
G1 X68.608 Y99.715 E0.02981
G1 X68.879 Y99.010 E0.02368
G1 X69.204 Y98.453 E0.02024
G1 X69.515 Y98.065 E0.01559
G1 X70.142 Y97.445 E0.02764
G1 X70.618 Y97.094 E0.01855
G1 X71.065 Y96.854 E0.01589
G1 X71.709 Y96.610 E0.02160
G1 X72.306 Y96.488 E0.01910
G1 X76.306 Y96.464 E0.12543
G1 X76.789 Y96.841 E0.01920
G1 X72.680 Y96.841 E0.12883
G1 X71.816 Y96.972 E0.02739
G1 X71.218 Y97.199 E0.02008
G1 X70.822 Y97.411 E0.01407
G1 X70.383 Y97.735 E0.01711
G1 X69.792 Y98.321 E0.02611
G1 X69.347 Y98.928 E0.02359
G1 X68.958 Y99.864 E0.03177
G1 X68.841 Y100.673 E0.02563
G1 X68.841 Y109.320 E0.27113
G1 X68.928 Y110.013 E0.02191
G1 X69.199 Y110.782 E0.02557
G1 X69.714 Y111.591 E0.03006
G1 X70.598 Y112.437 E0.03838
G1 X70.908 Y112.641 E0.01161
G1 X71.530 Y112.931 E0.02152
G1 X72.012 Y113.078 E0.01581
G1 X72.618 Y113.158 E0.01916
G1 X76.790 Y113.158 E0.13079
G1 X77.079 Y112.781 E0.01489
G1 X72.636 Y112.781 E0.13930
G1 X72.090 Y112.709 E0.01728
G1 X71.673 Y112.581 E0.01367
G1 X70.823 Y112.134 E0.03012
G1 X70.000 Y111.346 E0.03571
G1 X69.671 Y110.879 E0.01791
G1 X69.373 Y110.206 E0.02307
G1 X69.218 Y109.318 E0.02827
G1 X69.218 Y100.677 E0.27095
G1 X69.316 Y99.987 E0.02184
G1 X69.541 Y99.378 E0.02036
G1 X69.742 Y99.005 E0.01326
G1 X70.030 Y98.620 E0.01508
G1 X70.625 Y98.025 E0.02639
G1 X71.370 Y97.544 E0.02781
G1 X71.918 Y97.335 E0.01838
G1 X72.682 Y97.218 E0.02424
G1 X77.078 Y97.218 E0.13784
G1 X77.367 Y97.595 E0.01490
G1 X72.684 Y97.595 E0.14686
G1 X72.027 Y97.696 E0.02084
G1 X71.523 Y97.889 E0.01693
G1 X70.872 Y98.310 E0.02430
G1 X70.310 Y98.872 E0.02491
G1 X70.056 Y99.214 E0.01338
G1 X69.748 Y99.867 E0.02263
G1 X69.595 Y100.679 E0.02591
G1 X69.595 Y109.316 E0.27081
M73 Q2 S17
G1 X69.664 Y109.849 E0.01684
G1 X69.889 Y110.477 E0.02093
G1 X70.298 Y111.114 E0.02372
G1 X71.046 Y111.830 E0.03246
G1 X71.815 Y112.232 E0.02723
G1 X72.166 Y112.339 E0.01149
G1 X72.647 Y112.405 E0.01522
G1 X77.368 Y112.405 E0.14803
G1 X77.657 Y112.028 E0.01488
G1 X72.673 Y112.028 E0.15628
G1 X72.244 Y111.970 E0.01355
G1 X71.493 Y111.674 E0.02532
G1 X71.092 Y111.380 E0.01558
G1 X70.584 Y110.868 E0.02263
G1 X70.330 Y110.513 E0.01370
G1 X70.087 Y109.963 E0.01884
G1 X69.972 Y109.316 E0.02061
G1 X69.972 Y100.684 E0.27063
G1 X70.032 Y100.233 E0.01427
G1 X70.369 Y99.424 E0.02747
G1 X70.590 Y99.125 E0.01168
G1 X71.099 Y98.613 E0.02263
G1 X71.660 Y98.241 E0.02112
G1 X72.066 Y98.078 E0.01370
G1 X72.497 Y97.985 E0.01384
G1 X77.657 Y97.972 E0.16177
G1 X77.823 Y98.359 E0.01321
G1 X72.538 Y98.360 E0.16572
G1 X72.176 Y98.438 E0.01160
G1 X71.511 Y98.764 E0.02321
G1 X70.870 Y99.377 E0.02782
G1 X70.674 Y99.647 E0.01045
G1 X70.458 Y100.119 E0.01630
G1 X70.349 Y100.685 E0.01808
G1 X70.360 Y109.462 E0.27519
G1 X70.446 Y109.846 E0.01232
G1 X70.672 Y110.349 E0.01731
G1 X70.870 Y110.623 E0.01059
G1 X71.350 Y111.105 E0.02132
G1 X71.682 Y111.347 E0.01290
G1 X72.102 Y111.535 E0.01442
G1 X72.681 Y111.651 E0.01850
G1 X77.819 Y111.650 E0.16111
G1 X77.975 Y111.274 E0.01279
G1 X72.531 Y111.259 E0.17069
M73 P3 R17
G1 X71.878 Y111.025 E0.02175
G1 X71.608 Y110.830 E0.01044
G1 X70.994 Y110.154 E0.02865
G1 X70.802 Y109.721 E0.01485
G1 X70.735 Y109.423 E0.00957
G1 X70.740 Y100.540 E0.27851
M73 Q3 S17
G1 X70.994 Y99.846 E0.02317
G1 X71.601 Y99.176 E0.02836
G1 X71.969 Y98.929 E0.01389
G1 X72.577 Y98.735 E0.02002
G1 X77.978 Y98.734 E0.16936
G1 X78.132 Y99.104 E0.01255
G1 X72.674 Y99.104 E0.17112
G1 X72.126 Y99.271 E0.01797
G1 X71.865 Y99.446 E0.00985
G1 X71.315 Y100.044 E0.02547
G1 X71.112 Y100.600 E0.01856
G1 X71.104 Y109.326 E0.27359
G1 X71.158 Y109.598 E0.00870
G1 X71.315 Y109.956 E0.01225
G1 X71.865 Y110.554 E0.02547
G1 X72.060 Y110.694 E0.00754
G1 X72.384 Y110.836 E0.01109
G1 X72.692 Y110.897 E0.00985
G1 X78.131 Y110.897 E0.17053
G1 X78.249 Y110.520 E0.01239
G1 X72.702 Y110.520 E0.17394
G1 X72.520 Y110.484 E0.00580
G1 X72.125 Y110.281 E0.01393
G1 X71.634 Y109.754 E0.02258
G1 X71.480 Y109.298 E0.01508
G1 X71.484 Y100.665 E0.27070
G1 X71.696 Y100.153 E0.01735
G1 X72.125 Y99.719 E0.01914
G1 X72.520 Y99.516 E0.01393
G1 X72.702 Y99.480 E0.00580
G1 X78.249 Y99.480 E0.17394
G1 X78.299 Y99.857 E0.01192
G1 X72.720 Y99.857 E0.17491
G1 X72.378 Y99.999 E0.01160
G1 X71.958 Y100.440 E0.01912
G1 X71.857 Y100.720 E0.00933
G1 X71.857 Y109.280 E0.26838
G1 X71.958 Y109.560 E0.00933
G1 X72.378 Y110.001 E0.01912
G1 X72.720 Y110.143 E0.01160
G1 X78.299 Y110.143 E0.17491
G1 X78.348 Y109.766 E0.01193
G1 X72.757 Y109.766 E0.17531
G1 X72.619 Y109.708 E0.00470
G1 X72.292 Y109.381 E0.01450
G1 X72.234 Y109.243 E0.00470
G1 X72.234 Y100.757 E0.26605
G1 X72.292 Y100.619 E0.00470
G1 X72.619 Y100.292 E0.01450
G1 X72.757 Y100.234 E0.00470
G1 X78.348 Y100.234 E0.17531
G1 X78.398 Y100.611 E0.01193
G1 X72.832 Y100.611 E0.17451
G1 X72.611 Y100.832 E0.00979
G1 X72.611 Y109.168 E0.26135
G1 X72.832 Y109.389 E0.00979
G1 X78.398 Y109.389 E0.17451
;WIPE_START
G1 F8640.000
G1 X75.107 Y109.389 E-0.76000
;WIPE_END
G1 E-0.04000 F2100.000
G1 Z0.600000 F10800.000
G1 X76.308 Y113.535
G1 Z0.200000
G1 E0.80000 F2100.000
G1 F1200.000
G1 X72.274 Y113.507 E0.12650
G1 X71.388 Y113.280 E0.02868
G1 X70.972 Y113.102 E0.01418
G1 X70.340 Y112.715 E0.02322
G1 X70.064 Y112.484 E0.01130
G1 X69.420 Y111.829 E0.02879
G1 X69.004 Y111.232 E0.02281
G1 X68.565 Y110.120 E0.03749
G1 X68.464 Y109.322 E0.02521
G1 X68.464 Y105.694 E0.11377
G1 X68.087 Y106.185 E0.01942
G1 X68.118 Y109.768 E0.11234
G1 X68.300 Y110.562 E0.02554
G1 X68.509 Y111.087 E0.01772
G1 X68.676 Y111.418 E0.01162
G1 X69.122 Y112.060 E0.02452
G1 X69.808 Y112.761 E0.03075
G1 X70.395 Y113.211 E0.02319
G1 X70.962 Y113.512 E0.02012
G1 X71.756 Y113.793 E0.02643
G1 X72.577 Y113.911 E0.02598
G1 X75.818 Y113.911 E0.10162
G1 X75.084 Y114.288 F10800.000
G1 F1200.000
G1 X72.562 Y114.288 E0.07908
G1 X71.668 Y114.159 E0.02830
G1 X70.527 Y113.723 E0.03833
G1 X69.850 Y113.290 E0.02519
G1 X69.551 Y113.037 E0.01226
G1 X68.598 Y111.997 E0.04422
G1 X68.164 Y111.239 E0.02739
G1 X67.942 Y110.682 E0.01881
G1 X67.744 Y109.818 E0.02782
G1 X67.709 Y109.327 E0.01543
G1 X67.710 Y106.922 E0.07541
;WIPE_START
G1 F8640.000
G1 X67.709 Y109.327 E-0.55534
G1 X67.744 Y109.818 E-0.11364
G1 X67.832 Y110.202 E-0.09102
;WIPE_END
G1 E-0.04000 F2100.000
G1 Z0.600000 F10800.000
G1 X67.332 Y108.020
G1 Z0.200000
G1 E0.80000 F2100.000
G1 F1200.000
G1 X67.372 Y109.883 E0.05844
G1 X67.585 Y110.803 E0.02960
G1 X67.820 Y111.392 E0.01989
G1 X68.288 Y112.212 E0.02960
G1 X69.295 Y113.314 E0.04679
G1 X69.620 Y113.589 E0.01335
G1 X70.351 Y114.057 E0.02722
G1 X71.579 Y114.526 E0.04122
G1 X72.530 Y114.664 E0.03014
G1 X74.005 Y114.664 E0.04624
;WIPE_START
G1 F8640.000
G1 X72.530 Y114.664 E-0.34051
G1 X71.579 Y114.526 E-0.22199
G1 X70.780 Y114.220 E-0.19750
;WIPE_END
G1 E-0.04000 F2100.000
G1 Z0.600000 F10800.000
G1 X171.602 Y109.389
M73 P4 R17
M73 Q4 S17
G1 Z0.200000
G1 E0.80000 F2100.000
G1 F1200.000
G1 X177.168 Y109.389 E0.17451
G1 X177.389 Y109.168 E0.00979
G1 X177.389 Y106.932 E0.07009
G1 X177.168 Y106.711 E0.00979
G1 X171.602 Y106.707 E0.17450
G1 X171.652 Y106.330 E0.01192
G1 X177.243 Y106.334 E0.17530
G1 X177.382 Y106.392 E0.00470
G1 X177.708 Y106.719 E0.01449
G1 X177.766 Y106.857 E0.00470
G1 X177.766 Y109.243 E0.07479
G1 X177.708 Y109.381 E0.00470
G1 X177.381 Y109.708 E0.01450
G1 X177.243 Y109.766 E0.00470
G1 X171.652 Y109.766 E0.17531
G1 X171.701 Y110.143 E0.01193
G1 X177.280 Y110.143 E0.17491
G1 X177.622 Y110.001 E0.01160
G1 X178.001 Y109.622 E0.01683
G1 X178.143 Y109.280 E0.01160
G1 X178.143 Y106.820 E0.07712
G1 X178.001 Y106.479 E0.01160
G1 X177.622 Y106.099 E0.01682
G1 X177.281 Y105.957 E0.01160
G1 X171.702 Y105.953 E0.17492
G1 X171.751 Y105.576 E0.01192
G1 X177.299 Y105.580 E0.17395
G1 X177.847 Y105.796 E0.01846
G1 X178.281 Y106.225 E0.01914
G1 X178.384 Y106.379 E0.00580
G1 X178.520 Y106.802 E0.01392
G1 X178.484 Y109.480 E0.08398
G1 X178.281 Y109.875 E0.01393
G1 X177.754 Y110.366 E0.02258
G1 X177.298 Y110.520 E0.01508
G1 X171.751 Y110.520 E0.17394
G1 X171.868 Y110.896 E0.01236
G1 X177.326 Y110.896 E0.17112
G1 X177.598 Y110.842 E0.00870
G1 X178.135 Y110.554 E0.01911
G1 X178.554 Y110.135 E0.01857
G1 X178.685 Y109.956 E0.00696
G1 X178.891 Y109.381 E0.01913
G1 X178.897 Y106.792 E0.08117
G1 X178.858 Y106.555 E0.00754
G1 X178.567 Y105.979 E0.02025
G1 X178.122 Y105.534 E0.01972
G1 X177.875 Y105.372 E0.00927
G1 X177.309 Y105.203 E0.01852
G1 X171.870 Y105.199 E0.17052
;WIPE_START
G1 F8640.000
G1 X175.162 Y105.202 E-0.76000
;WIPE_END
G1 E-0.04000 F2100.000
G1 Z0.600000 F10800.000
G1 X172.198 Y103.292
G1 Z0.200000
G1 E0.80000 F2100.000
G1 F1200.000
G1 X177.168 Y103.289 E0.15582
G1 X177.389 Y103.068 E0.00979
G1 X177.389 Y100.832 E0.07009
G1 X177.168 Y100.611 E0.00979
G1 X171.602 Y100.611 E0.17451
G1 X171.652 Y100.234 E0.01193
G1 X177.243 Y100.234 E0.17531
G1 X177.381 Y100.292 E0.00470
G1 X177.708 Y100.619 E0.01450
G1 X177.766 Y100.757 E0.00470
G1 X177.766 Y103.143 E0.07479
G1 X177.708 Y103.281 E0.00470
G1 X177.382 Y103.608 E0.01449
G1 X177.243 Y103.666 E0.00470
G1 X172.375 Y103.669 E0.15264
G1 X172.363 Y104.046 E0.01183
G1 X177.281 Y104.043 E0.15420
G1 X177.622 Y103.901 E0.01160
G1 X178.001 Y103.521 E0.01682
G1 X178.143 Y103.180 E0.01160
G1 X178.143 Y100.720 E0.07712
G1 X178.001 Y100.378 E0.01160
G1 X177.622 Y99.999 E0.01683
G1 X177.280 Y99.857 E0.01160
G1 X171.701 Y99.857 E0.17491
G1 X171.750 Y99.484 E0.01182
G1 X177.335 Y99.484 E0.17511
G1 X177.847 Y99.696 E0.01735
G1 X178.281 Y100.125 E0.01914
G1 X178.484 Y100.520 E0.01393
G1 X178.520 Y100.702 E0.00580
G1 X178.494 Y103.344 E0.08286
G1 X178.281 Y103.775 E0.01507
G1 X177.722 Y104.283 E0.02369
G1 X177.299 Y104.420 E0.01392
G1 X172.192 Y104.424 E0.16015
G1 X172.035 Y104.801 E0.01280
G1 X177.309 Y104.797 E0.16535
G1 X177.875 Y104.628 E0.01852
G1 X178.122 Y104.466 E0.00927
G1 X178.567 Y104.021 E0.01972
G1 X178.858 Y103.445 E0.02025
G1 X178.897 Y103.208 E0.00754
G1 X178.891 Y100.619 E0.08118
G1 X178.685 Y100.044 E0.01913
G1 X178.554 Y99.865 E0.00696
G1 X178.135 Y99.446 E0.01857
G1 X177.598 Y99.158 E0.01911
G1 X177.326 Y99.104 E0.00870
G1 X171.868 Y99.104 E0.17112
G1 X172.025 Y98.727 E0.01281
G1 X177.321 Y98.726 E0.16608
G1 X177.712 Y98.799 E0.01245
G1 X178.130 Y98.980 E0.01428
G1 X178.824 Y99.601 E0.02922
G1 X179.025 Y99.878 E0.01073
G1 X179.259 Y100.531 E0.02175
G1 X179.274 Y103.221 E0.08435
G1 X179.201 Y103.612 E0.01245
G1 X179.056 Y103.964 E0.01196
G1 X178.849 Y104.271 E0.01159
G1 X178.365 Y104.755 E0.02146
G1 X177.963 Y105.000 E0.01478
G1 X178.365 Y105.245 E0.01478
G1 X178.849 Y105.729 E0.02146
G1 X179.056 Y106.036 E0.01159
G1 X179.220 Y106.450 E0.01398
G1 X179.274 Y106.788 E0.01072
G1 X179.274 Y109.312 E0.07915
G1 X179.189 Y109.747 E0.01389
G1 X179.001 Y110.161 E0.01427
G1 X178.277 Y110.924 E0.03296
G1 X177.712 Y111.201 E0.01974
G1 X177.423 Y111.265 E0.00928
G1 X172.022 Y111.266 E0.16936
M73 P5 R17
G1 X172.177 Y111.641 E0.01273
G1 X177.462 Y111.640 E0.16572
G1 X177.824 Y111.562 E0.01160
G1 X178.369 Y111.316 E0.01875
M73 Q5 S17
G1 X178.647 Y111.108 E0.01088
G1 X179.236 Y110.488 E0.02681
G1 X179.543 Y109.876 E0.02148
G1 X179.651 Y109.315 E0.01793
G1 X179.651 Y106.781 E0.07944
G1 X179.601 Y106.419 E0.01145
G1 X179.316 Y105.731 E0.02334
G1 X178.656 Y105.000 E0.03090
G1 X179.106 Y104.550 E0.01995
G1 X179.415 Y104.086 E0.01749
G1 X179.597 Y103.599 E0.01629
G1 X179.651 Y103.219 E0.01203
G1 X179.651 Y100.685 E0.07944
G1 X179.535 Y100.102 E0.01865
G1 X179.347 Y99.682 E0.01442
G1 X179.092 Y99.336 E0.01348
G1 X178.619 Y98.867 E0.02089
G1 X178.306 Y98.646 E0.01204
