; generated by Slic3r Prusa Edition 1.42.0-beta2+linux64 on 2019-06-18 at 12:09:45

; 

; external perimeters extrusion width = 0.45mm
; perimeters extrusion width = 0.45mm
; infill extrusion width = 0.45mm
; solid infill extrusion width = 0.45mm
; top infill extrusion width = 0.40mm
; support material extrusion width = 0.35mm
; first layer extrusion width = 0.42mm

M73 P0 R72
M73 Q0 S73
M201 X1000 Y1000 Z1000 E5000 ; sets maximum accelerations, mm/sec^2
M203 X200 Y200 Z12 E120 ; sets maximum feedrates, mm/sec
M204 P1250 R1250 T1250 ; sets acceleration (P, T) and retract acceleration (R), mm/sec^2
M205 X8.00 Y8.00 Z0.40 E1.50 ; sets the jerk limits, mm/sec
M205 S0 T0 ; sets the minimum extruding and travel feed rate, mm/sec
M107
M115 U3.6.0 ; tell printer latest fw version
M83  ; extruder relative mode
M104 S215 ; set extruder temp
M140 S60 ; set bed temp
M190 S60 ; wait for bed temp
M109 S215 ; wait for extruder temp
G28 W ; home all without mesh bed level
G80 ; mesh bed leveling
G1 Y-3.0 F1000.0 ; go outside print area
G92 E0.0
G1 X60.0 E9.0  F1000.0 ; intro line
M73 Q0 S72
M73 P0 R72
G1 X100.0 E12.5  F1000.0 ; intro line
G92 E0.0
M221 S95
M900 K30 ; Filament gcode
G21 ; set units to millimeters
G90 ; use absolute coordinates
M83 ; use relative distances for extrusion
;BEFORE_LAYER_CHANGE
G92 E0.0
;0.2


G1 E-0.80000 F2100.00000
G1 Z0.600 F10800.000
;AFTER_LAYER_CHANGE
;0.2
G1 X164.255 Y28.707
G1 Z0.200
G1 E0.80000 F2100.00000
M204 S1000
G1 F1200
G1 X164.918 Y29.094 E0.02405
G1 X165.406 Y29.686 E0.02405
G1 X165.660 Y30.410 E0.02405
G1 X165.688 Y39.589 E0.28782
G1 X165.625 Y40.070 E0.01521
G1 X165.455 Y40.528 E0.01532
G1 X93.410 Y181.136 E4.95367
G1 X93.103 Y181.557 E0.01635
G1 X91.487 Y183.208 E0.07243
G1 X91.090 Y183.499 E0.01544
G1 X90.642 Y183.694 E0.01532
G1 X90.048 Y183.790 E0.01885
G1 X86.442 Y183.789 E0.11308
G1 X85.965 Y183.724 E0.01510
G1 X85.517 Y183.557 E0.01498
G1 X85.025 Y183.218 E0.01873
G1 X84.642 Y182.759 E0.01873
G1 X84.399 Y182.213 E0.01873
G1 X84.312 Y181.622 E0.01873
G1 X84.311 Y71.628 E3.44878
G1 X84.371 Y71.125 E0.01589
G1 X84.545 Y70.649 E0.01589
G1 X107.662 Y29.673 E1.47513
G1 X108.038 Y29.190 E0.01919
G1 X108.533 Y28.829 E0.01919
G1 X109.026 Y28.639 E0.01658
G1 X109.550 Y28.573 E0.01658
G1 X163.500 Y28.573 E1.69156
G1 X164.196 Y28.697 E0.02217
G1 F8640
G1 X164.918 Y29.094 E-0.19021
G1 X165.406 Y29.686 E-0.17715
G1 X165.660 Y30.410 E-0.17715
G1 X165.663 Y31.343 E-0.21550
G1 E-0.04000 F2100.00000
G1 Z0.800 F10800.000
G1 X162.159 Y32.189
G1 Z0.200
G1 E0.80000 F2100.00000
G1 F1200
G1 X162.159 Y38.999 E0.21351
G1 X161.435 Y39.739 E0.03245
G1 X114.490 Y39.739 E1.47193
G1 X95.159 Y74.000 E1.23343
G1 X95.159 Y166.013 E2.88501
G1 X94.435 Y166.753 E0.03245
G1 X90.159 Y166.753 E0.13409
G1 X90.159 Y179.520 E0.40030
G1 X89.435 Y180.260 E0.03245
G1 X87.841 Y180.260 E0.04998
G1 X87.841 Y71.984 E3.39492
G1 X110.295 Y32.189 E1.43267
G1 X162.099 Y32.189 E1.62426
G1 F8640
G1 X162.128 Y35.480 E-0.76000
G1 E-0.04000 F2100.00000
G1 Z0.800 F10800.000
G1 X114.710 Y40.116
G1 Z0.200
G1 E0.80000 F2100.00000
G1 F1200
G1 X95.536 Y74.099 E1.22342
G1 X95.536 Y166.166 E2.88672
G1 X94.594 Y167.130 E0.04224
G1 X90.536 Y167.130 E0.12724
G1 X90.536 Y179.674 E0.39330
G1 X89.594 Y180.637 E0.04224
G1 X87.464 Y180.637 E0.06678
G1 X87.464 Y71.885 E3.40985
G1 X110.075 Y31.812 E1.44268
M73 Q1 S71
M73 P1 R71
G1 X162.536 Y31.812 E1.64486
G1 X162.536 Y39.152 E0.23015
G1 X161.594 Y40.116 E0.04224
G1 X114.770 Y40.116 E1.46812
G1 X114.931 Y40.493 F10800.000
G1 F1200
G1 X95.913 Y74.198 E1.21341
G1 X95.913 Y166.320 E2.88844
G1 X94.753 Y167.507 E0.05204
G1 X90.913 Y167.507 E0.12040
G1 X90.913 Y179.827 E0.38629
G1 X89.753 Y181.014 E0.05204
G1 X87.087 Y181.014 E0.08358
G1 X87.087 Y71.786 E3.42478
G1 X109.855 Y31.435 E1.45269
G1 X162.913 Y31.435 E1.66359
G1 X162.913 Y39.306 E0.24679
G1 X161.753 Y40.493 E0.05204
G1 X114.991 Y40.493 E1.46620
G1 X115.151 Y40.870 F10800.000
G1 F1200
G1 X96.290 Y74.297 E1.20340
G1 X96.290 Y166.474 E2.89015
G1 X94.912 Y167.884 E0.06183
G1 X91.290 Y167.884 E0.11355
G1 X91.290 Y179.981 E0.37929
G1 X89.912 Y181.391 E0.06183
G1 X86.710 Y181.391 E0.10038
G1 X86.710 Y71.687 E3.43971
G1 X109.635 Y31.058 E1.46269
G1 X163.290 Y31.058 E1.68232
G1 X163.290 Y39.460 E0.26343
G1 X161.912 Y40.870 E0.06183
G1 X115.211 Y40.870 E1.46427
G1 X114.773 Y40.739 F10800.000
G1 F8640
G1 X113.590 Y43.734 E-0.76000
G1 E-0.04000 F2100.00000
G1 Z0.800 F10800.000
G1 X162.046 Y33.065
G1 Z0.200
G1 E0.80000 F2100.00000
G1 F1200
G1 X161.452 Y32.472 E0.02632
G1 X160.919 Y32.472 E0.01675
G1 X161.876 Y33.429 E0.04248
G1 X161.876 Y33.963 E0.01675
G1 X160.385 Y32.472 E0.06616
G1 X159.851 Y32.472 E0.01675
G1 X161.876 Y34.496 E0.08984
G1 X161.876 Y35.030 E0.01675
G1 X159.318 Y32.472 E0.11352
G1 X158.784 Y32.472 E0.01675
G1 X161.876 Y35.564 E0.13721
G1 X161.876 Y36.097 E0.01675
G1 X158.250 Y32.472 E0.16089
G1 X157.717 Y32.472 E0.01675
G1 X161.876 Y36.631 E0.18457
G1 X161.876 Y37.165 E0.01675
G1 X157.183 Y32.472 E0.20825
G1 X156.649 Y32.472 E0.01675
G1 X161.876 Y37.699 E0.23194
G1 X161.876 Y38.232 E0.01675
G1 X156.116 Y32.472 E0.25562
G1 X155.582 Y32.472 E0.01675
G1 X161.876 Y38.766 E0.27930
G1 X161.876 Y38.883 E0.00369
G1 X161.670 Y39.094 E0.00923
G1 X155.048 Y32.472 E0.29386
G1 X154.515 Y32.472 E0.01675
G1 X161.407 Y39.364 E0.30583
G1 X161.316 Y39.456 E0.00405
G1 X160.965 Y39.456 E0.01102
G1 X153.981 Y32.472 E0.30993
G1 X153.447 Y32.472 E0.01675
G1 X160.431 Y39.456 E0.30993
G1 X159.898 Y39.456 E0.01675
G1 X152.914 Y32.472 E0.30993
G1 X152.380 Y32.472 E0.01675
G1 X159.364 Y39.456 E0.30993
G1 X158.830 Y39.456 E0.01675
G1 X151.846 Y32.472 E0.30993
G1 X151.313 Y32.472 E0.01675
G1 X158.297 Y39.456 E0.30993
G1 X157.763 Y39.456 E0.01675
G1 X150.779 Y32.472 E0.30993
G1 X150.245 Y32.472 E0.01675
G1 X157.229 Y39.456 E0.30993
G1 X156.696 Y39.456 E0.01675
G1 X149.711 Y32.472 E0.30993
G1 X149.178 Y32.472 E0.01675
G1 X156.162 Y39.456 E0.30993
G1 X155.628 Y39.456 E0.01675
G1 X148.644 Y32.472 E0.30993
G1 X148.110 Y32.472 E0.01675
G1 X155.095 Y39.456 E0.30993
G1 X154.561 Y39.456 E0.01675
G1 X147.577 Y32.472 E0.30993
G1 X147.043 Y32.472 E0.01675
G1 X154.027 Y39.456 E0.30993
M73 Q2 S70
M73 P2 R70
G1 X153.494 Y39.456 E0.01675
G1 X146.509 Y32.472 E0.30993
G1 X145.976 Y32.472 E0.01675
G1 X152.960 Y39.456 E0.30993
G1 X152.426 Y39.456 E0.01675
G1 X145.442 Y32.472 E0.30993
G1 X144.908 Y32.472 E0.01675
G1 X151.892 Y39.456 E0.30993
G1 X151.359 Y39.456 E0.01675
G1 X144.375 Y32.472 E0.30993
G1 X143.841 Y32.472 E0.01675
G1 X150.825 Y39.456 E0.30993
G1 X150.291 Y39.456 E0.01675
G1 X143.307 Y32.472 E0.30993
G1 X142.774 Y32.472 E0.01675
G1 X149.758 Y39.456 E0.30993
G1 X149.224 Y39.456 E0.01675
G1 X142.240 Y32.472 E0.30993
G1 X141.706 Y32.472 E0.01675
G1 X148.690 Y39.456 E0.30993
G1 X148.157 Y39.456 E0.01675
G1 X141.173 Y32.472 E0.30993
G1 X140.639 Y32.472 E0.01675
G1 X147.623 Y39.456 E0.30993
G1 X147.089 Y39.456 E0.01675
G1 X140.105 Y32.472 E0.30993
G1 X139.572 Y32.472 E0.01675
G1 X146.556 Y39.456 E0.30993
G1 X146.022 Y39.456 E0.01675
G1 X139.038 Y32.472 E0.30993
G1 X138.504 Y32.472 E0.01675
G1 X145.488 Y39.456 E0.30993
G1 X144.955 Y39.456 E0.01675
G1 X137.970 Y32.472 E0.30993
G1 X137.437 Y32.472 E0.01675
G1 X144.421 Y39.456 E0.30993
G1 X143.887 Y39.456 E0.01675
G1 X136.903 Y32.472 E0.30993
G1 X136.369 Y32.472 E0.01675
G1 X143.354 Y39.456 E0.30993
G1 X142.820 Y39.456 E0.01675
G1 X135.836 Y32.472 E0.30993
G1 X135.302 Y32.472 E0.01675
G1 X142.286 Y39.456 E0.30993
G1 X141.753 Y39.456 E0.01675
G1 X134.768 Y32.472 E0.30993
G1 X134.235 Y32.472 E0.01675
G1 X141.219 Y39.456 E0.30993
G1 X140.685 Y39.456 E0.01675
G1 X133.701 Y32.472 E0.30993
G1 X133.167 Y32.472 E0.01675
G1 X140.151 Y39.456 E0.30993
G1 X139.618 Y39.456 E0.01675
G1 X132.634 Y32.472 E0.30993
G1 X132.100 Y32.472 E0.01675
G1 X139.084 Y39.456 E0.30993
G1 X138.550 Y39.456 E0.01675
G1 X131.566 Y32.472 E0.30993
G1 X131.033 Y32.472 E0.01675
G1 X138.017 Y39.456 E0.30993
G1 X137.483 Y39.456 E0.01675
G1 X130.499 Y32.472 E0.30993
G1 X129.965 Y32.472 E0.01675
G1 X136.949 Y39.456 E0.30993
G1 X136.416 Y39.456 E0.01675
G1 X129.432 Y32.472 E0.30993
G1 X128.898 Y32.472 E0.01675
G1 X135.882 Y39.456 E0.30993
G1 X135.348 Y39.456 E0.01675
G1 X128.364 Y32.472 E0.30993
G1 X127.831 Y32.472 E0.01675
G1 X134.815 Y39.456 E0.30993
G1 X134.281 Y39.456 E0.01675
G1 X127.297 Y32.472 E0.30993
G1 X126.763 Y32.472 E0.01675
G1 X133.747 Y39.456 E0.30993
G1 X133.214 Y39.456 E0.01675
G1 X126.229 Y32.472 E0.30993
G1 X125.696 Y32.472 E0.01675
G1 X132.680 Y39.456 E0.30993
G1 X132.146 Y39.456 E0.01675
G1 X125.162 Y32.472 E0.30993
G1 X124.628 Y32.472 E0.01675
G1 X131.613 Y39.456 E0.30993
G1 X131.079 Y39.456 E0.01675
G1 X124.095 Y32.472 E0.30993
G1 X123.561 Y32.472 E0.01675
G1 X130.545 Y39.456 E0.30993
G1 X130.012 Y39.456 E0.01675
G1 X123.027 Y32.472 E0.30993
G1 X122.494 Y32.472 E0.01675
G1 X129.478 Y39.456 E0.30993
G1 X128.944 Y39.456 E0.01675
G1 X121.960 Y32.472 E0.30993
G1 X121.426 Y32.472 E0.01675
G1 X128.411 Y39.456 E0.30993
G1 X127.877 Y39.456 E0.01675
G1 X120.893 Y32.472 E0.30993
G1 X120.359 Y32.472 E0.01675
G1 X127.343 Y39.456 E0.30993
G1 X126.809 Y39.456 E0.01675
G1 X119.825 Y32.472 E0.30993
G1 X119.292 Y32.472 E0.01675
G1 X126.276 Y39.456 E0.30993
G1 X125.742 Y39.456 E0.01675
G1 X118.758 Y32.472 E0.30993
G1 X118.224 Y32.472 E0.01675
G1 X125.208 Y39.456 E0.30993
G1 X124.675 Y39.456 E0.01675
G1 X117.691 Y32.472 E0.30993
G1 X117.157 Y32.472 E0.01675
G1 X124.141 Y39.456 E0.30993
G1 X123.607 Y39.456 E0.01675
G1 X116.623 Y32.472 E0.30993
G1 X116.090 Y32.472 E0.01675
G1 X123.074 Y39.456 E0.30993
G1 X122.540 Y39.456 E0.01675
G1 X115.556 Y32.472 E0.30993
G1 X115.022 Y32.472 E0.01675
G1 X122.006 Y39.456 E0.30993
G1 X121.473 Y39.456 E0.01675
G1 X114.488 Y32.472 E0.30993
G1 X113.955 Y32.472 E0.01675
G1 X120.939 Y39.456 E0.30993
G1 X120.405 Y39.456 E0.01675
G1 X113.421 Y32.472 E0.30993
G1 X112.887 Y32.472 E0.01675
G1 X119.872 Y39.456 E0.30993
G1 X119.338 Y39.456 E0.01675
G1 X112.354 Y32.472 E0.30993
G1 X111.820 Y32.472 E0.01675
G1 X118.804 Y39.456 E0.30993
G1 X118.271 Y39.456 E0.01675
G1 X111.286 Y32.472 E0.30993
G1 X110.753 Y32.472 E0.01675
G1 X117.737 Y39.456 E0.30993
G1 X117.203 Y39.456 E0.01675
G1 X110.373 Y32.626 E0.30308
G1 X110.181 Y32.967 E0.01229
G1 X116.670 Y39.456 E0.28794
G1 X116.136 Y39.456 E0.01675
G1 X109.988 Y33.309 E0.27280
G1 X109.796 Y33.650 E0.01229
G1 X115.602 Y39.456 E0.25766
G1 X115.068 Y39.456 E0.01675
G1 X109.603 Y33.991 E0.24252
G1 X109.411 Y34.332 E0.01229
G1 X114.535 Y39.456 E0.22738
G1 X114.325 Y39.456 E0.00658
G1 X114.208 Y39.663 E0.00746
G1 X109.218 Y34.673 E0.22143
G1 X109.026 Y35.015 E0.01229
G1 X114.016 Y40.004 E0.22143
G1 X113.823 Y40.346 E0.01229
G1 X108.833 Y35.356 E0.22143
G1 X108.641 Y35.697 E0.01229
G1 X113.631 Y40.687 E0.22143
G1 X113.438 Y41.028 E0.01229
G1 X108.448 Y36.038 E0.22143
G1 X108.256 Y36.379 E0.01229
G1 X113.246 Y41.369 E0.22143
G1 X113.053 Y41.710 E0.01229
G1 X108.063 Y36.720 E0.22143
G1 X107.871 Y37.062 E0.01229
G1 X112.861 Y42.051 E0.22143
G1 X112.668 Y42.393 E0.01229
G1 X107.678 Y37.403 E0.22143
G1 X107.486 Y37.744 E0.01229
G1 X112.476 Y42.734 E0.22143
G1 X112.283 Y43.075 E0.01229
G1 X107.293 Y38.085 E0.22143
G1 X107.101 Y38.426 E0.01229
G1 X112.091 Y43.416 E0.22143
G1 X111.898 Y43.757 E0.01229
G1 X106.908 Y38.767 E0.22143
G1 X106.716 Y39.109 E0.01229
G1 X111.706 Y44.098 E0.22143
G1 X111.513 Y44.440 E0.01229
G1 X106.523 Y39.450 E0.22143
G1 X106.331 Y39.791 E0.01229
G1 X111.321 Y44.781 E0.22143
G1 X111.128 Y45.122 E0.01229
G1 X106.138 Y40.132 E0.22143
G1 X105.946 Y40.473 E0.01229
G1 X110.936 Y45.463 E0.22143
G1 X110.743 Y45.804 E0.01229
G1 X105.753 Y40.815 E0.22143
G1 X105.561 Y41.156 E0.01229
G1 X110.551 Y46.146 E0.22143
G1 X110.358 Y46.487 E0.01229
G1 X105.368 Y41.497 E0.22143
G1 X105.176 Y41.838 E0.01229
G1 X110.166 Y46.828 E0.22143
G1 X109.973 Y47.169 E0.01229
G1 X104.983 Y42.179 E0.22143
G1 X104.791 Y42.520 E0.01229
G1 X109.781 Y47.510 E0.22143
G1 X109.588 Y47.851 E0.01229
G1 X104.598 Y42.862 E0.22143
G1 X104.406 Y43.203 E0.01229
G1 X109.396 Y48.193 E0.22143
G1 X109.203 Y48.534 E0.01229
G1 X104.213 Y43.544 E0.22143
G1 X104.021 Y43.885 E0.01229
G1 X109.011 Y48.875 E0.22143
G1 X108.818 Y49.216 E0.01229
G1 X103.828 Y44.226 E0.22143
G1 X103.636 Y44.567 E0.01229
G1 X108.626 Y49.557 E0.22143
G1 X108.433 Y49.898 E0.01229
G1 X103.443 Y44.909 E0.22143
G1 X103.251 Y45.250 E0.01229
G1 X108.241 Y50.240 E0.22143
G1 X108.048 Y50.581 E0.01229
G1 X103.058 Y45.591 E0.22143
G1 X102.866 Y45.932 E0.01229
G1 X107.856 Y50.922 E0.22143
G1 X107.663 Y51.263 E0.01229
G1 X102.673 Y46.273 E0.22143
G1 X102.481 Y46.614 E0.01229
G1 X107.471 Y51.604 E0.22143
G1 X107.278 Y51.945 E0.01229
G1 X102.288 Y46.956 E0.22143
G1 X102.096 Y47.297 E0.01229
G1 X107.085 Y52.287 E0.22143
G1 X106.893 Y52.628 E0.01229
G1 X101.903 Y47.638 E0.22143
G1 X101.711 Y47.979 E0.01229
G1 X106.700 Y52.969 E0.22143
G1 X106.508 Y53.310 E0.01229
G1 X101.518 Y48.320 E0.22143
G1 X101.326 Y48.662 E0.01229
G1 X106.315 Y53.651 E0.22143
G1 X106.123 Y53.993 E0.01229
G1 X101.133 Y49.003 E0.22143
G1 X100.941 Y49.344 E0.01229
G1 X105.930 Y54.334 E0.22143
G1 X105.738 Y54.675 E0.01229
G1 X100.748 Y49.685 E0.22143
G1 X100.556 Y50.026 E0.01229
G1 X105.545 Y55.016 E0.22143
G1 X105.353 Y55.357 E0.01229
G1 X100.363 Y50.367 E0.22143
G1 X100.171 Y50.709 E0.01229
G1 X105.160 Y55.698 E0.22143
G1 X104.968 Y56.040 E0.01229
G1 X99.978 Y51.050 E0.22143
G1 X99.786 Y51.391 E0.01229
G1 X104.775 Y56.381 E0.22143
G1 X104.583 Y56.722 E0.01229
G1 X99.593 Y51.732 E0.22143
G1 X99.401 Y52.073 E0.01229
G1 X104.390 Y57.063 E0.22143
G1 X104.198 Y57.404 E0.01229
G1 X99.208 Y52.414 E0.22143
G1 X99.016 Y52.756 E0.01229
G1 X104.005 Y57.745 E0.22143
G1 X103.813 Y58.087 E0.01229
G1 X98.823 Y53.097 E0.22143
G1 X98.631 Y53.438 E0.01229
G1 X103.620 Y58.428 E0.22143
M73 Q4 S69
M73 P4 R69
G1 X103.428 Y58.769 E0.01229
G1 X98.438 Y53.779 E0.22143
G1 X98.246 Y54.120 E0.01229
G1 X103.235 Y59.110 E0.22143
G1 X103.043 Y59.451 E0.01229
G1 X98.053 Y54.461 E0.22143
G1 X97.860 Y54.803 E0.01229
G1 X102.850 Y59.793 E0.22143
G1 X102.658 Y60.134 E0.01229
G1 X97.668 Y55.144 E0.22143
G1 X97.475 Y55.485 E0.01229
G1 X102.465 Y60.475 E0.22143
G1 X102.273 Y60.816 E0.01229
G1 X97.283 Y55.826 E0.22143
G1 X97.090 Y56.167 E0.01229
G1 X102.080 Y61.157 E0.22143
G1 X101.888 Y61.498 E0.01229
G1 X96.898 Y56.509 E0.22143
G1 X96.705 Y56.850 E0.01229
G1 X101.695 Y61.840 E0.22143
G1 X101.503 Y62.181 E0.01229
G1 X96.513 Y57.191 E0.22143
G1 X96.320 Y57.532 E0.01229
G1 X101.310 Y62.522 E0.22143
G1 X101.118 Y62.863 E0.01229
G1 X96.128 Y57.873 E0.22143
G1 X95.935 Y58.214 E0.01229
G1 X100.925 Y63.204 E0.22143
G1 X100.733 Y63.545 E0.01229
G1 X95.743 Y58.556 E0.22143
G1 X95.550 Y58.897 E0.01229
G1 X100.540 Y63.887 E0.22143
G1 X100.348 Y64.228 E0.01229
G1 X95.358 Y59.238 E0.22143
G1 X95.165 Y59.579 E0.01229
G1 X100.155 Y64.569 E0.22143
G1 X99.963 Y64.910 E0.01229
G1 X94.973 Y59.920 E0.22143
G1 X94.780 Y60.261 E0.01229
G1 X99.770 Y65.251 E0.22143
G1 X99.578 Y65.592 E0.01229
G1 X94.588 Y60.603 E0.22143
G1 X94.395 Y60.944 E0.01229
G1 X99.385 Y65.934 E0.22143
G1 X99.193 Y66.275 E0.01229
G1 X94.203 Y61.285 E0.22143
G1 X94.010 Y61.626 E0.01229
G1 X99.000 Y66.616 E0.22143
G1 X98.808 Y66.957 E0.01229
G1 X93.818 Y61.967 E0.22143
G1 X93.625 Y62.309 E0.01229
G1 X98.615 Y67.298 E0.22143
G1 X98.423 Y67.640 E0.01229
G1 X93.433 Y62.650 E0.22143
G1 X93.240 Y62.991 E0.01229
G1 X98.230 Y67.981 E0.22143
G1 X98.038 Y68.322 E0.01229
G1 X93.048 Y63.332 E0.22143
G1 X92.855 Y63.673 E0.01229
G1 X97.845 Y68.663 E0.22143
G1 X97.653 Y69.004 E0.01229
G1 X92.663 Y64.014 E0.22143
G1 X92.470 Y64.356 E0.01229
G1 X97.460 Y69.345 E0.22143
G1 X97.268 Y69.687 E0.01229
G1 X92.278 Y64.697 E0.22143
G1 X92.085 Y65.038 E0.01229
G1 X97.075 Y70.028 E0.22143
G1 X96.883 Y70.369 E0.01229
G1 X91.893 Y65.379 E0.22143
G1 X91.700 Y65.720 E0.01229
G1 X96.690 Y70.710 E0.22143
G1 X96.498 Y71.051 E0.01229
G1 X91.508 Y66.061 E0.22143
G1 X91.315 Y66.403 E0.01229
G1 X96.305 Y71.392 E0.22143
G1 X96.113 Y71.734 E0.01229
G1 X91.123 Y66.744 E0.22143
G1 X90.930 Y67.085 E0.01229
G1 X95.920 Y72.075 E0.22143
