; generated by Slic3r Prusa Edition 1.42.0-beta2+linux64 on 2019-06-18 at 12:10:01

; 

; external perimeters extrusion width = 0.45mm
; perimeters extrusion width = 0.45mm
; infill extrusion width = 0.45mm
; solid infill extrusion width = 0.45mm
; top infill extrusion width = 0.40mm
; support material extrusion width = 0.35mm
; first layer extrusion width = 0.42mm

M73 P0 R72
M73 Q0 S72
M201 X1000 Y1000 Z1000 E5000 ; sets maximum accelerations, mm/sec^2
M203 X200 Y200 Z12 E120 ; sets maximum feedrates, mm/sec
M204 P1250 R1250 T1250 ; sets acceleration (P, T) and retract acceleration (R), mm/sec^2
M205 X8.00 Y8.00 Z0.40 E1.50 ; sets the jerk limits, mm/sec
M205 S0 T0 ; sets the minimum extruding and travel feed rate, mm/sec
M107
M115 U3.6.0 ; tell printer latest fw version
M83  ; extruder relative mode
M104 S215 ; set extruder temp
M140 S60 ; set bed temp
M190 S60 ; wait for bed temp
M109 S215 ; wait for extruder temp
G28 W ; home all without mesh bed level
G80 ; mesh bed leveling
G1 Y-3.0 F1000.0 ; go outside print area
G92 E0.0
G1 X60.0 E9.0  F1000.0 ; intro line
M73 Q0 S72
M73 P0 R72
G1 X100.0 E12.5  F1000.0 ; intro line
G92 E0.0
M221 S95
M900 K30 ; Filament gcode
G21 ; set units to millimeters
G90 ; use absolute coordinates
M83 ; use relative distances for extrusion
;BEFORE_LAYER_CHANGE
G92 E0.0
;0.2


G1 E-0.80000 F2100.00000
G1 Z0.600 F10800.000
;AFTER_LAYER_CHANGE
;0.2
G1 X86.069 Y28.615
G1 Z0.200
G1 E0.80000 F2100.00000
M204 S1000
G1 F1200
G1 X140.439 Y28.573 E1.70472
G1 X141.003 Y28.646 E0.01783
G1 X141.525 Y28.861 E0.01771
G1 X141.975 Y29.203 E0.01771
G1 X142.323 Y29.648 E0.01771
G1 X165.410 Y70.563 E1.47299
G1 X165.664 Y71.305 E0.02462
G1 X165.688 Y181.638 E3.45940
G1 X165.542 Y182.388 E0.02394
G1 X165.148 Y183.041 E0.02394
G1 X164.550 Y183.522 E0.02405
G1 X163.826 Y183.766 E0.02394
G1 X159.949 Y183.789 E0.12158
G1 X159.252 Y183.658 E0.02225
G1 X158.493 Y183.188 E0.02799
G1 X156.892 Y181.551 E0.07178
G1 X156.585 Y181.126 E0.01646
G1 X84.552 Y40.543 E4.95280
G1 X84.336 Y39.871 E0.02213
G1 X84.337 Y30.426 E0.29614
G1 X84.538 Y29.791 E0.02089
G1 X84.918 Y29.248 E0.02078
G1 X85.444 Y28.844 E0.02078
G1 X86.013 Y28.636 E0.01901
G1 F8640
G1 X89.304 Y28.632 E-0.76000
G1 E-0.04000 F2100.00000
G1 Z0.800 F10800.000
G1 X87.841 Y32.189
G1 Z0.200
G1 E0.80000 F2100.00000
G1 F1200
G1 X139.705 Y32.189 E1.62614
G1 X162.159 Y71.984 E1.43267
G1 X162.159 Y180.260 E3.39492
G1 X160.565 Y180.260 E0.04998
G1 X159.841 Y179.520 E0.03245
G1 X159.841 Y166.753 E0.40030
G1 X155.565 Y166.753 E0.13409
G1 X154.841 Y166.013 E0.03245
G1 X154.841 Y74.000 E2.88501
G1 X135.510 Y39.739 E1.23343
G1 X88.565 Y39.739 E1.47193
G1 X87.841 Y38.999 E0.03245
G1 X87.841 Y32.249 E0.21163
G1 F8640
G1 X91.133 Y32.245 E-0.76000
G1 E-0.04000 F2100.00000
G1 Z0.800 F10800.000
G1 X159.464 Y167.130
G1 Z0.200
G1 E0.80000 F2100.00000
G1 F1200
G1 X155.406 Y167.130 E0.12724
G1 X154.464 Y166.166 E0.04224
G1 X154.464 Y74.099 E2.88672
G1 X135.290 Y40.116 E1.22342
G1 X88.406 Y40.116 E1.47000
G1 X87.464 Y39.152 E0.04224
G1 X87.464 Y31.812 E0.23015
G1 X139.925 Y31.812 E1.64486
G1 X162.536 Y71.885 E1.44268
M73 Q1 S71
G1 X162.536 Y180.637 E3.40985
M73 P1 R71
G1 X160.406 Y180.637 E0.06678
G1 X159.464 Y179.674 E0.04224
G1 X159.464 Y167.190 E0.39142
G1 X159.087 Y167.507 F10800.000
G1 F1200
G1 X155.247 Y167.507 E0.12040
G1 X154.087 Y166.320 E0.05204
G1 X154.087 Y74.198 E2.88844
G1 X135.069 Y40.493 E1.21341
G1 X88.247 Y40.493 E1.46808
G1 X87.087 Y39.306 E0.05204
G1 X87.087 Y31.435 E0.24679
G1 X140.145 Y31.435 E1.66359
G1 X162.913 Y71.786 E1.45269
G1 X162.913 Y181.014 E3.42478
G1 X160.247 Y181.014 E0.08358
G1 X159.087 Y179.827 E0.05204
G1 X159.087 Y167.567 E0.38441
G1 X158.710 Y167.884 F10800.000
G1 F1200
G1 X155.088 Y167.884 E0.11355
G1 X153.710 Y166.474 E0.06183
G1 X153.710 Y74.297 E2.89015
G1 X134.849 Y40.870 E1.20340
G1 X88.088 Y40.870 E1.46615
G1 X86.710 Y39.460 E0.06183
G1 X86.710 Y31.058 E0.26343
G1 X140.365 Y31.058 E1.68232
G1 X163.290 Y71.687 E1.46269
G1 X163.290 Y181.391 E3.43971
G1 X160.088 Y181.391 E0.10038
G1 X158.710 Y179.981 E0.06183
G1 X158.710 Y167.944 E0.37741
G1 X158.696 Y167.484 F10800.000
G1 F8640
G1 X155.419 Y167.890 E-0.76000
G1 E-0.04000 F2100.00000
G1 Z0.800 F10800.000
G1 X159.611 Y166.640
G1 Z0.200
G1 E0.80000 F2100.00000
G1 F1200
G1 X155.124 Y162.153 E0.19897
G1 X155.124 Y162.686 E0.01672
G1 X158.908 Y166.470 E0.16780
G1 X158.375 Y166.470 E0.01672
G1 X155.124 Y163.220 E0.14415
G1 X155.124 Y163.753 E0.01672
G1 X157.841 Y166.470 E0.12050
G1 X157.308 Y166.470 E0.01672
G1 X155.124 Y164.286 E0.09685
G1 X155.124 Y164.819 E0.01672
G1 X156.775 Y166.470 E0.07320
G1 X156.241 Y166.470 E0.01672
G1 X155.124 Y165.353 E0.04955
G1 X155.124 Y165.886 E0.01672
G1 X155.878 Y166.640 E0.03343
G1 F8640
G1 X155.124 Y165.886 E-0.24615
G1 X155.124 Y165.353 E-0.12314
G1 X156.241 Y166.470 E-0.36489
G1 X156.353 Y166.470 E-0.02581
G1 E-0.04000 F2100.00000
G1 Z0.800 F10800.000
G1 X159.954 Y178.716
G1 Z0.200
G1 E0.80000 F2100.00000
G1 F1200
G1 X161.216 Y179.977 E0.05594
G1 X161.749 Y179.977 E0.01672
G1 X160.124 Y178.352 E0.07206
G1 X160.124 Y177.819 E0.01672
G1 X161.876 Y179.571 E0.07769
G1 X161.876 Y179.038 E0.01672
G1 X160.124 Y177.286 E0.07769
G1 X160.124 Y176.752 E0.01672
G1 X161.876 Y178.504 E0.07769
G1 X161.876 Y177.971 E0.01672
G1 X160.124 Y176.219 E0.07769
G1 X160.124 Y175.686 E0.01672
G1 X161.876 Y177.438 E0.07769
G1 X161.876 Y176.904 E0.01672
G1 X160.124 Y175.153 E0.07769
G1 X160.124 Y174.619 E0.01672
G1 X161.876 Y176.371 E0.07769
G1 X161.876 Y175.838 E0.01672
G1 X160.124 Y174.086 E0.07769
G1 X160.124 Y173.553 E0.01672
G1 X161.876 Y175.305 E0.07769
G1 X161.876 Y174.771 E0.01672
G1 X160.124 Y173.019 E0.07769
G1 X160.124 Y172.486 E0.01672
G1 X161.876 Y174.238 E0.07769
G1 X161.876 Y173.705 E0.01672
G1 X160.124 Y171.953 E0.07769
G1 X160.124 Y171.419 E0.01672
G1 X161.876 Y173.171 E0.07769
G1 X161.876 Y172.638 E0.01672
G1 X160.124 Y170.886 E0.07769
G1 X160.124 Y170.353 E0.01672
G1 X161.876 Y172.105 E0.07769
G1 X161.876 Y171.571 E0.01672
G1 X160.124 Y169.819 E0.07769
G1 X160.124 Y169.286 E0.01672
G1 X161.876 Y171.038 E0.07769
G1 X161.876 Y170.505 E0.01672
G1 X160.124 Y168.753 E0.07769
G1 X160.124 Y168.219 E0.01672
G1 X161.876 Y169.971 E0.07769
G1 X161.876 Y169.438 E0.01672
G1 X160.124 Y167.686 E0.07769
G1 X160.124 Y167.153 E0.01672
G1 X161.876 Y168.905 E0.07769
G1 X161.876 Y168.372 E0.01672
G1 X155.124 Y161.620 E0.29941
G1 X155.124 Y161.086 E0.01672
G1 X161.876 Y167.838 E0.29941
G1 X161.876 Y167.305 E0.01672
G1 X155.124 Y160.553 E0.29941
G1 X155.124 Y160.020 E0.01672
G1 X161.876 Y166.772 E0.29941
G1 X161.876 Y166.238 E0.01672
G1 X155.124 Y159.486 E0.29941
G1 X155.124 Y158.953 E0.01672
G1 X161.876 Y165.705 E0.29941
G1 X161.876 Y165.172 E0.01672
G1 X155.124 Y158.420 E0.29941
G1 X155.124 Y157.886 E0.01672
G1 X161.876 Y164.638 E0.29941
G1 X161.876 Y164.105 E0.01672
G1 X155.124 Y157.353 E0.29941
G1 X155.124 Y156.820 E0.01672
G1 X161.876 Y163.572 E0.29941
G1 X161.876 Y163.038 E0.01672
G1 X155.124 Y156.286 E0.29941
M73 Q2 S70
G1 X155.124 Y155.753 E0.01672
G1 X161.876 Y162.505 E0.29941
G1 X161.876 Y161.972 E0.01672
G1 X155.124 Y155.220 E0.29941
G1 X155.124 Y154.687 E0.01672
G1 X161.876 Y161.438 E0.29941
G1 X161.876 Y160.905 E0.01672
G1 X155.124 Y154.153 E0.29941
G1 X155.124 Y153.620 E0.01672
G1 X161.876 Y160.372 E0.29941
G1 X161.876 Y159.839 E0.01672
G1 X155.124 Y153.087 E0.29941
G1 X155.124 Y152.553 E0.01672
G1 X161.876 Y159.305 E0.29941
G1 X161.876 Y158.772 E0.01672
G1 X155.124 Y152.020 E0.29941
G1 X155.124 Y151.487 E0.01672
G1 X161.876 Y158.239 E0.29941
G1 X161.876 Y157.705 E0.01672
G1 X155.124 Y150.953 E0.29941
M73 P3 R69
G1 X155.124 Y150.420 E0.01672
G1 X161.876 Y157.172 E0.29941
G1 X161.876 Y156.639 E0.01672
G1 X155.124 Y149.887 E0.29941
G1 X155.124 Y149.353 E0.01672
G1 X161.876 Y156.105 E0.29941
G1 X161.876 Y155.572 E0.01672
G1 X155.124 Y148.820 E0.29941
G1 X155.124 Y148.287 E0.01672
G1 X161.876 Y155.039 E0.29941
G1 X161.876 Y154.505 E0.01672
G1 X155.124 Y147.754 E0.29941
G1 X155.124 Y147.220 E0.01672
G1 X161.876 Y153.972 E0.29941
G1 X161.876 Y153.439 E0.01672
G1 X155.124 Y146.687 E0.29941
G1 X155.124 Y146.154 E0.01672
G1 X161.876 Y152.906 E0.29941
G1 X161.876 Y152.372 E0.01672
G1 X155.124 Y145.620 E0.29941
G1 X155.124 Y145.087 E0.01672
G1 X161.876 Y151.839 E0.29941
G1 X161.876 Y151.306 E0.01672
G1 X155.124 Y144.554 E0.29941
G1 X155.124 Y144.020 E0.01672
G1 X161.876 Y150.772 E0.29941
G1 X161.876 Y150.239 E0.01672
G1 X155.124 Y143.487 E0.29941
G1 X155.124 Y142.954 E0.01672
G1 X161.876 Y149.706 E0.29941
G1 X161.876 Y149.172 E0.01672
G1 X155.124 Y142.420 E0.29941
G1 X155.124 Y141.887 E0.01672
G1 X161.876 Y148.639 E0.29941
G1 X161.876 Y148.106 E0.01672
G1 X155.124 Y141.354 E0.29941
G1 X155.124 Y140.820 E0.01672
G1 X161.876 Y147.572 E0.29941
G1 X161.876 Y147.039 E0.01672
G1 X155.124 Y140.287 E0.29941
G1 X155.124 Y139.754 E0.01672
G1 X161.876 Y146.506 E0.29941
G1 X161.876 Y145.973 E0.01672
G1 X155.124 Y139.221 E0.29941
G1 X155.124 Y138.687 E0.01672
G1 X161.876 Y145.439 E0.29941
G1 X161.876 Y144.906 E0.01672
G1 X155.124 Y138.154 E0.29941
G1 X155.124 Y137.621 E0.01672
G1 X161.876 Y144.373 E0.29941
G1 X161.876 Y143.839 E0.01672
G1 X155.124 Y137.087 E0.29941
G1 X155.124 Y136.554 E0.01672
G1 X161.876 Y143.306 E0.29941
G1 X161.876 Y142.773 E0.01672
G1 X155.124 Y136.021 E0.29941
G1 X155.124 Y135.487 E0.01672
G1 X161.876 Y142.239 E0.29941
G1 X161.876 Y141.706 E0.01672
G1 X155.124 Y134.954 E0.29941
G1 X155.124 Y134.421 E0.01672
G1 X161.876 Y141.173 E0.29941
G1 X161.876 Y140.639 E0.01672
G1 X155.124 Y133.887 E0.29941
G1 X155.124 Y133.354 E0.01672
G1 X161.876 Y140.106 E0.29941
G1 X161.876 Y139.573 E0.01672
G1 X155.124 Y132.821 E0.29941
G1 X155.124 Y132.288 E0.01672
G1 X161.876 Y139.039 E0.29941
G1 X161.876 Y138.506 E0.01672
G1 X155.124 Y131.754 E0.29941
G1 X155.124 Y131.221 E0.01672
G1 X161.876 Y137.973 E0.29941
G1 X161.876 Y137.440 E0.01672
G1 X155.124 Y130.688 E0.29941
G1 X155.124 Y130.154 E0.01672
G1 X161.876 Y136.906 E0.29941
G1 X161.876 Y136.373 E0.01672
G1 X155.124 Y129.621 E0.29941
G1 X155.124 Y129.088 E0.01672
G1 X161.876 Y135.840 E0.29941
G1 X161.876 Y135.306 E0.01672
G1 X155.124 Y128.554 E0.29941
G1 X155.124 Y128.021 E0.01672
G1 X161.876 Y134.773 E0.29941
G1 X161.876 Y134.240 E0.01672
G1 X155.124 Y127.488 E0.29941
G1 X155.124 Y126.954 E0.01672
G1 X161.876 Y133.706 E0.29941
G1 X161.876 Y133.173 E0.01672
G1 X155.124 Y126.421 E0.29941
G1 X155.124 Y125.888 E0.01672
G1 X161.876 Y132.640 E0.29941
G1 X161.876 Y132.106 E0.01672
G1 X155.124 Y125.355 E0.29941
G1 X155.124 Y124.821 E0.01672
G1 X161.876 Y131.573 E0.29941
G1 X161.876 Y131.040 E0.01672
G1 X155.124 Y124.288 E0.29941
G1 X155.124 Y123.755 E0.01672
G1 X161.876 Y130.507 E0.29941
G1 X161.876 Y129.973 E0.01672
G1 X155.124 Y123.221 E0.29941
G1 X155.124 Y122.688 E0.01672
G1 X161.876 Y129.440 E0.29941
G1 X161.876 Y128.907 E0.01672
G1 X155.124 Y122.155 E0.29941
G1 X155.124 Y121.621 E0.01672
G1 X161.876 Y128.373 E0.29941
G1 X161.876 Y127.840 E0.01672
G1 X155.124 Y121.088 E0.29941
G1 X155.124 Y120.555 E0.01672
G1 X161.876 Y127.307 E0.29941
G1 X161.876 Y126.773 E0.01672
G1 X155.124 Y120.021 E0.29941
G1 X155.124 Y119.488 E0.01672
G1 X161.876 Y126.240 E0.29941
G1 X161.876 Y125.707 E0.01672
G1 X155.124 Y118.955 E0.29941
G1 X155.124 Y118.421 E0.01672
G1 X161.876 Y125.173 E0.29941
G1 X161.876 Y124.640 E0.01672
G1 X155.124 Y117.888 E0.29941
G1 X155.124 Y117.355 E0.01672
G1 X161.876 Y124.107 E0.29941
G1 X161.876 Y123.573 E0.01672
G1 X155.124 Y116.822 E0.29941
G1 X155.124 Y116.288 E0.01672
G1 X161.876 Y123.040 E0.29941
G1 X161.876 Y122.507 E0.01672
G1 X155.124 Y115.755 E0.29941
G1 X155.124 Y115.222 E0.01672
G1 X161.876 Y121.974 E0.29941
G1 X161.876 Y121.440 E0.01672
G1 X155.124 Y114.688 E0.29941
G1 X155.124 Y114.155 E0.01672
G1 X161.876 Y120.907 E0.29941
G1 X161.876 Y120.374 E0.01672
G1 X155.124 Y113.622 E0.29941
G1 X155.124 Y113.088 E0.01672
G1 X161.876 Y119.840 E0.29941
G1 X161.876 Y119.307 E0.01672
G1 X155.124 Y112.555 E0.29941
G1 X155.124 Y112.022 E0.01672
G1 X161.876 Y118.774 E0.29941
G1 X161.876 Y118.240 E0.01672
G1 X155.124 Y111.488 E0.29941
G1 X155.124 Y110.955 E0.01672
G1 X161.876 Y117.707 E0.29941
G1 X161.876 Y117.174 E0.01672
G1 X155.124 Y110.422 E0.29941
G1 X155.124 Y109.889 E0.01672
G1 X161.876 Y116.640 E0.29941
G1 X161.876 Y116.107 E0.01672
G1 X155.124 Y109.355 E0.29941
G1 X155.124 Y108.822 E0.01672
G1 X161.876 Y115.574 E0.29941
G1 X161.876 Y115.041 E0.01672
G1 X155.124 Y108.289 E0.29941
G1 X155.124 Y107.755 E0.01672
G1 X161.876 Y114.507 E0.29941
G1 X161.876 Y113.974 E0.01672
G1 X155.124 Y107.222 E0.29941
G1 X155.124 Y106.689 E0.01672
G1 X161.876 Y113.441 E0.29941
G1 X161.876 Y112.907 E0.01672
G1 X155.124 Y106.155 E0.29941
G1 X155.124 Y105.622 E0.01672
G1 X161.876 Y112.374 E0.29941
G1 X161.876 Y111.841 E0.01672
G1 X155.124 Y105.089 E0.29941
G1 X155.124 Y104.555 E0.01672
G1 X161.876 Y111.307 E0.29941
G1 X161.876 Y110.774 E0.01672
G1 X155.124 Y104.022 E0.29941
G1 X155.124 Y103.489 E0.01672
G1 X161.876 Y110.241 E0.29941
G1 X161.876 Y109.707 E0.01672
G1 X155.124 Y102.955 E0.29941
G1 X155.124 Y102.422 E0.01672
G1 X161.876 Y109.174 E0.29941
G1 X161.876 Y108.641 E0.01672
G1 X155.124 Y101.889 E0.29941
G1 X155.124 Y101.356 E0.01672
G1 X161.876 Y108.108 E0.29941
G1 X161.876 Y107.574 E0.01672
G1 X155.124 Y100.822 E0.29941
G1 X155.124 Y100.289 E0.01672
G1 X161.876 Y107.041 E0.29941
G1 X161.876 Y106.508 E0.01672
G1 X155.124 Y99.756 E0.29941
G1 X155.124 Y99.222 E0.01672
G1 X161.876 Y105.974 E0.29941
G1 X161.876 Y105.441 E0.01672
G1 X155.124 Y98.689 E0.29941
G1 X155.124 Y98.156 E0.01672
G1 X161.876 Y104.908 E0.29941
G1 X161.876 Y104.374 E0.01672
G1 X155.124 Y97.622 E0.29941
G1 X155.124 Y97.089 E0.01672
G1 X161.876 Y103.841 E0.29941
G1 X161.876 Y103.308 E0.01672
G1 X155.124 Y96.556 E0.29941
G1 X155.124 Y96.022 E0.01672
G1 X161.876 Y102.774 E0.29941
G1 X161.876 Y102.241 E0.01672
G1 X155.124 Y95.489 E0.29941
G1 X155.124 Y94.956 E0.01672
G1 X161.876 Y101.708 E0.29941
G1 X161.876 Y101.174 E0.01672
G1 X155.124 Y94.423 E0.29941
G1 X155.124 Y93.889 E0.01672
G1 X161.876 Y100.641 E0.29941
M73 Q4 S69
G1 X161.876 Y100.108 E0.01672
G1 X155.124 Y93.356 E0.29941
G1 X155.124 Y92.823 E0.01672
G1 X161.876 Y99.575 E0.29941
G1 X161.876 Y99.041 E0.01672
G1 X155.124 Y92.289 E0.29941
G1 X155.124 Y91.756 E0.01672
G1 X161.876 Y98.508 E0.29941
G1 X161.876 Y97.975 E0.01672
G1 X155.124 Y91.223 E0.29941
G1 X155.124 Y90.689 E0.01672
G1 X161.876 Y97.441 E0.29941
G1 X161.876 Y96.908 E0.01672
G1 X155.124 Y90.156 E0.29941
G1 X155.124 Y89.623 E0.01672
G1 X161.876 Y96.375 E0.29941
G1 X161.876 Y95.841 E0.01672
G1 X155.124 Y89.089 E0.29941
G1 X155.124 Y88.556 E0.01672
G1 X161.876 Y95.308 E0.29941
M73 P4 R68
G1 X161.876 Y94.775 E0.01672
G1 X155.124 Y88.023 E0.29941
G1 X155.124 Y87.490 E0.01672
G1 X161.876 Y94.241 E0.29941
G1 X161.876 Y93.708 E0.01672
G1 X155.124 Y86.956 E0.29941
G1 X155.124 Y86.423 E0.01672
G1 X161.876 Y93.175 E0.29941
G1 X161.876 Y92.642 E0.01672
G1 X155.124 Y85.890 E0.29941
G1 X155.124 Y85.356 E0.01672
G1 X161.876 Y92.108 E0.29941
G1 X161.876 Y91.575 E0.01672
G1 X155.124 Y84.823 E0.29941
G1 X155.124 Y84.290 E0.01672
G1 X161.876 Y91.042 E0.29941
G1 X161.876 Y90.508 E0.01672
G1 X155.124 Y83.756 E0.29941
G1 X155.124 Y83.223 E0.01672
G1 X161.876 Y89.975 E0.29941
G1 X161.876 Y89.442 E0.01672
G1 X155.124 Y82.690 E0.29941
G1 X155.124 Y82.156 E0.01672
G1 X161.876 Y88.908 E0.29941
G1 X161.876 Y88.375 E0.01672
G1 X155.124 Y81.623 E0.29941
G1 X155.124 Y81.090 E0.01672
G1 X161.876 Y87.842 E0.29941
G1 X161.876 Y87.308 E0.01672
G1 X155.124 Y80.556 E0.29941
G1 X155.124 Y80.023 E0.01672
G1 X161.876 Y86.775 E0.29941
G1 X161.876 Y86.242 E0.01672
G1 X155.124 Y79.490 E0.29941
G1 X155.124 Y78.957 E0.01672
G1 X161.876 Y85.708 E0.29941
G1 X161.876 Y85.175 E0.01672
G1 X155.124 Y78.423 E0.29941
G1 X155.124 Y77.890 E0.01672
G1 X161.876 Y84.642 E0.29941
G1 X161.876 Y84.109 E0.01672
G1 X155.124 Y77.357 E0.29941
G1 X155.124 Y76.823 E0.01672
G1 X161.876 Y83.575 E0.29941
G1 X161.876 Y83.042 E0.01672
G1 X155.124 Y76.290 E0.29941
G1 X155.124 Y75.757 E0.01672
G1 X161.876 Y82.509 E0.29941
