; generated by SuperSlicer 2.3.55 on 2021-06-22 at 17:34:17 UTC

; 

; external perimeters extrusion width = 0.45mm
; perimeters extrusion width = 0.45mm
; infill extrusion width = 0.45mm
; solid infill extrusion width = 0.45mm
; top infill extrusion width = 0.40mm
; support material extrusion width = 0.35mm
; first layer extrusion width = 0.42mm

; object:{"name":"motormount","id":"motormount.STL id:0 copy 0","object_center":[125.000000,105.000000,0.000000],"boundingbox_center":[125.000000,105.000000,13.250000],"boundingbox_size":[54.000000,35.500000,26.500000]}
; Total objects to print: 1
M486 T1
; plater:{"center":[125.000000,105.000000,0.000000],"boundingbox_center":[125.000000,105.000000,13.250000],"boundingbox_size":[54.000000,35.500000,26.500000]}

M73 P0 R75
M73 Q0 S78
;TYPE:Custom
M862.3 P "MK3S" ; printer model check
M862.1 P0.4 ; nozzle diameter check
M115 U3.9.2 ; tell printer latest fw version
G90 ; use absolute coordinates
M83 ; extruder relative mode
M104 S215 ; set extruder temp
M140 S60 ; set bed temp
M190 S60 ; wait for bed temp
M109 S215 ; wait for extruder temp
G28 W ; home all without mesh bed level
G80 ; mesh bed leveling
G1 Y-3.0 F1000.0 ; go outside print area
G92 E0.0
G1 X60.0 E9.0 F1000.0 ; intro line
G1 X100.0 E12.5 F1000.0 ; intro line
G92 E0.0
M221 S95

; Don't change E values below. Excessive value can damage the printer.

M107
G21 ; set units to millimeters
G90 ; use absolute coordinates
M83 ; use relative distances for extrusion
M900 K0.05 ; Filament gcode LA 1.5
M900 K30 ; Filament gcode LA 1.0
M107
;LAYER_CHANGE
;Z:0.2
;HEIGHT:0.2
;BEFORE_LAYER_CHANGE
;0.2


G1 E-0.80000 F2100.000
G1 Z0.400000 F10800.000
;AFTER_LAYER_CHANGE
;0.2
G1 X94.196 Y82.875
G1 Z0.200000
G1 E0.80000 F2100.000
;TYPE:Skirt
;WIDTH:0.42
G1 F1200.000
M204 P1000
G1 X95.244 Y81.773 E0.04768
G1 X96.223 Y81.073 E0.03775
G1 X97.312 Y80.544 E0.03796
G1 X98.474 Y80.204 E0.03796
G1 X99.677 Y80.065 E0.03796
G1 X150.107 Y80.061 E1.58119
G1 X151.424 Y80.184 E0.04148
G1 X152.696 Y80.547 E0.04148
G1 X153.881 Y81.136 E0.04148
G1 X154.937 Y81.932 E0.04148
G1 X155.830 Y82.909 E0.04148
G1 X156.528 Y84.032 E0.04148
G1 X157.007 Y85.258 E0.04127
G1 X157.255 Y86.558 E0.04148
G1 X157.276 Y123.180 E1.14828
G1 X157.046 Y124.603 E0.04520
G1 X156.533 Y125.958 E0.04541
G1 X155.760 Y127.182 E0.04541
G1 X154.756 Y128.227 E0.04541
G1 X153.777 Y128.927 E0.03775
G1 X152.688 Y129.456 E0.03796
G1 X151.526 Y129.796 E0.03796
G1 X150.323 Y129.935 E0.03796
G1 X99.801 Y129.938 E1.58410
G1 X98.284 Y129.755 E0.04788
G1 X96.841 Y129.255 E0.04788
G1 X95.536 Y128.462 E0.04788
G1 X94.423 Y127.406 E0.04809
G1 X93.730 Y126.438 E0.03734
G1 X93.208 Y125.375 E0.03713
G1 X92.866 Y124.234 E0.03734
G1 X92.718 Y123.053 E0.03734
M73 Q0 S77
G1 X92.713 Y87.118 E1.12672
G1 X92.901 Y85.609 E0.04768
G1 X93.403 Y84.173 E0.04768
G1 X94.164 Y82.927 E0.04580
;WIPE_START
G1 F8640.000
G1 X95.244 Y81.773 E-0.36467
G1 X96.223 Y81.073 E-0.27804
G1 X96.680 Y80.851 E-0.11729
;WIPE_END
G1 E-0.04000 F2100.000
G1 Z1.000000 F10800.000
G1 X94.432 Y88.430
G1 Z0.200000
G1 E0.80000 F2100.000
G1 F1200.000
G1 X94.476 Y86.538 E0.05933
G1 X94.700 Y85.602 E0.03017
G1 X94.946 Y85.000 E0.02039
G1 X95.445 Y84.158 E0.03069
G1 X96.335 Y83.193 E0.04118
G1 X96.924 Y82.714 E0.02379
G1 X97.346 Y82.450 E0.01562
G1 X98.576 Y81.951 E0.04161
G1 X99.711 Y81.783 E0.03598
G1 X101.086 Y81.783 E0.04310
;WIPE_START
G1 F8640.000
G1 X99.711 Y81.783 E-0.31741
G1 X98.576 Y81.951 E-0.26498
G1 X97.863 Y82.240 E-0.17760
;WIPE_END
G1 E-0.04000 F2100.000
G1 Z0.600000 F10800.000
G1 X102.179 Y82.160
G1 Z0.200000
G1 E0.80000 F2100.000
G1 F1200.000
G1 X99.734 Y82.160 E0.07665
G1 X98.675 Y82.314 E0.03355
G1 X97.543 Y82.772 E0.03831
G1 X96.609 Y83.453 E0.03621
G1 X95.749 Y84.381 E0.03969
G1 X95.289 Y85.157 E0.02829
G1 X95.056 Y85.727 E0.01930
G1 X94.847 Y86.607 E0.02835
G1 X94.809 Y87.131 E0.01647
G1 X94.809 Y89.528 E0.07516
;WIPE_START
G1 F8640.000
G1 X94.809 Y87.131 E-0.55351
G1 X94.847 Y86.607 E-0.12126
G1 X94.933 Y86.248 E-0.08523
;WIPE_END
G1 E-0.04000 F2100.000
G1 Z0.600000 F10800.000
G1 X94.809 Y94.472
G1 Z0.200000
G1 E0.80000 F2100.000
G1 F1200.000
G1 X94.809 Y96.878 E0.07545
G1 X94.916 Y97.774 E0.02828
G1 X95.054 Y98.266 E0.01602
G1 X95.284 Y98.833 E0.01919
G1 X95.785 Y99.667 E0.03051
G1 X96.715 Y100.645 E0.04230
G1 X97.061 Y100.923 E0.01393
G1 X97.868 Y101.389 E0.02921
G1 X98.412 Y101.606 E0.01837
G1 X99.257 Y101.803 E0.02719
G1 X102.159 Y101.848 E0.09101
G1 X102.537 Y101.692 E0.01280
G1 X102.537 Y101.463 E0.00717
G1 X99.769 Y101.463 E0.08676
G1 X99.398 Y101.440 E0.01166
G1 X98.603 Y101.271 E0.02550
G1 X97.816 Y100.946 E0.02670
G1 X97.352 Y100.665 E0.01702
G1 X97.021 Y100.412 E0.01305
G1 X96.131 Y99.498 E0.04001
G1 X95.640 Y98.705 E0.02925
G1 X95.414 Y98.154 E0.01868
G1 X95.214 Y97.291 E0.02777
G1 X95.187 Y93.735 E0.11149
G1 X95.564 Y93.244 E0.01942
G1 X95.592 Y97.269 E0.12622
G1 X95.784 Y98.069 E0.02578
G1 X96.000 Y98.583 E0.01748
G1 X96.179 Y98.909 E0.01167
G1 X96.664 Y99.536 E0.02485
G1 X97.275 Y100.133 E0.02679
G1 X97.701 Y100.445 E0.01654
G1 X98.072 Y100.652 E0.01333
G1 X98.830 Y100.946 E0.02549
G1 X99.542 Y101.075 E0.02268
G1 X102.914 Y101.086 E0.10573
G1 X102.914 Y101.465 E0.01185
G1 X103.291 Y101.175 E0.01490
G1 X103.291 Y100.709 E0.01461
G1 X99.620 Y100.703 E0.11509
G1 X98.965 Y100.592 E0.02083
G1 X97.965 Y100.166 E0.03407
G1 X97.381 Y99.719 E0.02307
G1 X96.793 Y99.117 E0.02640
G1 X96.350 Y98.440 E0.02534
G1 X96.142 Y97.949 E0.01675
G1 X95.966 Y97.221 E0.02347
G1 X95.941 Y92.761 E0.13983
G1 X96.318 Y92.472 E0.01490
G1 X96.340 Y97.180 E0.14761
G1 X96.500 Y97.829 E0.02097
G1 X96.704 Y98.305 E0.01624
G1 X97.156 Y98.959 E0.02493
G1 X97.937 Y99.694 E0.03362
G1 X98.337 Y99.942 E0.01477
G1 X99.190 Y100.259 E0.02851
G1 X99.718 Y100.331 E0.01671
G1 X103.668 Y100.332 E0.12386
G1 X103.668 Y100.886 E0.01736
;WIPE_START
G1 F8640.000
G1 X103.668 Y100.332 E-0.12782
G1 X100.930 Y100.331 E-0.63218
;WIPE_END
G1 E-0.04000 F2100.000
G1 Z0.600000 F10800.000
G1 X101.081 Y102.217
G1 Z0.200000
G1 E0.80000 F2100.000
G1 F1200.000
G1 X99.722 Y102.217 E0.04261
G1 X98.611 Y102.059 E0.03520
G1 X97.633 Y101.696 E0.03269
G1 X97.182 Y101.455 E0.01603
G1 X96.395 Y100.864 E0.03088
G1 X95.442 Y99.837 E0.04392
G1 X94.933 Y98.972 E0.03146
G1 X94.691 Y98.370 E0.02035
G1 X94.464 Y97.366 E0.03227
G1 X94.432 Y95.570 E0.05632
;WIPE_START
G1 F8640.000
G1 X94.464 Y97.366 E-0.41476
G1 X94.691 Y98.370 E-0.23761
G1 X94.865 Y98.802 E-0.10763
;WIPE_END
G1 E-0.04000 F2100.000
G1 Z0.600000 F10800.000
G1 X105.498 Y96.939
G1 Z0.200000
G1 E0.80000 F2100.000
G1 F1200.000
G1 X99.932 Y96.939 E0.17451
G1 X99.711 Y96.718 E0.00979
G1 X99.711 Y87.282 E0.29584
G1 X99.932 Y87.061 E0.00979
G1 X105.498 Y87.061 E0.17451
G1 X105.448 Y86.684 E0.01193
G1 X99.857 Y86.684 E0.17531
G1 X99.719 Y86.742 E0.00470
G1 X99.392 Y87.069 E0.01450
G1 X99.334 Y87.207 E0.00470
G1 X99.334 Y96.793 E0.30054
G1 X99.392 Y96.931 E0.00470
G1 X99.719 Y97.258 E0.01450
G1 X99.857 Y97.316 E0.00470
G1 X105.448 Y97.316 E0.17531
G1 X105.399 Y97.693 E0.01193
G1 X99.820 Y97.693 E0.17491
G1 X99.478 Y97.551 E0.01160
G1 X99.058 Y97.110 E0.01912
G1 X98.957 Y96.830 E0.00933
G1 X98.957 Y87.170 E0.30287
G1 X99.058 Y86.890 E0.00933
G1 X99.478 Y86.449 E0.01912
G1 X99.820 Y86.307 E0.01160
G1 X105.399 Y86.307 E0.17491
G1 X105.349 Y85.931 E0.01191
G1 X99.802 Y85.930 E0.17394
G1 X99.253 Y86.146 E0.01847
G1 X98.796 Y86.603 E0.02030
G1 X98.580 Y87.152 E0.01847
G1 X98.580 Y96.848 E0.30403
G1 X98.734 Y97.304 E0.01508
G1 X99.253 Y97.854 E0.02373
G1 X99.765 Y98.066 E0.01735
G1 X105.349 Y98.069 E0.17510
G1 X105.231 Y98.446 E0.01238
G1 X99.700 Y98.438 E0.17343
G1 X99.226 Y98.279 E0.01569
G1 X98.965 Y98.104 E0.00985
G1 X98.487 Y97.614 E0.02146
G1 X98.371 Y97.424 E0.00696
G1 X98.203 Y96.858 E0.01853
G1 X98.204 Y87.124 E0.30519
G1 X98.258 Y86.852 E0.00870
G1 X98.415 Y86.494 E0.01225
G1 X99.036 Y85.837 E0.02835
G1 X99.484 Y85.614 E0.01569
G1 X99.792 Y85.553 E0.00985
G1 X105.231 Y85.553 E0.17053
G1 X105.075 Y85.176 E0.01280
G1 X99.631 Y85.191 E0.17069
G1 X99.035 Y85.395 E0.01974
G1 X98.793 Y85.548 E0.00900
G1 X98.270 Y86.058 E0.02291
G1 X98.094 Y86.296 E0.00928
G1 X97.902 Y86.729 E0.01485
G1 X97.828 Y87.092 E0.01159
G1 X97.826 Y96.862 E0.30635
G1 X97.871 Y97.164 E0.00957
G1 X98.029 Y97.581 E0.01398
G1 X98.176 Y97.827 E0.00899
G1 X98.701 Y98.374 E0.02377
G1 X99.035 Y98.605 E0.01274
G1 X99.486 Y98.779 E0.01514
G1 X99.788 Y98.824 E0.00957
G1 X105.075 Y98.824 E0.16578
G1 X104.799 Y99.491 E0.02262
G1 X104.799 Y99.201 E0.00908
G1 X99.785 Y99.201 E0.15719
G1 X99.361 Y99.137 E0.01347
G1 X98.612 Y98.786 E0.02593
G1 X98.008 Y98.214 E0.02608
G1 X97.711 Y97.790 E0.01621
G1 X97.504 Y97.254 E0.01803
G1 X97.449 Y96.865 E0.01232
G1 X97.453 Y87.057 E0.30751
G1 X97.544 Y86.609 E0.01434
G1 X97.772 Y86.101 E0.01746
G1 X97.995 Y85.800 E0.01174
G1 X98.567 Y85.247 E0.02494
G1 X98.864 Y85.059 E0.01103
G1 X99.560 Y84.821 E0.02306
G1 X104.919 Y84.799 E0.16803
G1 X104.757 Y84.422 E0.01287
G1 X99.782 Y84.422 E0.15598
G1 X99.096 Y84.552 E0.02190
G1 X98.685 Y84.727 E0.01399
G1 X98.179 Y85.082 E0.01939
G1 X97.715 Y85.547 E0.02060
G1 X97.450 Y85.904 E0.01392
G1 X97.130 Y86.692 E0.02668
G1 X97.077 Y87.021 E0.01045
G1 X97.072 Y96.866 E0.30867
G1 X97.138 Y97.342 E0.01507
G1 X97.377 Y97.965 E0.02093
G1 X97.721 Y98.459 E0.01889
G1 X98.391 Y99.092 E0.02891
G1 X99.166 Y99.472 E0.02704
G1 X99.773 Y99.578 E0.01932
G1 X104.422 Y99.578 E0.14577
G1 X104.422 Y100.015 E0.01369
G1 X104.045 Y100.506 E0.01942
G1 X104.045 Y99.955 E0.01727
G1 X99.747 Y99.955 E0.13476
G1 X99.006 Y99.817 E0.02361
G1 X98.523 Y99.614 E0.01643
G1 X98.161 Y99.391 E0.01335
G1 X97.444 Y98.715 E0.03090
G1 X97.042 Y98.139 E0.02201
G1 X96.854 Y97.699 E0.01500
G1 X96.714 Y97.130 E0.01836
G1 X96.695 Y87.134 E0.31344
G1 X96.833 Y86.356 E0.02476
G1 X97.133 Y85.700 E0.02264
G1 X97.438 Y85.291 E0.01598
G1 X98.105 Y84.650 E0.02899
G1 X98.510 Y84.393 E0.01506
G1 X98.967 Y84.198 E0.01558
G1 X99.420 Y84.080 E0.01468
G1 X104.468 Y84.045 E0.15826
G1 X104.178 Y83.668 E0.01490
G1 X99.763 Y83.668 E0.13843
G1 X99.349 Y83.710 E0.01305
G1 X98.838 Y83.843 E0.01656
G1 X98.329 Y84.062 E0.01736
G1 X97.656 Y84.539 E0.02587
G1 X97.160 Y85.037 E0.02205
G1 X96.807 Y85.510 E0.01851
G1 X96.400 Y86.500 E0.03355
G1 X96.318 Y87.133 E0.02003
G1 X96.318 Y91.528 E0.13780
G1 X95.941 Y91.239 E0.01490
G1 X95.962 Y86.805 E0.13901
G1 X96.123 Y86.103 E0.02259
G1 X96.316 Y85.629 E0.01604
G1 X96.687 Y85.015 E0.02250
G1 X97.395 Y84.266 E0.03232
G1 X97.922 Y83.861 E0.02083
G1 X98.709 Y83.489 E0.02730
G1 X99.278 Y83.339 E0.01845
G1 X99.757 Y83.291 E0.01508
G1 X103.889 Y83.291 E0.12957
G1 X103.407 Y82.914 E0.01919
G1 X99.750 Y82.914 E0.11466
G1 X99.207 Y82.969 E0.01711
G1 X98.165 Y83.304 E0.03431
G1 X97.386 Y83.777 E0.02857
G1 X97.133 Y83.995 E0.01049
G1 X96.384 Y84.791 E0.03425
G1 X95.974 Y85.472 E0.02493
G1 X95.768 Y85.977 E0.01709
G1 X95.591 Y86.736 E0.02444
G1 X95.564 Y87.132 E0.01244
G1 X95.564 Y90.756 E0.11365
G1 X95.187 Y90.265 E0.01942
G1 X95.187 Y87.131 E0.09826
G1 X95.300 Y86.238 E0.02822
G1 X95.631 Y85.315 E0.03075
G1 X95.833 Y84.934 E0.01353
G1 X96.287 Y84.315 E0.02406
G1 X96.871 Y83.724 E0.02606
G1 X97.722 Y83.104 E0.03302
G1 X98.451 Y82.780 E0.02499
G1 X99.135 Y82.599 E0.02221
G1 X99.741 Y82.537 E0.01910
G1 X102.915 Y82.537 E0.09952
;WIPE_START
G1 F8640.000
G1 X99.741 Y82.537 E-0.73287
G1 X99.625 Y82.549 E-0.02713
;WIPE_END
G1 E-0.04000 F2100.000
G1 Z0.600000 F10800.000
G1 X101.081 Y107.783
G1 Z0.200000
G1 E0.80000 F2100.000
G1 F1200.000
G1 X99.176 Y107.828 E0.05974
G1 X98.297 Y108.035 E0.02831
G1 X97.363 Y108.441 E0.03194
G1 X96.888 Y108.738 E0.01756
G1 X95.864 Y109.664 E0.04327
G1 X95.381 Y110.248 E0.02377
G1 X95.104 Y110.688 E0.01630
G1 X94.687 Y111.642 E0.03265
G1 X94.499 Y112.395 E0.02433
G1 X94.433 Y113.072 E0.02133
G1 X94.434 Y114.441 E0.04293
;WIPE_START
G1 F8640.000
G1 X94.433 Y113.072 E-0.31618
G1 X94.499 Y112.395 E-0.15710
G1 X94.687 Y111.642 E-0.17916
G1 X94.873 Y111.215 E-0.10756
;WIPE_END
G1 E-0.04000 F2100.000
G1 Z0.600000 F10800.000
G1 X94.811 Y115.533
G1 Z0.200000
G1 E0.80000 F2100.000
G1 F1200.000
G1 X94.833 Y112.724 E0.08805
G1 X95.073 Y111.681 E0.03356
G1 X95.458 Y110.828 E0.02935
G1 X95.981 Y110.092 E0.02831
G1 X96.598 Y109.464 E0.02762
G1 X97.311 Y108.909 E0.02831
G1 X98.210 Y108.469 E0.03139
G1 X98.855 Y108.270 E0.02117
G1 X99.328 Y108.188 E0.01503
G1 X102.159 Y108.152 E0.08879
G1 X102.537 Y108.308 E0.01280
G1 X102.537 Y108.537 E0.00717
G1 X99.774 Y108.537 E0.08662
G1 X98.733 Y108.690 E0.03300
G1 X97.975 Y108.976 E0.02540
G1 X97.567 Y109.194 E0.01450
G1 X96.872 Y109.723 E0.02738
G1 X96.318 Y110.281 E0.02467
G1 X96.053 Y110.604 E0.01307
G1 X95.631 Y111.314 E0.02590
G1 X95.443 Y111.766 E0.01534
G1 X95.250 Y112.479 E0.02318
G1 X95.187 Y113.086 E0.01911
G1 X95.189 Y116.268 E0.09977
G1 X95.565 Y116.758 E0.01938
G1 X95.564 Y113.093 E0.11492
G1 X95.651 Y112.398 E0.02194
G1 X95.810 Y111.864 E0.01748
G1 X96.134 Y111.166 E0.02414
G1 X96.615 Y110.515 E0.02538
G1 X97.152 Y109.978 E0.02380
G1 X97.821 Y109.481 E0.02613
G1 X98.871 Y109.043 E0.03568
G1 X99.564 Y108.923 E0.02204
G1 X102.914 Y108.914 E0.10504
G1 X102.914 Y108.535 E0.01185
G1 X103.291 Y108.825 E0.01490
G1 X103.291 Y109.291 E0.01461
G1 X99.701 Y109.292 E0.11255
G1 X98.770 Y109.467 E0.02969
G1 X98.054 Y109.782 E0.02453
G1 X97.722 Y109.996 E0.01238
G1 X96.721 Y110.971 E0.04383
G1 X96.459 Y111.358 E0.01465
G1 X96.140 Y112.055 E0.02403
G1 X95.976 Y112.709 E0.02115
G1 X95.942 Y113.068 E0.01132
G1 X95.942 Y117.240 E0.13079
G1 X96.319 Y117.529 E0.01489
G1 X96.349 Y112.765 E0.14938
G1 X96.644 Y111.821 E0.03099
G1 X96.806 Y111.511 E0.01098
G1 X97.200 Y110.995 E0.02036
G1 X97.734 Y110.467 E0.02354
G1 X98.256 Y110.101 E0.02000
G1 X98.945 Y109.807 E0.02347
G1 X99.368 Y109.706 E0.01364
G1 X103.668 Y109.668 E0.13483
G1 X103.668 Y109.114 E0.01736
G1 X104.045 Y109.494 E0.01678
M73 P1 R75
G1 X104.045 Y110.045 E0.01727
G1 X99.765 Y110.045 E0.13418
G1 X99.166 Y110.135 E0.01901
G1 X98.519 Y110.388 E0.02177
G1 X98.011 Y110.726 E0.01913
G1 X97.374 Y111.364 E0.02827
G1 X97.146 Y111.679 E0.01219
G1 X96.785 Y112.517 E0.02861
G1 X96.696 Y113.096 E0.01836
G1 X96.695 Y122.886 E0.30697
M73 Q1 S77
G1 X96.848 Y123.683 E0.02545
G1 X97.043 Y124.140 E0.01558
G1 X97.300 Y124.545 E0.01506
G1 X97.945 Y125.216 E0.02917
G1 X98.640 Y125.668 E0.02598
G1 X99.130 Y125.855 E0.01646
G1 X99.770 Y125.955 E0.02030
G1 X104.468 Y125.955 E0.14729
G1 X104.178 Y126.332 E0.01490
G1 X99.408 Y126.300 E0.14957
G1 X98.496 Y126.017 E0.02995
G1 X97.721 Y125.521 E0.02884
G1 X97.006 Y124.781 E0.03229
G1 X96.712 Y124.321 E0.01712
G1 X96.495 Y123.817 E0.01718
G1 X96.319 Y122.914 E0.02885
G1 X96.319 Y118.471 E0.13931
G1 X95.942 Y118.760 E0.01489
G1 X95.942 Y122.927 E0.13064
G1 X95.991 Y123.381 E0.01431
G1 X96.142 Y123.949 E0.01842
G1 X96.380 Y124.499 E0.01880
G1 X96.917 Y125.255 E0.02910
G1 X97.469 Y125.802 E0.02437
G1 X98.064 Y126.224 E0.02286
G1 X98.630 Y126.481 E0.01949
G1 X99.358 Y126.674 E0.02362
G1 X103.889 Y126.709 E0.14207
G1 X103.407 Y127.086 E0.01919
G1 X99.744 Y127.086 E0.11485
G1 X99.292 Y127.046 E0.01421
G1 X98.488 Y126.830 E0.02612
G1 X97.883 Y126.555 E0.02082
G1 X97.226 Y126.091 E0.02521
G1 X96.427 Y125.264 E0.03606
G1 X96.085 Y124.748 E0.01941
G1 X95.794 Y124.095 E0.02242
G1 X95.652 Y123.608 E0.01592
G1 X95.566 Y122.976 E0.01997
G1 X95.565 Y119.241 E0.11711
G1 X95.190 Y119.730 E0.01932
G1 X95.192 Y123.041 E0.10381
G1 X95.285 Y123.697 E0.02076
G1 X95.446 Y124.242 E0.01783
G1 X95.760 Y124.939 E0.02396
G1 X96.383 Y125.788 E0.03301
G1 X97.313 Y126.639 E0.03953
G1 X97.718 Y126.894 E0.01502
G1 X98.728 Y127.309 E0.03424
G1 X99.737 Y127.463 E0.03200
G1 X102.916 Y127.463 E0.09966
G1 X102.179 Y127.840 F10800.000
G1 F1200.000
G1 X99.730 Y127.840 E0.07679
G1 X98.639 Y127.676 E0.03459
G1 X97.550 Y127.232 E0.03687
G1 X97.099 Y126.949 E0.01670
G1 X96.113 Y126.051 E0.04181
G1 X95.430 Y125.122 E0.03616
G1 X95.094 Y124.378 E0.02560
G1 X94.916 Y123.775 E0.01971
G1 X94.815 Y123.063 E0.02253
G1 X94.814 Y120.461 E0.08160
;WIPE_START
G1 F8640.000
G1 X94.815 Y123.063 E-0.60094
G1 X94.912 Y123.745 E-0.15906
;WIPE_END
