; generated by SuperSlicer 2.3.55 on 2021-06-22 at 12:09:16 UTC

; 

; external perimeters extrusion width = 0.45mm
; perimeters extrusion width = 0.45mm
; infill extrusion width = 0.45mm
; solid infill extrusion width = 0.45mm
; top infill extrusion width = 0.40mm
; first layer extrusion width = 0.42mm

; object:{"name":"positioningdisk","id":"positioningdisk.STL id:0 copy 0","object_center":[125.000000,105.000000,0.000000],"boundingbox_center":[125.000000,105.000000,7.500000],"boundingbox_size":[46.533222,49.588976,15.000000]}
; Total objects to print: 1
M486 T1
; plater:{"center":[125.000000,105.000000,0.000000],"boundingbox_center":[125.000000,105.000000,7.500000],"boundingbox_size":[46.533222,49.588976,15.000000]}

M73 P0 R35
M73 Q0 S35
;TYPE:Custom
M862.3 P "MK3S" ; printer model check
M862.1 P0.4 ; nozzle diameter check
M115 U3.9.2 ; tell printer latest fw version
G90 ; use absolute coordinates
M83 ; extruder relative mode
M104 S215 ; set extruder temp
M140 S60 ; set bed temp
M190 S60 ; wait for bed temp
M109 S215 ; wait for extruder temp
G28 W ; home all without mesh bed level
G80 ; mesh bed leveling
G1 Y-3.0 F1000.0 ; go outside print area
G92 E0.0
G1 X60.0 E9.0 F1000.0 ; intro line
G1 X100.0 E12.5 F1000.0 ; intro line
G92 E0.0
M221 S95

; Don't change E values below. Excessive value can damage the printer.

M107
G21 ; set units to millimeters
G90 ; use absolute coordinates
M83 ; use relative distances for extrusion
M900 K0.05 ; Filament gcode LA 1.5
M900 K30 ; Filament gcode LA 1.0
;LAYER_CHANGE
;Z:0.2
;HEIGHT:0.2
;BEFORE_LAYER_CHANGE
;0.2


G1 E-0.80000 F2100.000
G1 Z0.400000 F10800.000
;AFTER_LAYER_CHANGE
;0.2
G1 X100.846 Y82.533
G1 Z0.200000
G1 E0.80000 F2100.000
;TYPE:Skirt
;WIDTH:0.42
G1 F1200.000
G1 X102.356 Y81.091 E0.06546
G1 X103.296 Y80.387 E0.03685
G1 X104.424 Y79.698 E0.04141
G1 X107.716 Y78.199 E0.11342
G1 X111.126 Y76.982 E0.11353
G1 X114.543 Y76.057 E0.11100
G1 X118.128 Y75.374 E0.11441
G1 X122.308 Y74.924 E0.13183
G1 X126.034 Y74.822 E0.11687
G1 X128.880 Y74.930 E0.08930
G1 X130.969 Y75.116 E0.06575
G1 X133.756 Y75.504 E0.08823
G1 X137.304 Y76.244 E0.11364
G1 X140.027 Y77.009 E0.08870
G1 X142.618 Y77.909 E0.08600
G1 X144.489 Y78.671 E0.06334
G1 X147.027 Y79.903 E0.08846
G1 X148.361 Y80.792 E0.05028
G1 X149.488 Y81.749 E0.04634
G1 X150.503 Y82.827 E0.04642
G1 X151.448 Y84.095 E0.04958
G1 X152.342 Y85.674 E0.05691
G1 X152.998 Y87.326 E0.05572
G1 X153.336 Y88.558 E0.04006
G1 X153.601 Y90.258 E0.05393
G1 X153.644 Y91.971 E0.05373
G1 X153.372 Y94.827 E0.08995
G1 X153.071 Y96.796 E0.06245
G1 X152.279 Y100.461 E0.11759
G1 X151.508 Y103.111 E0.08653
G1 X150.865 Y104.971 E0.06172
G1 X149.859 Y107.477 E0.08464
G1 X148.683 Y109.987 E0.08692
G1 X147.437 Y112.311 E0.08268
G1 X136.981 Y130.432 E0.65595
G1 X135.967 Y131.565 E0.04768
G1 X134.738 Y132.460 E0.04768
G1 X133.348 Y133.076 E0.04768
G1 X131.859 Y133.385 E0.04768
G1 X130.966 Y133.419 E0.02802
G1 X130.082 Y133.342 E0.02781
G1 X129.208 Y133.155 E0.02802
G1 X128.364 Y132.861 E0.02802
G1 X119.798 Y129.042 E0.29408
G1 X118.278 Y128.197 E0.05454
G1 X116.503 Y126.940 E0.06819
G1 X113.695 Y124.668 E0.11324
G1 X98.571 Y111.623 E0.62626
G1 X97.763 Y110.677 E0.03900
G1 X97.127 Y109.600 E0.03920
G1 X96.690 Y108.436 E0.03900
G1 X96.459 Y107.207 E0.03920
G1 X96.437 Y106.063 E0.03589
G1 X97.497 Y90.253 E0.49681
G1 X97.695 Y88.864 E0.04399
G1 X98.237 Y86.909 E0.06363
G1 X98.855 Y85.462 E0.04933
G1 X99.656 Y84.079 E0.05008
G1 X100.810 Y82.581 E0.05931
;WIPE_START
G1 F8640.000
G1 X102.356 Y81.091 E-0.49576
G1 X103.272 Y80.405 E-0.26424
;WIPE_END
G1 E-0.04000 F2100.000
G1 Z1.000000 F10800.000
G1 X101.374 Y84.634
G1 Z0.200000
G1 E0.80000 F2100.000
G1 F1200.000
G1 X102.109 Y83.702 E0.03719
G1 X102.589 Y83.197 E0.02187
G1 X103.739 Y82.204 E0.04761
;WIPE_START
G1 F8640.000
G1 X102.589 Y83.197 E-0.35064
G1 X102.109 Y83.702 E-0.16105
G1 X101.443 Y84.547 E-0.24831
;WIPE_END
G1 E-0.04000 F2100.000
G1 Z0.600000 F10800.000
G1 X105.203 Y81.680
G1 Z0.200000
G1 E0.80000 F2100.000
G1 F1200.000
G1 X104.489 Y82.113 E0.02617
G1 X103.659 Y82.735 E0.03253
G1 X102.850 Y83.469 E0.03423
G1 X101.900 Y84.544 E0.04500
G1 X101.331 Y85.349 E0.03090
G1 X100.877 Y86.130 E0.02833
;WIPE_START
G1 F8640.000
G1 X101.331 Y85.349 E-0.20862
G1 X101.900 Y84.544 E-0.22759
G1 X102.828 Y83.493 E-0.32379
;WIPE_END
G1 E-0.04000 F2100.000
G1 Z0.600000 F10800.000
G1 X100.758 Y87.262
G1 Z0.200000
G1 E0.80000 F2100.000
G1 F1200.000
G1 X101.157 Y86.399 E0.02982
G1 X101.648 Y85.553 E0.03065
G1 X102.200 Y84.772 E0.03001
G1 X103.111 Y83.741 E0.04315
G1 X103.893 Y83.030 E0.03313
G1 X104.699 Y82.426 E0.03157
G1 X105.647 Y81.851 E0.03476
G1 X106.304 Y81.535 E0.02285
G1 X107.013 Y81.612 E0.02238
G1 X105.824 Y82.184 E0.04136
G1 X104.888 Y82.753 E0.03436
G1 X104.128 Y83.325 E0.02982
G1 X103.352 Y84.033 E0.03294
G1 X102.501 Y85.000 E0.04039
G1 X101.964 Y85.758 E0.02912
G1 X101.219 Y87.132 E0.04900
G1 X100.863 Y88.060 E0.03118
G1 X101.020 Y88.811 F10800.000
G1 F1200.000
G1 X101.313 Y87.895 E0.03015
G1 X101.805 Y86.786 E0.03804
G1 X102.281 Y85.964 E0.02979
G1 X102.801 Y85.228 E0.02826
G1 X103.634 Y84.285 E0.03943
G1 X104.381 Y83.606 E0.03167
G1 X105.135 Y83.042 E0.02950
G1 X106.090 Y82.472 E0.03488
G1 X107.722 Y81.706 E0.05654
G1 X108.243 Y81.893 E0.01737
G1 X106.272 Y82.803 E0.06807
G1 X105.343 Y83.357 E0.03392
G1 X104.615 Y83.902 E0.02851
G1 X103.878 Y84.573 E0.03126
G1 X103.102 Y85.456 E0.03685
G1 X102.597 Y86.168 E0.02737
G1 X102.138 Y86.964 E0.02883
G1 X101.668 Y88.022 E0.03628
G1 X101.264 Y89.401 E0.04505
G1 X101.540 Y90.018 E0.02121
G1 X101.759 Y88.959 E0.03392
G1 X102.023 Y88.150 E0.02669
G1 X102.470 Y87.143 E0.03454
G1 X102.914 Y86.373 E0.02787
G1 X103.402 Y85.684 E0.02647
G1 X104.141 Y84.844 E0.03507
G1 X104.847 Y84.199 E0.02997
G1 X105.540 Y83.678 E0.02718
G1 X106.437 Y83.142 E0.03279
G1 X108.730 Y82.095 E0.07904
G1 X109.206 Y82.302 E0.01626
G1 X106.604 Y83.480 E0.08956
G1 X105.750 Y83.992 E0.03122
G1 X105.079 Y84.496 E0.02629
G1 X104.403 Y85.114 E0.02872
M73 Q1 S35
G1 X103.698 Y85.918 E0.03352
G1 X103.225 Y86.586 E0.02568
G1 X102.802 Y87.321 E0.02659
G1 X102.378 Y88.277 E0.03278
M73 P1 R35
G1 X102.122 Y89.061 E0.02586
G1 X101.865 Y90.441 E0.04402
G1 X102.212 Y90.895 E0.01792
G1 X102.369 Y89.643 E0.03955
G1 X102.755 Y88.345 E0.04245
G1 X103.080 Y87.607 E0.02529
G1 X103.592 Y86.716 E0.03221
G1 X104.036 Y86.096 E0.02391
G1 X104.566 Y85.486 E0.02535
G1 X105.250 Y84.843 E0.02942
G1 X105.967 Y84.300 E0.02822
G1 X106.705 Y83.851 E0.02709
G1 X108.011 Y83.223 E0.04541
G1 X109.552 Y82.568 E0.05251
G1 X109.903 Y82.837 E0.01389
G1 X108.170 Y83.565 E0.05894
G1 X106.882 Y84.184 E0.04482
G1 X106.175 Y84.615 E0.02594
G1 X105.493 Y85.131 E0.02682
G1 X104.844 Y85.742 E0.02795
G1 X104.332 Y86.330 E0.02445
G1 X103.901 Y86.933 E0.02323
G1 X103.420 Y87.769 E0.03023
G1 X103.105 Y88.484 E0.02449
G1 X102.862 Y89.218 E0.02425
G1 X102.621 Y90.408 E0.03806
G1 X102.564 Y91.259 E0.02676
G1 X102.922 Y91.534 E0.01418
G1 X102.994 Y90.467 E0.03354
G1 X103.107 Y89.795 E0.02135
G1 X103.457 Y88.619 E0.03849
G1 X103.761 Y87.931 E0.02358
G1 X104.209 Y87.149 E0.02825
G1 X104.629 Y86.563 E0.02260
G1 X105.121 Y85.997 E0.02351
G1 X105.737 Y85.419 E0.02648
G1 X106.397 Y84.920 E0.02597
G1 X107.059 Y84.517 E0.02428
G1 X108.330 Y83.907 E0.04422
G1 X110.255 Y83.107 E0.06535
G1 X110.522 Y83.409 E0.01264
G1 X108.492 Y84.247 E0.06888
G1 X107.233 Y84.851 E0.04377
G1 X106.603 Y85.236 E0.02316
G1 X105.980 Y85.707 E0.02449
G1 X105.398 Y86.253 E0.02500
G1 X104.518 Y87.366 E0.04451
G1 X104.101 Y88.093 E0.02626
G1 X103.810 Y88.753 E0.02264
G1 X103.477 Y89.869 E0.03650
G1 X103.365 Y90.532 E0.02110
G1 X103.280 Y91.809 E0.04010
G1 X103.639 Y92.055 E0.01366
G1 X103.738 Y90.589 E0.04605
G1 X103.945 Y89.545 E0.03337
G1 X104.162 Y88.888 E0.02168
G1 X104.442 Y88.255 E0.02172
G1 X104.826 Y87.584 E0.02425
G1 X105.675 Y86.509 E0.04296
G1 X106.223 Y85.996 E0.02351
G1 X106.808 Y85.553 E0.02301
G1 X107.409 Y85.185 E0.02209
G1 X108.649 Y84.590 E0.04313
G1 X110.762 Y83.721 E0.07164
G1 X111.001 Y84.033 E0.01234
G1 X108.817 Y84.928 E0.07403
G1 X107.583 Y85.520 E0.04290
G1 X106.465 Y86.285 E0.04249
G1 X105.516 Y87.265 E0.04275
G1 X104.782 Y88.418 E0.04286
G1 X104.513 Y89.024 E0.02079
G1 X104.216 Y90.018 E0.03250
G1 X104.111 Y90.645 E0.01994
G1 X104.006 Y92.207 E0.04908
G1 X104.372 Y92.358 E0.01244
G1 X104.483 Y90.703 E0.05203
G1 X104.667 Y89.762 E0.03006
G1 X105.121 Y88.582 E0.03961
G1 X105.813 Y87.497 E0.04035
G1 X106.705 Y86.576 E0.04020
G1 X107.759 Y85.853 E0.04009
G1 X108.970 Y85.273 E0.04211
G1 X111.239 Y84.346 E0.07683
;WIPE_START
G1 F8640.000
G1 X108.970 Y85.273 E-0.56583
G1 X108.212 Y85.636 E-0.19417
;WIPE_END
G1 E-0.04000 F2100.000
G1 Z0.600000 F10800.000
G1 X122.033 Y81.970
G1 Z0.200000
G1 E0.80000 F2100.000
G1 F1200.000
G1 X124.415 Y81.834 E0.07483
G1 X127.650 Y81.870 E0.10142
G1 X130.095 Y82.061 E0.07689
G1 X133.206 Y82.523 E0.09862
G1 X133.255 Y82.148 E0.01184
G1 X130.137 Y81.686 E0.09884
G1 X128.487 Y81.542 E0.05192
G1 X126.030 Y81.445 E0.07711
G1 X124.407 Y81.457 E0.05087
G1 X122.083 Y81.588 E0.07299
G1 X122.133 Y81.205 E0.01210
G1 X124.398 Y81.080 E0.07112
G1 X126.031 Y81.067 E0.05121
G1 X128.510 Y81.165 E0.07778
G1 X130.178 Y81.311 E0.05250
G1 X133.228 Y81.759 E0.09665
G1 X133.176 Y81.366 E0.01244
G1 X130.219 Y80.937 E0.09369
G1 X128.532 Y80.789 E0.05307
G1 X126.032 Y80.690 E0.07845
G1 X124.389 Y80.703 E0.05154
G1 X122.184 Y80.823 E0.06924
G1 X122.282 Y80.436 E0.01250
G1 X124.379 Y80.326 E0.06586
G1 X126.033 Y80.313 E0.05185
G1 X128.555 Y80.412 E0.07914
G1 X130.259 Y80.562 E0.05364
G1 X133.124 Y80.973 E0.09074
G1 X133.065 Y80.579 E0.01251
G1 X130.300 Y80.187 E0.08756
G1 X128.578 Y80.036 E0.05421
G1 X126.034 Y79.936 E0.07980
G1 X124.370 Y79.949 E0.05220
G1 X122.444 Y80.045 E0.06045
G1 X122.606 Y79.653 E0.01329
G1 X126.036 Y79.559 E0.10757
G1 X128.600 Y79.660 E0.08047
G1 X130.341 Y79.812 E0.05478
G1 X132.893 Y80.163 E0.08077
G1 X132.723 Y79.754 E0.01387
G1 X130.381 Y79.437 E0.07411
G1 X128.623 Y79.283 E0.05535
G1 X126.037 Y79.182 E0.08113
G1 X122.767 Y79.266 E0.10257
G1 X123.060 Y78.875 E0.01531
G1 X126.038 Y78.805 E0.09342
G1 X128.645 Y78.907 E0.08180
G1 X130.422 Y79.062 E0.05591
G1 X132.554 Y79.346 E0.06746
G1 X132.261 Y78.918 E0.01625
G1 X130.462 Y78.687 E0.05687
G1 X128.668 Y78.530 E0.05647
G1 X126.040 Y78.428 E0.08246
G1 X123.360 Y78.484 E0.08405
G1 X123.660 Y78.094 E0.01545
G1 X126.041 Y78.051 E0.07468
G1 X128.690 Y78.154 E0.08313
G1 X131.936 Y78.494 E0.10232
G1 X131.606 Y78.072 E0.01678
G1 X130.543 Y77.937 E0.03362
G1 X127.807 Y77.725 E0.08604
G1 X126.042 Y77.674 E0.05535
G1 X124.176 Y77.693 E0.05854
G1 X124.679 Y77.307 E0.01988
G1 X127.821 Y77.349 E0.09853
G1 X131.012 Y77.616 E0.10042
G1 X130.411 Y77.171 E0.02348
G1 X127.834 Y76.972 E0.08102
G1 X125.472 Y76.924 E0.07407
;WIPE_START
G1 F8640.000
G1 X127.834 Y76.972 E-0.54545
G1 X128.761 Y77.043 E-0.21455
;WIPE_END
G1 E-0.04000 F2100.000
G1 Z0.600000 F10800.000
G1 X126.691 Y76.561
G1 Z0.200000
G1 E0.80000 F2100.000
G1 F1200.000
G1 X129.250 Y76.690 E0.08033
;WIPE_START
G1 F8640.000
G1 X126.691 Y76.561 E-0.59156
;WIPE_END
G1 E-0.20844 F2100.000
G1 Z0.600000 F10800.000
G1 X142.072 Y80.357
G1 Z0.200000
G1 E0.80000 F2100.000
G1 F1200.000
G1 X145.093 Y81.669 E0.10327
G1 X145.845 Y82.078 E0.02683
G1 X146.937 Y82.819 E0.04136
G1 X148.186 Y83.950 E0.05285
G1 X148.429 Y84.812 F10800.000
G1 F1200.000
G1 X147.367 Y83.676 E0.04878
G1 X146.707 Y83.117 E0.02711
G1 X145.640 Y82.395 E0.04039
G1 X144.895 Y81.992 E0.02658
G1 X143.197 Y81.220 E0.05846
G1 X141.362 Y80.486 E0.06198
G1 X140.849 Y80.699 E0.01741
G1 X143.052 Y81.568 E0.07427
G1 X144.725 Y82.328 E0.05761
G1 X145.739 Y82.900 E0.03650
G1 X146.477 Y83.416 E0.02823
G1 X147.121 Y83.962 E0.02648
G1 X147.954 Y84.814 E0.03735
G1 X148.526 Y85.551 E0.02925
G1 X149.200 Y86.617 E0.03954
G1 X149.694 Y87.672 E0.03651
G1 X149.975 Y88.465 E0.02637
G1 X150.129 Y89.018 E0.01800
G1 X150.401 Y90.764 E0.05543
G1 X150.423 Y91.691 E0.02907
G1 X150.273 Y93.544 E0.05828
G1 X150.047 Y95.230 E0.05334
G1 X149.616 Y95.561 E0.01704
G1 X149.898 Y93.506 E0.06504
G1 X150.046 Y91.683 E0.05734
G1 X149.972 Y90.236 E0.04544
G1 X149.764 Y89.112 E0.03582
G1 X149.342 Y87.807 E0.04303
G1 X148.868 Y86.797 E0.03497
G1 X148.290 Y85.860 E0.03451
G1 X147.767 Y85.177 E0.02699
G1 X146.953 Y84.316 E0.03714
G1 X146.120 Y83.620 E0.03404
G1 X145.421 Y83.143 E0.02653
G1 X144.519 Y82.647 E0.03228
G1 X142.907 Y81.916 E0.05548
G1 X140.501 Y80.973 E0.08103
G1 X140.328 Y80.914 E0.00572
G1 X139.906 Y81.170 E0.01549
G1 X142.762 Y82.264 E0.09591
G1 X144.346 Y82.982 E0.05453
G1 X145.222 Y83.463 E0.03131
G1 X146.117 Y84.095 E0.03437
G1 X147.102 Y84.996 E0.04186
G1 X147.976 Y86.070 E0.04340
G1 X148.537 Y86.977 E0.03343
G1 X148.986 Y87.933 E0.03314
G1 X149.258 Y88.699 E0.02548
G1 X149.399 Y89.207 E0.01654
G1 X149.648 Y90.804 E0.05067
G1 X149.669 Y91.675 E0.02732
G1 X149.523 Y93.468 E0.05640
G1 X149.189 Y95.864 E0.07586
G1 X148.775 Y96.035 E0.01405
G1 X149.148 Y93.430 E0.08253
G1 X149.292 Y91.666 E0.05547
G1 X149.223 Y90.324 E0.04216
G1 X149.029 Y89.285 E0.03312
G1 X148.635 Y88.070 E0.04005
G1 X148.205 Y87.156 E0.03166
G1 X147.671 Y86.291 E0.03189
G1 X146.828 Y85.255 E0.04186
G1 X145.874 Y84.383 E0.04055
G1 X145.021 Y83.782 E0.03271
G1 X144.165 Y83.313 E0.03060
G1 X141.113 Y82.002 E0.10416
G1 X139.545 Y81.447 E0.05215
G1 X139.185 Y81.723 E0.01425
G1 X140.976 Y82.354 E0.05956
G1 X142.472 Y82.960 E0.05059
G1 X143.981 Y83.644 E0.05195
G1 X144.822 Y84.102 E0.03001
G1 X145.629 Y84.670 E0.03096
G1 X146.555 Y85.515 E0.03929
G1 X147.365 Y86.512 E0.04028
G1 X147.874 Y87.336 E0.03037
G1 X148.284 Y88.207 E0.03018
G1 X148.665 Y89.382 E0.03874
G1 X148.847 Y90.352 E0.03094
G1 X148.915 Y91.658 E0.04100
G1 X148.672 Y94.235 E0.08117
G1 X148.358 Y96.208 E0.06265
G1 X147.940 Y96.381 E0.01418
G1 X148.398 Y93.353 E0.09603
G1 X148.538 Y91.649 E0.05359
G1 X148.518 Y90.862 E0.02468
G1 X148.472 Y90.399 E0.01461
G1 X148.182 Y89.050 E0.04325
G1 X147.740 Y87.905 E0.03848
G1 X147.059 Y86.733 E0.04252
G1 X146.281 Y85.774 E0.03873
M73 P1 R34
G1 X145.386 Y84.958 E0.03797
G1 X144.617 Y84.419 E0.02945
G1 X143.820 Y83.985 E0.02843
G1 X140.840 Y82.705 E0.10170
G1 X138.871 Y82.016 E0.06540
G1 X138.629 Y82.332 E0.01250
G1 X140.703 Y83.057 E0.06891
G1 X142.173 Y83.653 E0.04972
G1 X143.653 Y84.323 E0.05095
G1 X144.419 Y84.740 E0.02733
G1 X145.142 Y85.246 E0.02767
G1 X146.006 Y86.032 E0.03663
G1 X146.743 Y86.939 E0.03664
G1 X147.209 Y87.693 E0.02779
G1 X147.580 Y88.479 E0.02725
G1 X147.936 Y89.575 E0.03612
G1 X148.098 Y90.445 E0.02776
G1 X148.161 Y91.642 E0.03758
G1 X147.924 Y94.134 E0.07849
G1 X147.544 Y96.444 E0.07341
M73 Q2 S35
G1 X147.150 Y96.496 E0.01246
M73 P2 R34
G1 X147.646 Y93.284 E0.10192
G1 X147.784 Y91.632 E0.05198
G1 X147.765 Y90.900 E0.02294
G1 X147.478 Y89.325 E0.05020
G1 X147.067 Y88.247 E0.03616
G1 X146.493 Y87.240 E0.03636
G1 X145.975 Y86.561 E0.02678
G1 X145.402 Y85.964 E0.02594
G1 X144.836 Y85.485 E0.02325
G1 X144.230 Y85.067 E0.02308
G1 X143.516 Y84.675 E0.02555
G1 X140.544 Y83.400 E0.10138
G1 X138.386 Y82.648 E0.07166
G1 X138.143 Y82.965 E0.01252
G1 X140.413 Y83.753 E0.07534
G1 X141.911 Y84.361 E0.05070
G1 X143.351 Y85.014 E0.04959
G1 X144.026 Y85.383 E0.02410
G1 X144.608 Y85.784 E0.02216
G1 X145.156 Y86.250 E0.02256
G1 X145.691 Y86.810 E0.02428
G1 X146.178 Y87.448 E0.02518
G1 X146.547 Y88.053 E0.02221
G1 X146.858 Y88.705 E0.02266
G1 X147.218 Y89.815 E0.03657
G1 X147.350 Y90.536 E0.02297
G1 X147.407 Y91.622 E0.03411
G1 X147.177 Y94.032 E0.07592
G1 X146.756 Y96.548 E0.07998
G1 X146.366 Y96.578 E0.01226
G1 X146.572 Y95.517 E0.03388
G1 X146.897 Y93.199 E0.07338
G1 X147.029 Y91.645 E0.04891
G1 X147.012 Y90.940 E0.02213
G1 X146.748 Y89.516 E0.04540
G1 X146.513 Y88.857 E0.02193
G1 X146.215 Y88.233 E0.02169
G1 X145.858 Y87.647 E0.02150
G1 X145.407 Y87.057 E0.02327
G1 X144.909 Y86.536 E0.02262
G1 X143.822 Y85.701 E0.04298
G1 X143.188 Y85.354 E0.02266
G1 X140.281 Y84.106 E0.09917
G1 X138.050 Y83.330 E0.07408
G1 X137.970 Y83.307 E0.00260
G1 X137.825 Y83.657 E0.01188
G1 X140.154 Y84.462 E0.07726
G1 X143.023 Y85.693 E0.09788
