; generated by Slic3r Prusa Edition 1.42.0-beta2+linux64 on 2019-06-18 at 12:10:34

; 

; external perimeters extrusion width = 0.45mm
; perimeters extrusion width = 0.45mm
; infill extrusion width = 0.45mm
; solid infill extrusion width = 0.45mm
; top infill extrusion width = 0.40mm
; support material extrusion width = 0.35mm
; first layer extrusion width = 0.42mm

M73 P0 R45
M73 Q0 S45
M201 X1000 Y1000 Z1000 E5000 ; sets maximum accelerations, mm/sec^2
M203 X200 Y200 Z12 E120 ; sets maximum feedrates, mm/sec
M204 P1250 R1250 T1250 ; sets acceleration (P, T) and retract acceleration (R), mm/sec^2
M205 X8.00 Y8.00 Z0.40 E1.50 ; sets the jerk limits, mm/sec
M205 S0 T0 ; sets the minimum extruding and travel feed rate, mm/sec
M107
M115 U3.6.0 ; tell printer latest fw version
M83  ; extruder relative mode
M104 S215 ; set extruder temp
M140 S60 ; set bed temp
M190 S60 ; wait for bed temp
M109 S215 ; wait for extruder temp
G28 W ; home all without mesh bed level
G80 ; mesh bed leveling
G1 Y-3.0 F1000.0 ; go outside print area
G92 E0.0
G1 X60.0 E9.0  F1000.0 ; intro line
M73 Q0 S45
M73 P0 R45
G1 X100.0 E12.5  F1000.0 ; intro line
G92 E0.0
M221 S95
M900 K30 ; Filament gcode
G21 ; set units to millimeters
G90 ; use absolute coordinates
M83 ; use relative distances for extrusion
;BEFORE_LAYER_CHANGE
G92 E0.0
;0.2


G1 E-0.80000 F2100.00000
G1 Z0.600 F10800.000
;AFTER_LAYER_CHANGE
;0.2
G1 X100.837 Y108.871
G1 Z0.200
G1 E0.80000 F2100.00000
M204 S1000
G1 F1200
G1 X100.605 Y108.091 E0.02552
G1 X101.663 Y91.729 E0.51408
G1 X101.787 Y90.718 E0.03193
G1 X102.055 Y89.619 E0.03547
G1 X102.478 Y88.519 E0.03696
G1 X102.921 Y87.667 E0.03010
G1 X103.448 Y86.878 E0.02975
G1 X104.169 Y86.016 E0.03524
G1 X105.107 Y85.160 E0.03981
G1 X105.896 Y84.594 E0.03044
G1 X106.813 Y84.092 E0.03279
G1 X110.174 Y82.649 E0.11468
G1 X112.991 Y81.705 E0.09314
G1 X115.826 Y80.972 E0.09183
G1 X119.850 Y80.275 E0.12805
G1 X122.960 Y79.991 E0.09792
G1 X126.040 Y79.921 E0.09661
G1 X129.140 Y80.060 E0.09729
G1 X130.748 Y80.215 E0.05064
G1 X133.820 Y80.680 E0.09743
G1 X135.674 Y81.070 E0.05939
G1 X137.194 Y81.454 E0.04917
G1 X140.047 Y82.340 E0.09366
G1 X142.824 Y83.426 E0.09348
G1 X144.281 Y84.091 E0.05025
G1 X145.203 Y84.606 E0.03308
G1 X146.106 Y85.263 E0.03502
G1 X146.910 Y86.011 E0.03445
G1 X147.683 Y86.939 E0.03787
G1 X148.233 Y87.783 E0.03158
G1 X148.759 Y88.867 E0.03775
G1 X149.175 Y90.178 E0.04315
G1 X149.428 Y91.823 E0.05216
G1 X149.419 Y93.041 E0.03821
G1 X149.175 Y95.346 E0.07268
G1 X148.681 Y98.247 E0.09226
G1 X148.340 Y99.757 E0.04855
G1 X147.536 Y102.601 E0.09265
G1 X147.039 Y104.064 E0.04844
G1 X146.012 Y106.656 E0.08744
G1 X145.350 Y108.110 E0.05008
G1 X143.961 Y110.792 E0.09471
G1 X143.142 Y112.195 E0.05092
G1 X132.663 Y128.275 E0.60180
G1 X132.354 Y128.640 E0.01498
G1 X131.973 Y128.928 E0.01498
G1 X131.539 Y129.128 E0.01498
G1 X131.072 Y129.228 E0.01498
G1 X130.184 Y129.135 E0.02799
G1 X122.334 Y126.435 E0.26027
G1 X121.301 Y125.974 E0.03547
G1 X120.354 Y125.404 E0.03466
G1 X119.101 Y124.510 E0.04826
G1 X116.798 Y122.671 E0.09240
G1 X101.339 Y109.512 E0.63654
G1 X100.874 Y108.918 E0.02364
G1 F8640
G1 X100.605 Y108.091 E-0.20090
G1 X100.761 Y105.674 E-0.55910
G1 E-0.04000 F2100.00000
G1 Z0.800 F10800.000
G1 X120.854 Y102.551
G1 Z0.200
G1 E0.80000 F2100.00000
G1 F1200
G1 X120.629 Y101.710 E0.02731
G1 X120.553 Y100.842 E0.02731
G1 X120.629 Y99.975 E0.02731
G1 X120.854 Y99.134 E0.02731
G1 X121.222 Y98.344 E0.02731
G1 X121.722 Y97.631 E0.02731
G1 X122.337 Y97.015 E0.02731
G1 X123.051 Y96.515 E0.02731
G1 X123.840 Y96.147 E0.02731
G1 X124.681 Y95.922 E0.02731
G1 X125.549 Y95.846 E0.02731
G1 X126.417 Y95.922 E0.02731
G1 X127.258 Y96.147 E0.02731
G1 X128.047 Y96.515 E0.02731
G1 X128.761 Y97.015 E0.02731
G1 X129.377 Y97.631 E0.02731
G1 X129.876 Y98.344 E0.02731
G1 X130.244 Y99.134 E0.02731
G1 X130.470 Y99.975 E0.02731
G1 X130.545 Y100.842 E0.02731
G1 X130.470 Y101.710 E0.02731
G1 X130.244 Y102.551 E0.02731
G1 X129.876 Y103.341 E0.02731
G1 X129.377 Y104.054 E0.02731
G1 X128.761 Y104.670 E0.02731
G1 X128.047 Y105.169 E0.02731
G1 X127.258 Y105.537 E0.02731
G1 X126.417 Y105.763 E0.02731
G1 X125.549 Y105.839 E0.02731
G1 X124.681 Y105.763 E0.02731
G1 X123.840 Y105.537 E0.02731
G1 X123.051 Y105.169 E0.02731
G1 X122.337 Y104.670 E0.02731
G1 X121.722 Y104.054 E0.02731
G1 X121.222 Y103.341 E0.02731
G1 X120.879 Y102.606 E0.02543
G1 X121.221 Y102.446 F10800.000
G1 F1200
G1 X121.001 Y101.644 E0.02607
G1 X120.931 Y100.842 E0.02524
G1 X121.001 Y100.040 E0.02524
G1 X121.210 Y99.263 E0.02524
G1 X121.550 Y98.533 E0.02524
G1 X122.012 Y97.874 E0.02524
G1 X122.581 Y97.305 E0.02524
G1 X123.240 Y96.843 E0.02524
G1 X123.970 Y96.503 E0.02524
G1 X124.747 Y96.295 E0.02524
G1 X125.549 Y96.225 E0.02524
G1 X126.351 Y96.295 E0.02524
G1 X127.128 Y96.503 E0.02524
G1 X127.858 Y96.843 E0.02524
G1 X128.517 Y97.305 E0.02524
G1 X129.087 Y97.874 E0.02524
G1 X129.548 Y98.533 E0.02524
G1 X129.888 Y99.263 E0.02524
G1 X130.097 Y100.040 E0.02524
G1 X130.167 Y100.842 E0.02524
G1 X130.097 Y101.644 E0.02524
G1 X129.888 Y102.422 E0.02524
G1 X129.548 Y103.151 E0.02524
G1 X129.087 Y103.811 E0.02524
G1 X128.517 Y104.380 E0.02524
G1 X127.858 Y104.842 E0.02524
G1 X127.128 Y105.182 E0.02524
G1 X126.351 Y105.390 E0.02524
G1 X125.549 Y105.460 E0.02524
G1 X124.747 Y105.390 E0.02524
G1 X123.970 Y105.182 E0.02524
G1 X123.240 Y104.842 E0.02524
G1 X122.581 Y104.380 E0.02524
G1 X122.012 Y103.811 E0.02524
G1 X121.550 Y103.151 E0.02524
G1 X121.246 Y102.501 E0.02251
G1 X121.588 Y102.341 F10800.000
G1 F1200
G1 X121.374 Y101.579 E0.02484
G1 X121.310 Y100.842 E0.02317
G1 X121.374 Y100.106 E0.02317
G1 X121.565 Y99.392 E0.02317
G1 X121.878 Y98.723 E0.02317
G1 X122.302 Y98.117 E0.02317
G1 X122.824 Y97.595 E0.02317
G1 X123.429 Y97.171 E0.02317
G1 X124.099 Y96.859 E0.02317
G1 X124.813 Y96.667 E0.02317
G1 X125.549 Y96.603 E0.02317
G1 X126.285 Y96.667 E0.02317
G1 X126.999 Y96.859 E0.02317
G1 X127.669 Y97.171 E0.02317
G1 X128.274 Y97.595 E0.02317
G1 X128.797 Y98.117 E0.02317
G1 X129.220 Y98.723 E0.02317
G1 X129.533 Y99.392 E0.02317
G1 X129.724 Y100.106 E0.02317
G1 X129.788 Y100.842 E0.02317
G1 X129.724 Y101.579 E0.02317
G1 X129.533 Y102.292 E0.02317
G1 X129.220 Y102.962 E0.02317
G1 X128.797 Y103.567 E0.02317
G1 X128.274 Y104.090 E0.02317
G1 X127.669 Y104.514 E0.02317
G1 X126.999 Y104.826 E0.02317
G1 X126.285 Y105.017 E0.02317
G1 X125.549 Y105.082 E0.02317
G1 X124.813 Y105.017 E0.02317
G1 X124.099 Y104.826 E0.02317
G1 X123.429 Y104.514 E0.02317
G1 X122.824 Y104.090 E0.02317
G1 X122.302 Y103.567 E0.02317
G1 X121.878 Y102.962 E0.02317
G1 X121.614 Y102.396 E0.01959
G1 X121.955 Y102.236 F10800.000
G1 F1200
G1 X121.921 Y102.163 E0.00254
G1 X121.747 Y101.513 E0.02110
G1 X121.688 Y100.842 E0.02110
G1 X121.747 Y100.172 E0.02110
G1 X121.921 Y99.522 E0.02110
G1 X122.206 Y98.912 E0.02110
G1 X122.592 Y98.361 E0.02110
G1 X123.067 Y97.885 E0.02110
G1 X123.619 Y97.499 E0.02110
G1 X124.229 Y97.214 E0.02110
G1 X124.879 Y97.040 E0.02110
G1 X125.549 Y96.982 E0.02110
G1 X126.219 Y97.040 E0.02110
G1 X126.870 Y97.214 E0.02110
G1 X127.479 Y97.499 E0.02110
G1 X128.031 Y97.885 E0.02110
G1 X128.507 Y98.361 E0.02110
G1 X128.893 Y98.912 E0.02110
G1 X129.177 Y99.522 E0.02110
G1 X129.351 Y100.172 E0.02110
G1 X129.410 Y100.842 E0.02110
G1 X129.351 Y101.513 E0.02110
G1 X129.177 Y102.163 E0.02110
G1 X128.893 Y102.773 E0.02110
G1 X128.507 Y103.324 E0.02110
G1 X128.031 Y103.800 E0.02110
G1 X127.479 Y104.186 E0.02110
G1 X126.870 Y104.470 E0.02110
G1 X126.219 Y104.645 E0.02110
G1 X125.549 Y104.703 E0.02110
G1 X124.879 Y104.645 E0.02110
G1 X124.229 Y104.470 E0.02110
G1 X123.619 Y104.186 E0.02110
G1 X123.067 Y103.800 E0.02110
G1 X122.592 Y103.324 E0.02110
G1 X122.206 Y102.773 E0.02110
G1 X121.981 Y102.291 E0.01668
G1 X121.874 Y102.232 F10800.000
G1 F8640
G1 X121.921 Y102.163 E-0.03256
G1 X121.747 Y101.513 E-0.15539
G1 X121.688 Y100.842 E-0.15539
G1 X121.747 Y100.172 E-0.15539
G1 X121.921 Y99.522 E-0.15539
G1 X122.115 Y99.106 E-0.10586
G1 E-0.04000 F2100.00000
G1 Z0.800 F10800.000
G1 X132.190 Y119.245
G1 Z0.200
G1 E0.80000 F2100.00000
G1 F1200
G1 X129.641 Y120.839 E0.09427
G1 X129.259 Y121.136 E0.01519
G1 X128.252 Y121.838 E0.03849
G1 X127.733 Y122.141 E0.01883
G1 X127.208 Y122.370 E0.01798
G1 X126.659 Y122.535 E0.01798
G1 X126.094 Y122.633 E0.01798
G1 X125.521 Y122.664 E0.01798
G1 X124.949 Y122.627 E0.01798
G1 X124.386 Y122.522 E0.01798
G1 X123.838 Y122.351 E0.01798
G1 X123.315 Y122.116 E0.01798
G1 X122.800 Y121.806 E0.01885
G1 X121.721 Y121.037 E0.04154
G1 X120.651 Y120.214 E0.04233
G1 X119.611 Y119.353 E0.04232
G1 X118.602 Y118.454 E0.04238
G1 X117.624 Y117.517 E0.04249
G1 X116.677 Y116.543 E0.04260
G1 X115.582 Y115.325 E0.05134
G1 X114.676 Y114.234 E0.04447
G1 X113.808 Y113.109 E0.04453
G1 X112.980 Y111.954 E0.04458
G1 X112.193 Y110.769 E0.04459
G1 X111.448 Y109.561 E0.04451
G1 X110.745 Y108.330 E0.04444
G1 X110.088 Y107.082 E0.04422
G1 X108.227 Y103.175 E0.13570
G1 X105.138 Y104.958 E0.11182
G1 X105.997 Y92.060 E0.40529
G1 X106.072 Y91.461 E0.01895
G1 X106.207 Y90.912 E0.01772
G1 X106.405 Y90.383 E0.01772
G1 X106.664 Y89.881 E0.01772
G1 X106.980 Y89.412 E0.01772
G1 X107.348 Y88.983 E0.01772
G1 X107.763 Y88.601 E0.01772
G1 X108.291 Y88.226 E0.02029
G1 X109.340 Y87.709 E0.03668
G1 X110.519 Y87.191 E0.04037
G1 X111.723 Y86.714 E0.04062
G1 X112.949 Y86.279 E0.04077
G1 X114.194 Y85.885 E0.04095
G1 X115.460 Y85.534 E0.04118
G1 X116.744 Y85.225 E0.04143
G1 X118.048 Y84.957 E0.04172
G1 X119.372 Y84.733 E0.04212
G1 X120.415 Y84.588 E0.03300
G1 X121.809 Y84.437 E0.04398
G1 X123.206 Y84.334 E0.04393
G1 X124.608 Y84.279 E0.04400
G1 X126.014 Y84.271 E0.04408
G1 X127.422 Y84.310 E0.04417
G1 X128.831 Y84.399 E0.04427
G1 X130.241 Y84.536 E0.04439
G1 X131.646 Y84.723 E0.04447
G1 X133.044 Y84.960 E0.04445
G1 X134.696 Y85.309 E0.05294
G1 X136.018 Y85.642 E0.04272
G1 X137.323 Y86.021 E0.04262
G1 X138.609 Y86.446 E0.04247
G1 X139.877 Y86.915 E0.04238
G1 X141.125 Y87.430 E0.04234
G1 X142.329 Y87.979 E0.04149
G1 X142.860 Y88.274 E0.01904
G1 X143.329 Y88.614 E0.01816
G1 X143.754 Y89.008 E0.01817
G1 X144.129 Y89.449 E0.01817
G1 X144.448 Y89.933 E0.01817
G1 X144.707 Y90.451 E0.01817
G1 X144.902 Y90.997 E0.01817
G1 X145.030 Y91.562 E0.01817
G1 X145.089 Y92.138 E0.01817
G1 X145.078 Y92.751 E0.01923
G1 X145.019 Y93.425 E0.02120
G1 X144.865 Y94.761 E0.04216
G1 X144.663 Y96.084 E0.04197
G1 X144.414 Y97.400 E0.04201
G1 X144.118 Y98.710 E0.04210
G1 X143.774 Y100.012 E0.04223
G1 X143.383 Y101.307 E0.04241
G1 X142.944 Y102.596 E0.04270
G1 X142.540 Y103.670 E0.03596
G1 X142.009 Y104.952 E0.04351
G1 X141.434 Y106.216 E0.04354
G1 X140.815 Y107.464 E0.04368
G1 X140.150 Y108.695 E0.04385
G1 X139.442 Y109.908 E0.04404
G1 X138.684 Y111.112 E0.04461
G1 X132.190 Y121.048 E0.37216
G1 X132.190 Y119.305 E0.05465
G1 X131.813 Y119.925 F10800.000
G1 F1200
G1 X129.858 Y121.148 E0.07232
G1 X129.483 Y121.440 E0.01490
G1 X128.455 Y122.156 E0.03927
G1 X127.905 Y122.478 E0.02000
G1 X127.338 Y122.725 E0.01939
G1 X126.746 Y122.903 E0.01939
G1 X126.136 Y123.009 E0.01939
G1 X125.519 Y123.042 E0.01939
G1 X124.902 Y123.002 E0.01939
G1 X124.294 Y122.888 E0.01939
G1 X123.704 Y122.704 E0.01939
G1 X123.140 Y122.450 E0.01939
G1 X122.593 Y122.122 E0.02001
G1 X121.497 Y121.341 E0.04222
G1 X120.415 Y120.509 E0.04276
G1 X119.365 Y119.639 E0.04275
G1 X118.346 Y118.731 E0.04280
G1 X117.358 Y117.784 E0.04292
G1 X116.401 Y116.800 E0.04304
G1 X115.297 Y115.571 E0.05180
G1 X114.381 Y114.469 E0.04491
G1 X113.506 Y113.334 E0.04495
G1 X112.670 Y112.168 E0.04499
G1 X111.875 Y110.973 E0.04500
G1 X111.124 Y109.753 E0.04492
G1 X110.415 Y108.511 E0.04483
G1 X109.751 Y107.251 E0.04466
G1 X108.062 Y103.705 E0.12314
G1 X104.715 Y105.638 E0.12117
G1 X105.621 Y92.024 E0.42778
G1 X105.700 Y91.392 E0.01998
G1 X105.846 Y90.800 E0.01910
G1 X106.060 Y90.230 E0.01910
G1 X106.339 Y89.689 E0.01910
G1 X106.679 Y89.183 E0.01910
G1 X107.076 Y88.721 E0.01910
G1 X107.524 Y88.308 E0.01910
G1 X108.112 Y87.894 E0.02256
G1 X109.181 Y87.367 E0.03737
G1 X110.374 Y86.843 E0.04084
G1 X111.591 Y86.361 E0.04105
G1 X112.829 Y85.921 E0.04119
G1 X114.087 Y85.524 E0.04137
G1 X115.365 Y85.169 E0.04159
G1 X116.662 Y84.856 E0.04184
G1 X117.978 Y84.587 E0.04212
G1 X119.315 Y84.360 E0.04250
G1 X120.368 Y84.214 E0.03335
G1 X121.775 Y84.061 E0.04436
G1 X123.185 Y83.958 E0.04433
G1 X124.600 Y83.902 E0.04440
G1 X126.018 Y83.894 E0.04448
G1 X127.439 Y83.934 E0.04457
G1 X128.862 Y84.023 E0.04468
G1 X130.284 Y84.161 E0.04481
G1 X131.703 Y84.350 E0.04489
G1 X133.115 Y84.590 E0.04490
G1 X134.781 Y84.941 E0.05341
G1 X136.116 Y85.278 E0.04317
G1 X137.435 Y85.661 E0.04304
G1 X138.734 Y86.090 E0.04290
G1 X140.014 Y86.564 E0.04281
G1 X141.275 Y87.084 E0.04277
G1 X142.499 Y87.643 E0.04217
G1 X143.063 Y87.955 E0.02022
G1 X143.569 Y88.322 E0.01959
G1 X144.027 Y88.746 E0.01959
G1 X144.431 Y89.223 E0.01959
G1 X144.775 Y89.744 E0.01959
G1 X145.055 Y90.303 E0.01959
G1 X145.265 Y90.891 E0.01959
G1 X145.403 Y91.501 E0.01959
G1 X145.467 Y92.122 E0.01959
G1 X145.455 Y92.771 E0.02035
G1 X145.394 Y93.463 E0.02177
G1 X145.238 Y94.811 E0.04254
G1 X145.035 Y96.147 E0.04240
G1 X144.783 Y97.477 E0.04243
G1 X144.484 Y98.800 E0.04252
G1 X144.137 Y100.115 E0.04265
G1 X143.742 Y101.423 E0.04283
G1 X143.299 Y102.724 E0.04309
G1 X142.890 Y103.808 E0.03634
G1 X142.355 Y105.102 E0.04390
G1 X141.775 Y106.378 E0.04395
G1 X141.149 Y107.637 E0.04408
G1 X140.479 Y108.879 E0.04425
G1 X139.765 Y110.103 E0.04444
G1 X139.001 Y111.315 E0.04491
G1 X131.813 Y122.314 E0.41197
G1 X131.813 Y119.985 E0.07301
G1 X131.436 Y120.606 F10800.000
G1 F1200
G1 X130.074 Y121.458 E0.05038
G1 X129.706 Y121.744 E0.01460
G1 X128.658 Y122.474 E0.04004
G1 X128.076 Y122.815 E0.02117
G1 X127.468 Y123.079 E0.02079
G1 X126.833 Y123.270 E0.02079
G1 X126.179 Y123.384 E0.02079
G1 X125.517 Y123.420 E0.02079
G1 X124.855 Y123.376 E0.02079
G1 X124.203 Y123.255 E0.02079
G1 X123.570 Y123.057 E0.02079
G1 X122.965 Y122.785 E0.02079
G1 X122.386 Y122.437 E0.02117
G1 X121.272 Y121.644 E0.04290
G1 X120.180 Y120.804 E0.04319
G1 X119.120 Y119.925 E0.04318
G1 X118.090 Y119.008 E0.04323
G1 X117.092 Y118.052 E0.04334
G1 X116.126 Y117.058 E0.04348
G1 X115.011 Y115.818 E0.05226
G1 X114.087 Y114.705 E0.04536
G1 X113.203 Y113.559 E0.04537
G1 X112.360 Y112.382 E0.04541
G1 X111.558 Y111.176 E0.04541
G1 X110.799 Y109.946 E0.04532
G1 X110.084 Y108.693 E0.04523
G1 X109.413 Y107.420 E0.04510
G1 X107.897 Y104.236 E0.11059
G1 X104.292 Y106.317 E0.13052
G1 X105.246 Y91.988 E0.45027
G1 X105.329 Y91.323 E0.02102
G1 X105.485 Y90.689 E0.02048
G1 X105.715 Y90.077 E0.02048
G1 X106.014 Y89.496 E0.02048
G1 X106.379 Y88.954 E0.02048
G1 X106.804 Y88.459 E0.02048
G1 X107.285 Y88.016 E0.02048
G1 X107.933 Y87.562 E0.02483
G1 X109.022 Y87.025 E0.03805
G1 X110.228 Y86.495 E0.04132
G1 X111.458 Y86.008 E0.04148
G1 X112.709 Y85.563 E0.04161
G1 X113.980 Y85.162 E0.04179
G1 X115.270 Y84.804 E0.04200
G1 X116.580 Y84.488 E0.04225
G1 X117.909 Y84.216 E0.04253
G1 X119.257 Y83.987 E0.04287
G1 X120.322 Y83.839 E0.03371
G1 X121.741 Y83.686 E0.04474
G1 X123.164 Y83.581 E0.04474
G1 X124.591 Y83.525 E0.04480
G1 X126.023 Y83.517 E0.04488
G1 X127.456 Y83.557 E0.04497
G1 X128.892 Y83.647 E0.04509
G1 X130.327 Y83.787 E0.04522
G1 X131.759 Y83.977 E0.04531
G1 X133.185 Y84.219 E0.04534
G1 X134.866 Y84.574 E0.05387
G1 X136.215 Y84.914 E0.04361
G1 X137.546 Y85.301 E0.04346
G1 X138.858 Y85.734 E0.04332
G1 X140.151 Y86.213 E0.04324
G1 X141.425 Y86.738 E0.04321
G1 X142.669 Y87.306 E0.04285
G1 X143.266 Y87.637 E0.02140
G1 X143.808 Y88.030 E0.02101
G1 X144.300 Y88.485 E0.02101
G1 X144.734 Y88.996 E0.02101
G1 X145.103 Y89.555 E0.02101
G1 X145.402 Y90.155 E0.02101
G1 X145.627 Y90.786 E0.02101
G1 X145.775 Y91.439 E0.02101
G1 X145.844 Y92.106 E0.02101
G1 X145.832 Y92.791 E0.02148
G1 X145.769 Y93.501 E0.02235
G1 X145.612 Y94.861 E0.04291
G1 X145.407 Y96.211 E0.04282
G1 X145.152 Y97.554 E0.04286
G1 X144.850 Y98.890 E0.04294
G1 X144.500 Y100.218 E0.04307
G1 X144.101 Y101.538 E0.04324
G1 X143.654 Y102.851 E0.04349
G1 X143.241 Y103.947 E0.03672
G1 X142.701 Y105.252 E0.04430
G1 X142.115 Y106.540 E0.04436
