; generated by Slic3r Prusa Edition 1.42.0-beta2+linux64 on 2019-06-18 at 12:10:49

; 

; external perimeters extrusion width = 0.45mm
; perimeters extrusion width = 0.45mm
; infill extrusion width = 0.45mm
; solid infill extrusion width = 0.45mm
; top infill extrusion width = 0.40mm
; support material extrusion width = 0.35mm
; first layer extrusion width = 0.42mm

M73 P0 R47
M73 Q0 S48
M201 X1000 Y1000 Z1000 E5000 ; sets maximum accelerations, mm/sec^2
M203 X200 Y200 Z12 E120 ; sets maximum feedrates, mm/sec
M204 P1250 R1250 T1250 ; sets acceleration (P, T) and retract acceleration (R), mm/sec^2
M205 X8.00 Y8.00 Z0.40 E1.50 ; sets the jerk limits, mm/sec
M205 S0 T0 ; sets the minimum extruding and travel feed rate, mm/sec
M107
M115 U3.6.0 ; tell printer latest fw version
M83  ; extruder relative mode
M104 S215 ; set extruder temp
M140 S60 ; set bed temp
M190 S60 ; wait for bed temp
M109 S215 ; wait for extruder temp
G28 W ; home all without mesh bed level
G80 ; mesh bed leveling
G1 Y-3.0 F1000.0 ; go outside print area
G92 E0.0
G1 X60.0 E9.0  F1000.0 ; intro line
M73 Q0 S48
M73 P0 R47
G1 X100.0 E12.5  F1000.0 ; intro line
G92 E0.0
M221 S95
M900 K30 ; Filament gcode
G21 ; set units to millimeters
G90 ; use absolute coordinates
M83 ; use relative distances for extrusion
;BEFORE_LAYER_CHANGE
G92 E0.0
;0.2


G1 E-0.80000 F2100.00000
G1 Z0.600 F10800.000
;AFTER_LAYER_CHANGE
;0.2
G1 X102.227 Y87.717
G1 Z0.200
G1 E0.80000 F2100.00000
M204 S1000
G1 F1200
G1 X107.524 Y82.384 E0.23568
G1 X108.055 Y82.026 E0.02010
G1 X108.671 Y81.836 E0.02021
G1 X141.004 Y81.811 E1.01376
G1 X141.817 Y81.970 E0.02597
G1 X142.510 Y82.416 E0.02586
G1 X147.621 Y87.529 E0.22667
G1 X147.969 Y88.045 E0.01953
G1 X148.159 Y88.639 E0.01953
G1 X148.188 Y121.026 E1.01547
G1 X148.078 Y121.686 E0.02100
G1 X147.773 Y122.283 E0.02100
G1 X142.474 Y127.618 E0.23579
G1 X141.928 Y127.982 E0.02055
G1 X141.296 Y128.168 E0.02066
G1 X108.974 Y128.188 E1.01343
G1 X108.314 Y128.078 E0.02100
G1 X107.717 Y127.773 E0.02100
G1 X102.382 Y122.474 E0.23579
G1 X102.018 Y121.928 E0.02055
G1 X101.832 Y121.296 E0.02066
G1 X101.812 Y88.974 E1.01343
G1 X101.922 Y88.314 E0.02100
G1 X102.199 Y87.771 E0.01912
G1 F8640
G1 X104.513 Y85.430 E-0.76000
G1 E-0.04000 F2100.00000
G1 Z0.800 F10800.000
G1 X138.089 Y89.500
G1 Z0.200
G1 E0.80000 F2100.00000
G1 F1200
G1 X138.126 Y89.081 E0.01318
G1 X138.235 Y88.675 E0.01318
G1 X138.412 Y88.295 E0.01318
G1 X138.653 Y87.950 E0.01318
G1 X138.950 Y87.653 E0.01318
G1 X139.295 Y87.412 E0.01318
G1 X139.675 Y87.235 E0.01318
G1 X140.081 Y87.126 E0.01318
G1 X140.435 Y87.095 E0.01113
G1 X140.916 Y87.125 E0.01512
G1 X141.325 Y87.235 E0.01326
G1 X141.705 Y87.412 E0.01318
G1 X142.050 Y87.653 E0.01318
G1 X142.347 Y87.950 E0.01318
G1 X142.588 Y88.295 E0.01318
G1 X142.765 Y88.675 E0.01318
G1 X142.874 Y89.081 E0.01318
G1 X142.911 Y89.500 E0.01318
G1 X142.874 Y89.919 E0.01318
G1 X142.765 Y90.325 E0.01318
G1 X142.588 Y90.705 E0.01318
G1 X142.347 Y91.050 E0.01318
G1 X142.050 Y91.347 E0.01318
G1 X141.759 Y91.550 E0.01113
G1 X141.327 Y91.765 E0.01512
G1 X140.919 Y91.874 E0.01326
G1 X140.500 Y91.911 E0.01318
G1 X140.081 Y91.874 E0.01318
G1 X139.675 Y91.765 E0.01318
G1 X139.295 Y91.588 E0.01318
G1 X138.950 Y91.347 E0.01318
G1 X138.653 Y91.050 E0.01318
G1 X138.412 Y90.705 E0.01318
G1 X138.262 Y90.384 E0.01113
G1 X138.126 Y89.921 E0.01512
G1 X138.094 Y89.560 E0.01138
G1 X137.742 Y89.302 F10800.000
G1 F8640
G1 X138.126 Y89.081 E-0.11070
G1 X138.235 Y88.675 E-0.09703
G1 X138.412 Y88.295 E-0.09703
G1 X138.653 Y87.950 E-0.09703
G1 X138.950 Y87.653 E-0.09703
G1 X139.295 Y87.412 E-0.09703
G1 X139.675 Y87.235 E-0.09703
G1 X139.956 Y87.159 E-0.06710
G1 E-0.04000 F2100.00000
G1 Z0.800 F10800.000
G1 X111.293 Y118.363
G1 Z0.200
G1 E0.80000 F2100.00000
G1 F1200
G1 X111.637 Y118.707 E0.01524
G1 X111.916 Y119.105 E0.01524
G1 X112.121 Y119.546 E0.01524
G1 X112.247 Y120.016 E0.01524
G1 X112.289 Y120.500 E0.01524
G1 X112.247 Y120.984 E0.01524
G1 X112.121 Y121.454 E0.01524
G1 X111.916 Y121.895 E0.01524
G1 X111.637 Y122.293 E0.01524
G1 X111.342 Y122.587 E0.01305
G1 X110.901 Y122.913 E0.01719
G1 X110.454 Y123.121 E0.01547
G1 X109.984 Y123.247 E0.01524
G1 X109.500 Y123.289 E0.01524
G1 X109.016 Y123.247 E0.01524
G1 X108.546 Y123.121 E0.01524
G1 X108.105 Y122.916 E0.01524
G1 X107.707 Y122.637 E0.01524
G1 X107.363 Y122.293 E0.01524
G1 X107.084 Y121.895 E0.01524
G1 X106.879 Y121.454 E0.01524
G1 X106.771 Y121.052 E0.01305
G1 X106.710 Y120.507 E0.01719
G1 X106.753 Y120.016 E0.01547
G1 X106.879 Y119.546 E0.01524
G1 X107.084 Y119.105 E0.01524
G1 X107.363 Y118.707 E0.01524
G1 X107.707 Y118.363 E0.01524
G1 X108.105 Y118.084 E0.01524
G1 X108.546 Y117.879 E0.01524
G1 X109.016 Y117.753 E0.01524
G1 X109.430 Y117.717 E0.01305
G1 X109.977 Y117.751 E0.01719
G1 X110.454 Y117.879 E0.01547
G1 X110.895 Y118.084 E0.01524
G1 X111.244 Y118.329 E0.01336
G1 X111.028 Y118.638 F10800.000
G1 F1200
G1 X111.347 Y118.950 E0.01401
G1 X111.588 Y119.295 E0.01318
G1 X111.765 Y119.675 E0.01318
G1 X111.874 Y120.081 E0.01318
G1 X111.911 Y120.500 E0.01318
G1 X111.874 Y120.919 E0.01318
G1 X111.765 Y121.325 E0.01318
G1 X111.588 Y121.705 E0.01318
G1 X111.347 Y122.050 E0.01318
G1 X111.096 Y122.301 E0.01113
G1 X110.708 Y122.587 E0.01512
G1 X110.325 Y122.765 E0.01326
G1 X109.919 Y122.874 E0.01318
G1 X109.500 Y122.911 E0.01318
G1 X109.081 Y122.874 E0.01318
G1 X108.675 Y122.765 E0.01318
G1 X108.295 Y122.588 E0.01318
G1 X107.950 Y122.347 E0.01318
G1 X107.653 Y122.050 E0.01318
G1 X107.412 Y121.705 E0.01318
G1 X107.235 Y121.325 E0.01318
G1 X107.143 Y120.982 E0.01113
G1 X107.089 Y120.503 E0.01512
G1 X107.126 Y120.081 E0.01326
G1 X107.235 Y119.675 E0.01318
G1 X107.412 Y119.295 E0.01318
G1 X107.653 Y118.950 E0.01318
G1 X107.950 Y118.653 E0.01318
G1 X108.295 Y118.412 E0.01318
G1 X108.675 Y118.235 E0.01318
G1 X109.081 Y118.126 E0.01318
G1 X109.435 Y118.095 E0.01113
G1 X109.916 Y118.125 E0.01512
G1 X110.325 Y118.235 E0.01326
G1 X110.705 Y118.412 E0.01318
G1 X110.978 Y118.603 E0.01045
G1 X111.402 Y118.498 F10800.000
G1 F8640
G1 X111.347 Y118.950 E-0.11687
G1 X111.588 Y119.295 E-0.09703
G1 X111.765 Y119.675 E-0.09703
G1 X111.874 Y120.081 E-0.09703
G1 X111.911 Y120.500 E-0.09703
G1 X111.874 Y120.919 E-0.09703
G1 X111.765 Y121.325 E-0.09703
G1 X111.654 Y121.564 E-0.06093
G1 E-0.04000 F2100.00000
G1 Z0.800 F10800.000
G1 X137.711 Y120.500
G1 Z0.200
G1 E0.80000 F2100.00000
G1 F1200
G1 X137.753 Y120.016 E0.01524
G1 X137.879 Y119.546 E0.01524
G1 X138.084 Y119.105 E0.01524
G1 X138.363 Y118.707 E0.01524
G1 X138.707 Y118.363 E0.01524
G1 X139.105 Y118.084 E0.01524
G1 X139.546 Y117.879 E0.01524
G1 X140.016 Y117.753 E0.01524
G1 X140.430 Y117.717 E0.01305
G1 X140.977 Y117.751 E0.01719
G1 X141.454 Y117.879 E0.01547
G1 X141.895 Y118.084 E0.01524
G1 X142.293 Y118.363 E0.01524
G1 X142.637 Y118.707 E0.01524
G1 X142.916 Y119.105 E0.01524
G1 X143.121 Y119.546 E0.01524
G1 X143.247 Y120.016 E0.01524
G1 X143.289 Y120.500 E0.01524
G1 X143.247 Y120.984 E0.01524
G1 X143.139 Y121.386 E0.01305
G1 X142.920 Y121.889 E0.01719
G1 X142.637 Y122.293 E0.01547
G1 X142.293 Y122.637 E0.01524
G1 X141.895 Y122.916 E0.01524
G1 X141.454 Y123.121 E0.01524
G1 X140.984 Y123.247 E0.01524
G1 X140.500 Y123.289 E0.01524
G1 X140.016 Y123.247 E0.01524
G1 X139.546 Y123.121 E0.01524
G1 X139.105 Y122.916 E0.01524
G1 X138.707 Y122.637 E0.01524
G1 X138.363 Y122.293 E0.01524
G1 X138.125 Y121.952 E0.01305
G1 X137.881 Y121.461 E0.01719
G1 X137.753 Y120.984 E0.01547
G1 X137.716 Y120.560 E0.01336
G1 X138.092 Y120.527 F10800.000
G1 F1200
G1 X138.126 Y120.081 E0.01401
G1 X138.235 Y119.675 E0.01318
G1 X138.412 Y119.295 E0.01318
G1 X138.653 Y118.950 E0.01318
G1 X138.950 Y118.653 E0.01318
G1 X139.295 Y118.412 E0.01318
G1 X139.675 Y118.235 E0.01318
G1 X140.081 Y118.126 E0.01318
G1 X140.435 Y118.095 E0.01113
G1 X140.916 Y118.125 E0.01512
G1 X141.325 Y118.235 E0.01326
G1 X141.705 Y118.412 E0.01318
G1 X142.050 Y118.653 E0.01318
G1 X142.347 Y118.950 E0.01318
G1 X142.588 Y119.295 E0.01318
G1 X142.765 Y119.675 E0.01318
G1 X142.874 Y120.081 E0.01318
G1 X142.911 Y120.500 E0.01318
G1 X142.874 Y120.919 E0.01318
G1 X142.782 Y121.261 E0.01113
G1 X142.589 Y121.703 E0.01512
G1 X142.347 Y122.050 E0.01326
G1 X142.050 Y122.347 E0.01318
G1 X141.705 Y122.588 E0.01318
G1 X141.325 Y122.765 E0.01318
G1 X140.919 Y122.874 E0.01318
G1 X140.500 Y122.911 E0.01318
G1 X140.081 Y122.874 E0.01318
G1 X139.675 Y122.765 E0.01318
G1 X139.295 Y122.588 E0.01318
G1 X138.950 Y122.347 E0.01318
G1 X138.653 Y122.050 E0.01318
G1 X138.450 Y121.759 E0.01113
G1 X138.235 Y121.327 E0.01512
G1 X138.126 Y120.919 E0.01326
G1 X138.097 Y120.587 E0.01045
G1 X137.744 Y120.330 F10800.000
G1 F8640
G1 X138.126 Y120.081 E-0.11687
G1 X138.235 Y119.675 E-0.09703
G1 X138.412 Y119.295 E-0.09703
G1 X138.653 Y118.950 E-0.09703
G1 X138.950 Y118.653 E-0.09703
G1 X139.295 Y118.412 E-0.09703
G1 X139.675 Y118.235 E-0.09703
G1 X139.930 Y118.166 E-0.06094
G1 E-0.04000 F2100.00000
G1 Z0.800 F10800.000
G1 X140.492 Y124.046
G1 Z0.200
G1 E0.80000 F2100.00000
G1 F1200
G1 X140.279 Y124.259 E0.00945
G1 X109.721 Y124.259 E0.95811
G1 X109.508 Y124.046 E0.00945
G1 X110.116 Y123.992 E0.01913
G1 X110.713 Y123.832 E0.01938
G1 X111.288 Y123.564 E0.01990
G1 X111.836 Y123.161 E0.02133
G1 X112.217 Y122.780 E0.01690
G1 X112.571 Y122.273 E0.01938
G1 X112.832 Y121.713 E0.01938
G1 X112.992 Y121.116 E0.01938
G1 X113.046 Y120.500 E0.01938
G1 X112.992 Y119.884 E0.01938
G1 X112.832 Y119.287 E0.01938
G1 X112.571 Y118.727 E0.01938
G1 X112.217 Y118.220 E0.01938
G1 X111.780 Y117.783 E0.01938
G1 X111.273 Y117.429 E0.01938
G1 X110.713 Y117.168 E0.01938
G1 X110.100 Y117.003 E0.01990
G1 X109.421 Y116.961 E0.02133
G1 X108.884 Y117.008 E0.01690
G1 X108.287 Y117.168 E0.01938
G1 X107.727 Y117.429 E0.01938
G1 X107.220 Y117.783 E0.01938
G1 X106.783 Y118.220 E0.01938
G1 X106.429 Y118.727 E0.01938
G1 X106.168 Y119.287 E0.01938
G1 X106.008 Y119.884 E0.01938
G1 X105.954 Y120.492 E0.01913
G1 X105.741 Y120.279 E0.00945
G1 X105.741 Y89.721 E0.95811
G1 X105.954 Y89.508 E0.00945
G1 X106.008 Y90.116 E0.01913
G1 X106.168 Y90.713 E0.01938
G1 X106.429 Y91.273 E0.01938
G1 X106.783 Y91.780 E0.01938
G1 X107.220 Y92.217 E0.01938
G1 X107.727 Y92.571 E0.01938
G1 X108.287 Y92.832 E0.01938
G1 X108.884 Y92.992 E0.01938
G1 X109.500 Y93.046 E0.01938
G1 X110.116 Y92.992 E0.01938
G1 X110.713 Y92.832 E0.01938
G1 X111.273 Y92.571 E0.01938
G1 X111.731 Y92.251 E0.01751
G1 X116.132 Y107.599 E0.50063
G1 X116.638 Y108.944 E0.04505
G1 X117.380 Y110.237 E0.04675
G1 X118.321 Y111.393 E0.04675
G1 X119.436 Y112.384 E0.04675
G1 X120.695 Y113.182 E0.04675
G1 X122.066 Y113.768 E0.04675
G1 X123.514 Y114.125 E0.04675
G1 X125.000 Y114.246 E0.04675
G1 X126.486 Y114.125 E0.04675
G1 X127.934 Y113.768 E0.04675
G1 X129.305 Y113.182 E0.04675
G1 X130.564 Y112.384 E0.04675
G1 X131.679 Y111.393 E0.04675
G1 X132.620 Y110.237 E0.04675
G1 X133.362 Y108.944 E0.04675
G1 X133.868 Y107.599 E0.04505
G1 X138.269 Y92.251 E0.50063
G1 X138.727 Y92.571 E0.01751
G1 X139.287 Y92.832 E0.01938
G1 X139.884 Y92.992 E0.01938
G1 X140.500 Y93.046 E0.01938
G1 X141.116 Y92.992 E0.01938
G1 X141.729 Y92.828 E0.01990
G1 X142.338 Y92.526 E0.02133
G1 X142.780 Y92.217 E0.01690
G1 X143.217 Y91.780 E0.01938
G1 X143.571 Y91.273 E0.01938
G1 X143.832 Y90.713 E0.01938
G1 X143.992 Y90.116 E0.01938
G1 X144.046 Y89.508 E0.01913
G1 X144.259 Y89.721 E0.00945
G1 X144.259 Y120.279 E0.95811
G1 X144.046 Y120.492 E0.00945
G1 X143.992 Y119.884 E0.01913
G1 X143.832 Y119.287 E0.01938
G1 X143.571 Y118.727 E0.01938
G1 X143.217 Y118.220 E0.01938
G1 X142.780 Y117.783 E0.01938
G1 X142.273 Y117.429 E0.01938
G1 X141.713 Y117.168 E0.01938
G1 X141.100 Y117.003 E0.01990
G1 X140.421 Y116.961 E0.02133
G1 X139.884 Y117.008 E0.01690
G1 X139.287 Y117.168 E0.01938
G1 X138.727 Y117.429 E0.01938
G1 X138.220 Y117.783 E0.01938
G1 X137.783 Y118.220 E0.01938
G1 X137.429 Y118.727 E0.01938
G1 X137.168 Y119.287 E0.01938
G1 X137.008 Y119.884 E0.01938
G1 X136.954 Y120.500 E0.01938
G1 X137.008 Y121.116 E0.01938
G1 X137.172 Y121.729 E0.01990
G1 X137.474 Y122.338 E0.02133
G1 X137.783 Y122.780 E0.01690
G1 X138.220 Y123.217 E0.01938
G1 X138.727 Y123.571 E0.01938
G1 X139.287 Y123.832 E0.01938
G1 X139.884 Y123.992 E0.01938
G1 X140.432 Y124.040 E0.01725
G1 F8640
G1 X140.279 Y124.259 E-0.06161
G1 X137.254 Y124.259 E-0.69839
G1 E-0.04000 F2100.00000
G1 Z0.800 F10800.000
G1 X141.583 Y123.477
G1 Z0.200
G1 E0.80000 F2100.00000
G1 F1200
G1 X141.603 Y123.468 E0.00068
G1 X140.435 Y124.636 E0.05180
G1 X109.565 Y124.636 E0.96790
G1 X108.397 Y123.468 E0.05180
G1 X108.950 Y123.620 E0.01799
G1 X109.500 Y123.668 E0.01731
G1 X110.050 Y123.620 E0.01731
G1 X110.583 Y123.477 E0.01731
G1 X111.095 Y123.238 E0.01769
G1 X111.589 Y122.874 E0.01926
G1 X111.927 Y122.536 E0.01497
G1 X112.243 Y122.084 E0.01731
G1 X112.477 Y121.583 E0.01731
G1 X112.620 Y121.050 E0.01731
G1 X112.668 Y120.500 E0.01731
G1 X112.620 Y119.950 E0.01731
G1 X112.477 Y119.417 E0.01731
G1 X112.243 Y118.916 E0.01731
G1 X111.927 Y118.464 E0.01731
G1 X111.536 Y118.073 E0.01731
G1 X111.084 Y117.757 E0.01731
G1 X110.583 Y117.523 E0.01731
G1 X110.039 Y117.377 E0.01769
G1 X109.426 Y117.339 E0.01926
G1 X108.950 Y117.380 E0.01497
G1 X108.417 Y117.523 E0.01731
G1 X107.916 Y117.757 E0.01731
G1 X107.464 Y118.073 E0.01731
G1 X107.073 Y118.464 E0.01731
G1 X106.757 Y118.916 E0.01731
G1 X106.523 Y119.417 E0.01731
G1 X106.380 Y119.950 E0.01731
G1 X106.331 Y120.512 E0.01769
G1 X106.400 Y121.122 E0.01926
G1 X106.532 Y121.603 E0.01565
G1 X105.364 Y120.435 E0.05180
G1 X105.364 Y89.565 E0.96790
G1 X106.532 Y88.397 E0.05180
G1 X106.380 Y88.950 E0.01799
G1 X106.332 Y89.500 E0.01731
G1 X106.380 Y90.050 E0.01731
G1 X106.523 Y90.583 E0.01731
G1 X106.757 Y91.084 E0.01731
G1 X107.073 Y91.536 E0.01731
G1 X107.464 Y91.927 E0.01731
G1 X107.916 Y92.243 E0.01731
G1 X108.417 Y92.477 E0.01731
G1 X108.950 Y92.620 E0.01731
G1 X109.500 Y92.668 E0.01731
G1 X110.050 Y92.620 E0.01731
G1 X110.583 Y92.477 E0.01731
G1 X111.084 Y92.243 E0.01731
G1 X111.536 Y91.927 E0.01731
G1 X111.920 Y91.543 E0.01701
G1 X116.490 Y107.481 E0.51985
G1 X116.980 Y108.783 E0.04361
G1 X117.692 Y110.022 E0.04484
G1 X118.595 Y111.132 E0.04484
G1 X119.664 Y112.082 E0.04484
G1 X120.871 Y112.847 E0.04484
G1 X122.186 Y113.409 E0.04484
G1 X123.575 Y113.752 E0.04484
G1 X125.000 Y113.867 E0.04484
G1 X126.425 Y113.752 E0.04484
G1 X127.814 Y113.409 E0.04484
G1 X129.129 Y112.847 E0.04484
G1 X130.336 Y112.082 E0.04484
G1 X131.405 Y111.132 E0.04484
G1 X132.308 Y110.022 E0.04484
G1 X133.020 Y108.783 E0.04484
G1 X133.510 Y107.481 E0.04361
G1 X138.080 Y91.543 E0.51985
G1 X138.464 Y91.927 E0.01701
G1 X138.916 Y92.243 E0.01731
G1 X139.417 Y92.477 E0.01731
G1 X139.950 Y92.620 E0.01731
G1 X140.500 Y92.668 E0.01731
G1 X141.050 Y92.620 E0.01731
G1 X141.595 Y92.474 E0.01769
G1 X142.145 Y92.201 E0.01926
G1 X142.536 Y91.927 E0.01497
G1 X142.927 Y91.536 E0.01731
G1 X143.243 Y91.084 E0.01731
G1 X143.477 Y90.583 E0.01731
G1 X143.620 Y90.050 E0.01731
G1 X143.668 Y89.500 E0.01731
G1 X143.620 Y88.950 E0.01731
G1 X143.468 Y88.397 E0.01799
G1 X144.636 Y89.565 E0.05180
G1 X144.636 Y120.435 E0.96790
G1 X143.447 Y121.624 E0.05271
G1 X143.496 Y121.511 E0.00385
G1 X143.620 Y121.050 E0.01497
G1 X143.668 Y120.500 E0.01731
G1 X143.620 Y119.950 E0.01731
G1 X143.477 Y119.417 E0.01731
G1 X143.243 Y118.916 E0.01731
G1 X142.927 Y118.464 E0.01731
G1 X142.536 Y118.073 E0.01731
G1 X142.084 Y117.757 E0.01731
G1 X141.583 Y117.523 E0.01731
G1 X141.039 Y117.377 E0.01769
G1 X140.426 Y117.339 E0.01926
G1 X139.950 Y117.380 E0.01497
G1 X139.417 Y117.523 E0.01731
G1 X138.916 Y117.757 E0.01731
G1 X138.464 Y118.073 E0.01731
G1 X138.073 Y118.464 E0.01731
G1 X137.757 Y118.916 E0.01731
G1 X137.523 Y119.417 E0.01731
G1 X137.380 Y119.950 E0.01731
G1 X137.332 Y120.500 E0.01731
G1 X137.380 Y121.050 E0.01731
G1 X137.526 Y121.595 E0.01769
G1 X137.799 Y122.145 E0.01926
G1 X138.073 Y122.536 E0.01497
G1 X138.464 Y122.927 E0.01731
G1 X138.916 Y123.243 E0.01731
G1 X139.417 Y123.477 E0.01731
G1 X139.950 Y123.620 E0.01731
G1 X140.500 Y123.668 E0.01731
G1 X141.050 Y123.620 E0.01731
G1 X141.526 Y123.492 E0.01543
G1 F8640
