; generated by Slic3r Prusa Edition 1.42.0-beta2+linux64 on 2019-06-18 at 12:11:10

; 

; external perimeters extrusion width = 0.45mm
; perimeters extrusion width = 0.45mm
; infill extrusion width = 0.45mm
; solid infill extrusion width = 0.45mm
; top infill extrusion width = 0.40mm
; support material extrusion width = 0.35mm
; first layer extrusion width = 0.42mm

M73 P0 R26
M73 Q0 S26
M201 X1000 Y1000 Z1000 E5000 ; sets maximum accelerations, mm/sec^2
M203 X200 Y200 Z12 E120 ; sets maximum feedrates, mm/sec
M204 P1250 R1250 T1250 ; sets acceleration (P, T) and retract acceleration (R), mm/sec^2
M205 X8.00 Y8.00 Z0.40 E1.50 ; sets the jerk limits, mm/sec
M205 S0 T0 ; sets the minimum extruding and travel feed rate, mm/sec
M107
M115 U3.6.0 ; tell printer latest fw version
M83  ; extruder relative mode
M104 S215 ; set extruder temp
M140 S60 ; set bed temp
M190 S60 ; wait for bed temp
M109 S215 ; wait for extruder temp
G28 W ; home all without mesh bed level
G80 ; mesh bed leveling
G1 Y-3.0 F1000.0 ; go outside print area
G92 E0.0
G1 X60.0 E9.0  F1000.0 ; intro line
M73 Q0 S26
M73 P0 R26
G1 X100.0 E12.5  F1000.0 ; intro line
G92 E0.0
M221 S95
M900 K30 ; Filament gcode
G21 ; set units to millimeters
G90 ; use absolute coordinates
M83 ; use relative distances for extrusion
;BEFORE_LAYER_CHANGE
G92 E0.0
;0.2


G1 E-0.80000 F2100.00000
G1 Z0.600 F10800.000
;AFTER_LAYER_CHANGE
;0.2
G1 X113.954 Y94.452
G1 Z0.200
G1 E0.80000 F2100.00000
M204 S1000
G1 F1200
G1 X114.877 Y93.513 E0.04126
G1 X119.303 Y90.381 E0.17002
G1 X119.924 Y90.071 E0.02177
G1 X120.712 Y89.935 E0.02508
G1 X129.254 Y89.934 E0.26782
G1 X129.946 Y90.030 E0.02189
G1 X130.586 Y90.309 E0.02189
G1 X135.103 Y93.497 E0.17334
G1 X136.163 Y94.620 E0.04843
G1 X136.428 Y95.171 E0.01919
G1 X136.556 Y95.774 E0.01931
G1 X136.565 Y99.036 E0.10227
G1 X136.505 Y99.554 E0.01635
G1 X131.714 Y117.716 E0.58894
G1 X131.321 Y118.514 E0.02790
G1 X130.504 Y119.372 E0.03714
G1 X129.924 Y119.781 E0.02226
G1 X129.258 Y120.015 E0.02214
G1 X121.234 Y120.066 E0.25158
G1 X120.535 Y119.964 E0.02214
G1 X119.753 Y119.583 E0.02729
G1 X118.933 Y118.811 E0.03531
G1 X118.536 Y118.296 E0.02042
G1 X118.282 Y117.700 E0.02029
G1 X113.490 Y99.531 E0.58915
G1 X113.435 Y95.972 E0.11161
G1 X113.536 Y95.285 E0.02177
G1 X113.927 Y94.505 E0.02736
G1 X113.901 Y95.380 F10800.000
G1 F1200
G1 X114.271 Y94.659 E0.02541
G1 X115.129 Y93.794 E0.03821
G1 X119.515 Y90.693 E0.16841
G1 X120.063 Y90.422 E0.01919
G1 X120.724 Y90.312 E0.02100
G1 X129.254 Y90.311 E0.26744
G1 X129.852 Y90.396 E0.01896
G1 X130.402 Y90.639 E0.01885
G1 X134.864 Y93.789 E0.17125
G1 X135.839 Y94.813 E0.04432
G1 X136.073 Y95.299 E0.01692
G1 X136.182 Y95.831 E0.01703
G1 X136.136 Y99.475 E0.11426
G1 X131.349 Y117.618 E0.58834
G1 X131.003 Y118.311 E0.02428
G1 X130.234 Y119.108 E0.03473
G1 X129.731 Y119.456 E0.01919
G1 X129.147 Y119.652 E0.01930
G1 X121.235 Y119.688 E0.24807
G1 X120.630 Y119.599 E0.01919
G1 X119.950 Y119.260 E0.02383
G1 X119.192 Y118.537 E0.03283
G1 X118.856 Y118.097 E0.01737
G1 X118.641 Y117.586 E0.01737
G1 X113.860 Y99.459 E0.58780
G1 X113.812 Y95.978 E0.10915
G1 X113.892 Y95.439 E0.01708
G1 F8640
G1 X114.271 Y94.659 E-0.20028
G1 X115.129 Y93.794 E-0.28140
G1 X116.113 Y93.098 E-0.27831
G1 E-0.04000 F2100.00000
G1 Z0.800 F10800.000
G1 X117.741 Y97.241
G1 Z0.200
G1 E0.80000 F2100.00000
G1 F1200
G1 X121.991 Y97.241 E0.13326
G1 X121.991 Y94.241 E0.09406
G1 X128.009 Y94.241 E0.18868
G1 X128.009 Y97.241 E0.09406
G1 X132.259 Y97.241 E0.13326
G1 X132.259 Y97.759 E0.01623
G1 X128.009 Y97.759 E0.13326
G1 X128.009 Y101.279 E0.11037
G1 X127.509 Y101.779 E0.02217
G1 X127.509 Y115.759 E0.43833
G1 X122.491 Y115.759 E0.15732
G1 X122.491 Y101.779 E0.43833
G1 X121.991 Y101.279 E0.02217
G1 X121.991 Y97.759 E0.11037
G1 X117.741 Y97.759 E0.13326
G1 X117.741 Y97.301 E0.01435
G1 F8640
G1 X121.032 Y97.255 E-0.76000
G1 E-0.04000 F2100.00000
G1 Z0.800 F10800.000
G1 X128.386 Y96.864
G1 Z0.200
G1 E0.80000 F2100.00000
G1 F1200
G1 X132.636 Y96.864 E0.13326
G1 X132.636 Y98.136 E0.03987
G1 X128.386 Y98.136 E0.13326
G1 X128.386 Y101.435 E0.10344
G1 X127.886 Y101.935 E0.02217
G1 X127.886 Y116.136 E0.44526
G1 X122.114 Y116.136 E0.18097
G1 X122.114 Y101.935 E0.44526
G1 X121.614 Y101.435 E0.02217
G1 X121.614 Y98.136 E0.10344
G1 X117.364 Y98.136 E0.13326
G1 X117.364 Y96.864 E0.03987
G1 X121.614 Y96.864 E0.13326
G1 X121.614 Y93.864 E0.09406
G1 X128.386 Y93.864 E0.21232
G1 X128.386 Y96.804 E0.09218
G1 X128.763 Y96.487 F10800.000
G1 F1200
G1 X133.013 Y96.487 E0.13326
G1 X133.013 Y98.513 E0.06352
G1 X128.763 Y98.513 E0.13326
G1 X128.763 Y101.591 E0.09652
G1 X128.263 Y102.091 E0.02217
G1 X128.263 Y116.513 E0.45218
G1 X121.737 Y116.513 E0.20461
G1 X121.737 Y102.091 E0.45218
G1 X121.237 Y101.591 E0.02217
G1 X121.237 Y98.513 E0.09652
G1 X116.987 Y98.513 E0.13326
G1 X116.987 Y96.487 E0.06352
G1 X121.237 Y96.487 E0.13326
G1 X121.237 Y93.487 E0.09406
G1 X128.763 Y93.487 E0.23597
G1 X128.763 Y96.427 E0.09218
G1 X129.140 Y96.110 F10800.000
G1 F1200
G1 X133.247 Y96.110 E0.12878
G1 X133.390 Y96.253 E0.00633
G1 X133.390 Y98.747 E0.07822
G1 X133.247 Y98.890 E0.00633
G1 X129.140 Y98.890 E0.12878
G1 X129.140 Y101.747 E0.08959
G1 X128.640 Y102.247 E0.02217
G1 X128.640 Y116.890 E0.45911
G1 X121.360 Y116.890 E0.22826
G1 X121.360 Y102.247 E0.45911
G1 X120.860 Y101.747 E0.02217
G1 X120.860 Y98.890 E0.08959
G1 X116.753 Y98.890 E0.12878
G1 X116.610 Y98.747 E0.00633
G1 X116.610 Y96.253 E0.07822
G1 X116.753 Y96.110 E0.00633
G1 X120.860 Y96.110 E0.12878
G1 X120.860 Y93.253 E0.08959
G1 X121.003 Y93.110 E0.00633
G1 X128.997 Y93.110 E0.25067
G1 X129.140 Y93.253 E0.00633
G1 X129.140 Y96.050 E0.08771
G1 X129.146 Y96.510 F10800.000
G1 F8640
G1 X132.431 Y96.098 E-0.76000
G1 E-0.04000 F2100.00000
G1 Z0.800 F10800.000
G1 X127.896 Y95.133
G1 Z0.200
G1 E0.80000 F2100.00000
G1 F1200
G1 X127.287 Y94.524 E0.02754
G1 X126.743 Y94.524 E0.01740
G1 X127.726 Y95.507 E0.04447
G1 X127.726 Y96.051 E0.01740
G1 X126.199 Y94.524 E0.06908
G1 X125.655 Y94.524 E0.01740
G1 X127.726 Y96.595 E0.09369
G1 X127.726 Y97.126 E0.01696
G1 X127.712 Y97.126 E0.00044
G1 X125.111 Y94.524 E0.11768
G1 X124.567 Y94.524 E0.01740
G1 X127.537 Y97.495 E0.13439
G1 X127.537 Y97.874 E0.01215
G1 X127.726 Y97.874 E0.00603
G1 X127.726 Y98.227 E0.01129
G1 X124.023 Y94.524 E0.16753
G1 X123.479 Y94.524 E0.01740
G1 X127.726 Y98.771 E0.19214
G1 X127.726 Y99.315 E0.01740
G1 X122.935 Y94.524 E0.21675
G1 X122.391 Y94.524 E0.01740
G1 X127.726 Y99.859 E0.24136
G1 X127.726 Y100.403 E0.01740
G1 X122.274 Y94.952 E0.24663
G1 X122.274 Y95.496 E0.01740
G1 X127.726 Y100.948 E0.24663
G1 X127.726 Y101.162 E0.00685
G1 X127.561 Y101.327 E0.00746
G1 X122.274 Y96.040 E0.23917
G1 X122.274 Y96.584 E0.01740
G1 X127.289 Y101.599 E0.22686
G1 X127.226 Y101.662 E0.00285
G1 X127.226 Y102.080 E0.01337
G1 X122.463 Y97.316 E0.21548
G1 X122.463 Y97.860 E0.01740
G1 X127.226 Y102.624 E0.21548
G1 X127.226 Y103.168 E0.01740
G1 X122.274 Y98.216 E0.22401
G1 X122.274 Y98.760 E0.01740
G1 X127.226 Y103.712 E0.22401
G1 X127.226 Y104.256 E0.01740
G1 X122.274 Y99.304 E0.22401
G1 X122.274 Y99.848 E0.01740
G1 X127.226 Y104.800 E0.22401
G1 X127.226 Y105.344 E0.01740
G1 X122.274 Y100.392 E0.22401
G1 X122.274 Y100.936 E0.01740
G1 X127.226 Y105.888 E0.22401
G1 X127.226 Y106.432 E0.01740
G1 X122.774 Y101.980 E0.20139
G1 X122.774 Y102.524 E0.01740
G1 X127.226 Y106.976 E0.20139
G1 X127.226 Y107.520 E0.01740
G1 X122.774 Y103.068 E0.20139
G1 X122.774 Y103.612 E0.01740
G1 X127.226 Y108.064 E0.20139
G1 X127.226 Y108.608 E0.01740
G1 X122.774 Y104.156 E0.20139
G1 X122.774 Y104.700 E0.01740
G1 X127.226 Y109.152 E0.20139
G1 X127.226 Y109.696 E0.01740
G1 X122.774 Y105.244 E0.20139
G1 X122.774 Y105.788 E0.01740
G1 X127.226 Y110.240 E0.20139
G1 X127.226 Y110.784 E0.01740
G1 X122.774 Y106.332 E0.20139
G1 X122.774 Y106.876 E0.01740
G1 X127.226 Y111.328 E0.20139
G1 X127.226 Y111.872 E0.01740
G1 X122.774 Y107.420 E0.20139
G1 X122.774 Y107.964 E0.01740
G1 X127.226 Y112.416 E0.20139
G1 X127.226 Y112.960 E0.01740
G1 X122.774 Y108.509 E0.20139
G1 X122.774 Y109.053 E0.01740
G1 X127.226 Y113.505 E0.20139
G1 X127.226 Y114.049 E0.01740
G1 X122.774 Y109.597 E0.20139
G1 X122.774 Y110.141 E0.01740
G1 X127.226 Y114.593 E0.20139
G1 X127.226 Y115.137 E0.01740
G1 X122.774 Y110.685 E0.20139
G1 X122.774 Y111.229 E0.01740
G1 X127.021 Y115.476 E0.19213
G1 X126.477 Y115.476 E0.01740
G1 X122.774 Y111.773 E0.16752
G1 X122.774 Y112.317 E0.01740
G1 X125.933 Y115.476 E0.14291
G1 X125.389 Y115.476 E0.01740
G1 X122.774 Y112.861 E0.11830
G1 X122.774 Y113.405 E0.01740
G1 X124.845 Y115.476 E0.09369
G1 X124.301 Y115.476 E0.01740
G1 X122.774 Y113.949 E0.06908
G1 X122.774 Y114.493 E0.01740
G1 X123.757 Y115.476 E0.04447
G1 X123.213 Y115.476 E0.01740
G1 X122.604 Y114.867 E0.02753
G1 F8640
G1 X123.213 Y115.476 E-0.19875
G1 X123.757 Y115.476 E-0.12562
G1 X122.774 Y114.493 E-0.32100
G1 X122.774 Y113.997 E-0.11463
G1 E-0.04000 F2100.00000
G1 Z0.800 F10800.000
G1 X122.180 Y97.500
G1 Z0.200
G1 E0.80000 F2100.00000
G1 F1200
G1 X117.930 Y97.500 E0.04963
G1 F8640
G1 X121.221 Y97.500 E-0.76000
G1 E-0.04000 F2100.00000
G1 Z0.800 F10800.000
G1 X127.820 Y97.500
G1 Z0.200
G1 E0.80000 F2100.00000
G1 F1200
G1 X132.070 Y97.500 E0.04963
M106 S255
;BEFORE_LAYER_CHANGE
G92 E0.0
;0.4


G1 F8640
G1 X128.779 Y97.500 E-0.76000
G1 E-0.04000 F2100.00000
G1 Z0.800 F10800.000
;AFTER_LAYER_CHANGE
;0.4
G1 X136.163 Y94.620
G1 Z0.400
G1 E0.80000 F2100.00000
G1 F2127
G1 X136.428 Y95.171 E0.01919
G1 X136.556 Y95.774 E0.01931
G1 X136.565 Y99.036 E0.10227
G1 X136.505 Y99.554 E0.01635
G1 X131.714 Y117.716 E0.58894
G1 X131.321 Y118.514 E0.02790
G1 X130.504 Y119.372 E0.03714
G1 X129.924 Y119.781 E0.02226
G1 X129.258 Y120.015 E0.02214
G1 X121.234 Y120.066 E0.25158
G1 X120.535 Y119.964 E0.02214
G1 X119.753 Y119.583 E0.02729
G1 X118.933 Y118.811 E0.03531
G1 X118.536 Y118.296 E0.02042
G1 X118.282 Y117.700 E0.02029
G1 X113.490 Y99.531 E0.58915
G1 X113.435 Y95.972 E0.11161
G1 X113.536 Y95.285 E0.02177
G1 X113.954 Y94.452 E0.02924
G1 X114.877 Y93.513 E0.04126
G1 X119.303 Y90.381 E0.17002
G1 X119.924 Y90.071 E0.02177
G1 X120.712 Y89.935 E0.02508
G1 X129.254 Y89.934 E0.26782
G1 X129.946 Y90.030 E0.02189
G1 X130.586 Y90.309 E0.02189
G1 X135.103 Y93.497 E0.17334
G1 X136.122 Y94.576 E0.04654
G1 F8640
G1 X136.428 Y95.171 E-0.15455
G1 X136.556 Y95.774 E-0.14220
G1 X136.562 Y97.780 E-0.46325
G1 E-0.04000 F2100.00000
G1 Z1.000 F10800.000
G1 X132.354 Y97.146
G1 Z0.400
G1 E0.80000 F2100.00000
M204 S800
G1 F2127
G1 X132.354 Y97.854 E0.02395
G1 X128.104 Y97.854 E0.14386
G1 X128.104 Y101.318 E0.11726
G1 X127.604 Y101.818 E0.02393
G1 X127.604 Y115.854 E0.47509
G1 X122.396 Y115.854 E0.17627
G1 X122.396 Y101.818 E0.47509
G1 X121.896 Y101.318 E0.02393
G1 X121.896 Y97.854 E0.11726
G1 X117.646 Y97.854 E0.14386
G1 X117.646 Y97.146 E0.02395
G1 X121.896 Y97.146 E0.14386
G1 X121.896 Y94.146 E0.10155
G1 X128.104 Y94.146 E0.21012
G1 X128.104 Y97.146 E0.10155
G1 X132.294 Y97.146 E0.14183
M204 S1000
G1 F8640
G1 X132.354 Y97.854 E-0.16396
G1 X129.772 Y97.854 E-0.59604
G1 E-0.04000 F2100.00000
G1 Z1.000 F10800.000
G1 X128.511 Y96.739
G1 Z0.400
G1 E0.80000 F2100.00000
M204 S800
G1 F2127
G1 X132.761 Y96.739 E0.14386
G1 X132.761 Y98.261 E0.05151
G1 X128.511 Y98.261 E0.14386
G1 X128.511 Y101.487 E0.10919
G1 X128.011 Y101.987 E0.02393
G1 X128.011 Y116.261 E0.48316
G1 X121.989 Y116.261 E0.20383
G1 X121.989 Y101.987 E0.48316
G1 X121.489 Y101.487 E0.02393
G1 X121.489 Y98.261 E0.10919
G1 X117.239 Y98.261 E0.14386
G1 X117.239 Y96.739 E0.05151
G1 X121.489 Y96.739 E0.14386
G1 X121.489 Y93.739 E0.10155
G1 X128.511 Y93.739 E0.23768
G1 X128.511 Y96.679 E0.09952
M204 S1000
G1 X128.918 Y96.332 F10800.000
M204 S800
G1 F2127
G1 X133.155 Y96.332 E0.14343
G1 X133.168 Y96.345 E0.00060
G1 X133.168 Y98.655 E0.07821
G1 X133.155 Y98.668 E0.00060
G1 X128.918 Y98.668 E0.14343
G1 X128.918 Y101.655 E0.10112
G1 X128.418 Y102.155 E0.02393
G1 X128.418 Y116.668 E0.49123
G1 X121.582 Y116.668 E0.23139
G1 X121.582 Y102.155 E0.49123
G1 X121.082 Y101.655 E0.02393
G1 X121.082 Y98.668 E0.10112
G1 X116.845 Y98.668 E0.14343
G1 X116.832 Y98.655 E0.00060
G1 X116.832 Y96.345 E0.07821
G1 X116.845 Y96.332 E0.00060
G1 X121.082 Y96.332 E0.14343
G1 X121.082 Y93.345 E0.10112
G1 X121.095 Y93.332 E0.00060
G1 X128.905 Y93.332 E0.26438
G1 X128.918 Y93.345 E0.00060
G1 X128.918 Y96.272 E0.09909
M204 S1000
G1 X129.325 Y95.925 F10800.000
M204 S800
G1 F2100
G1 X133.324 Y95.925 E0.13536
G1 X133.575 Y96.176 E0.01202
G1 X133.575 Y98.824 E0.08963
G1 X133.324 Y99.075 E0.01202
G1 X129.325 Y99.075 E0.13536
G1 X129.325 Y101.824 E0.09305
G1 X128.825 Y102.324 E0.02393
G1 X128.825 Y116.907 E0.49361
G1 X128.657 Y117.075 E0.00805
G1 X121.343 Y117.075 E0.24756
G1 X121.175 Y116.907 E0.00805
G1 X121.175 Y102.324 E0.49361
G1 X120.675 Y101.824 E0.02393
G1 X120.675 Y99.075 E0.09305
G1 X116.676 Y99.075 E0.13536
G1 X116.425 Y98.824 E0.01202
G1 X116.425 Y96.176 E0.08963
G1 X116.676 Y95.925 E0.01202
G1 X120.675 Y95.925 E0.13536
G1 X120.675 Y93.176 E0.09305
G1 X120.926 Y92.925 E0.01202
G1 X129.074 Y92.925 E0.27580
G1 X129.325 Y93.176 E0.01202
G1 X129.325 Y95.865 E0.09102
M204 S1000
G1 X129.336 Y96.325 F10800.000
G1 F8640
G1 X132.616 Y95.914 E-0.76000
M73 Q4 S25
G1 E-0.04000 F2100.00000
G1 Z1.000 F10800.000
G1 X127.900 Y97.500
G1 Z0.400
G1 E0.80000 F2100.00000
G1 F2127
G1 X132.150 Y97.500 E0.10618
M73 P4 R25
G1 F8640
G1 X128.859 Y97.500 E-0.76000
G1 E-0.04000 F2100.00000
G1 Z1.000 F10800.000
G1 X127.778 Y97.568
G1 Z0.400
G1 E0.80000 F2100.00000
M204 S1250
G1 F2127
G1 X122.702 Y102.645 E0.24784
G1 X122.702 Y103.232 E0.02027
G1 X127.798 Y98.135 E0.24883
G1 X127.798 Y98.722 E0.02027
G1 X122.702 Y103.819 E0.24883
G1 X122.702 Y104.406 E0.02027
G1 X127.798 Y99.309 E0.24883
G1 X127.798 Y99.897 E0.02027
G1 X122.702 Y104.993 E0.24883
G1 X122.702 Y105.581 E0.02027
G1 X127.798 Y100.484 E0.24883
G1 X127.798 Y101.071 E0.02027
G1 X122.518 Y106.351 E0.25778
M204 S1000
G1 F8640
G1 X124.846 Y104.024 E-0.76000
G1 E-0.04000 F2100.00000
G1 Z1.000 F10800.000
G1 X122.518 Y102.241
G1 Z0.400
G1 E0.80000 F2100.00000
M204 S1250
G1 F2127
G1 X127.798 Y96.961 E0.25778
G1 X127.798 Y96.374 E0.02027
G1 X122.591 Y101.581 E0.25423
G1 X122.297 Y101.288 E0.01433
G1 X127.798 Y95.787 E0.26856
G1 X127.798 Y95.199 E0.02027
G1 X122.202 Y100.796 E0.27324
G1 X122.202 Y100.209 E0.02027
G1 X127.798 Y94.612 E0.27324
G1 X127.798 Y94.452 E0.00555
G1 X127.372 Y94.452 E0.01472
G1 X122.202 Y99.622 E0.25243
G1 X122.202 Y99.035 E0.02027
G1 X126.785 Y94.452 E0.22377
G1 X126.198 Y94.452 E0.02027
G1 X122.202 Y98.448 E0.19510
G1 X122.202 Y97.977 E0.01626
G1 X122.405 Y97.977 E0.00703
G1 X122.405 Y97.657 E0.01104
G1 X125.611 Y94.452 E0.15650
G1 X125.024 Y94.452 E0.02027
G1 X122.405 Y97.070 E0.12784
G1 X122.405 Y97.023 E0.00163
G1 X122.202 Y97.023 E0.00703
G1 X122.202 Y96.686 E0.01162
G1 X124.436 Y94.452 E0.10911
G1 X123.849 Y94.452 E0.02027
G1 X122.202 Y96.099 E0.08045
G1 X122.202 Y95.512 E0.02027
G1 X123.262 Y94.452 E0.05178
G1 X122.675 Y94.452 E0.02027
G1 X122.018 Y95.108 E0.03206
M204 S1000
G1 F8640
G1 X122.675 Y94.452 E-0.21446
G1 X123.262 Y94.452 E-0.13557
G1 X122.202 Y95.512 E-0.34637
G1 X122.202 Y95.788 E-0.06360
G1 E-0.04000 F2100.00000
G1 Z1.000 F10800.000
G1 X122.100 Y97.500
G1 Z0.400
G1 E0.80000 F2100.00000
G1 F2127
G1 X117.850 Y97.500 E0.10618
G1 F8640
G1 X121.141 Y97.500 E-0.76000
G1 E-0.04000 F2100.00000
G1 Z1.000 F10800.000
G1 X127.482 Y101.975
G1 Z0.400
G1 E0.80000 F2100.00000
M204 S1250
G1 F2127
G1 X122.702 Y106.755 E0.23337
G1 X122.702 Y107.342 E0.02027
G1 X127.298 Y102.745 E0.22442
G1 X127.298 Y103.332 E0.02027
G1 X122.702 Y107.929 E0.22442
G1 X122.702 Y108.516 E0.02027
G1 X127.298 Y103.919 E0.22442
G1 X127.298 Y104.506 E0.02027
G1 X122.702 Y109.103 E0.22442
G1 X122.702 Y109.690 E0.02027
G1 X127.298 Y105.094 E0.22442
G1 X127.298 Y105.681 E0.02027
G1 X122.702 Y110.278 E0.22442
G1 X122.702 Y110.865 E0.02027
G1 X127.298 Y106.268 E0.22442
G1 X127.298 Y106.855 E0.02027
G1 X122.702 Y111.452 E0.22442
G1 X122.702 Y112.039 E0.02027
G1 X127.298 Y107.442 E0.22442
G1 X127.298 Y108.029 E0.02027
G1 X122.702 Y112.626 E0.22442
