; generated by Slic3r Prusa Edition 1.42.0-beta2+linux64 on 2019-06-18 at 12:11:22

; 

; external perimeters extrusion width = 0.45mm
; perimeters extrusion width = 0.45mm
; infill extrusion width = 0.45mm
; solid infill extrusion width = 0.45mm
; top infill extrusion width = 0.40mm
; support material extrusion width = 0.35mm
; first layer extrusion width = 0.42mm

M73 P0 R55
M73 Q0 S55
M201 X1000 Y1000 Z1000 E5000 ; sets maximum accelerations, mm/sec^2
M203 X200 Y200 Z12 E120 ; sets maximum feedrates, mm/sec
M204 P1250 R1250 T1250 ; sets acceleration (P, T) and retract acceleration (R), mm/sec^2
M205 X8.00 Y8.00 Z0.40 E1.50 ; sets the jerk limits, mm/sec
M205 S0 T0 ; sets the minimum extruding and travel feed rate, mm/sec
M107
M115 U3.6.0 ; tell printer latest fw version
M83  ; extruder relative mode
M104 S215 ; set extruder temp
M140 S60 ; set bed temp
M190 S60 ; wait for bed temp
M109 S215 ; wait for extruder temp
G28 W ; home all without mesh bed level
G80 ; mesh bed leveling
G1 Y-3.0 F1000.0 ; go outside print area
G92 E0.0
G1 X60.0 E9.0  F1000.0 ; intro line
M73 Q0 S55
M73 P0 R55
G1 X100.0 E12.5  F1000.0 ; intro line
G92 E0.0
M221 S95
M900 K30 ; Filament gcode
G21 ; set units to millimeters
G90 ; use absolute coordinates
M83 ; use relative distances for extrusion
;BEFORE_LAYER_CHANGE
G92 E0.0
;0.2


G1 E-0.80000 F2100.00000
G1 Z0.600 F10800.000
;AFTER_LAYER_CHANGE
;0.2
G1 X90.122 Y94.876
G1 Z0.200
G1 E0.80000 F2100.00000
M204 S1000
G1 F1200
G1 X91.037 Y93.872 E0.04259
G1 X95.816 Y90.521 E0.18300
G1 X96.268 Y90.365 E0.01498
G1 X96.742 Y90.311 E0.01498
G1 X153.254 Y90.311 E1.77187
G1 X153.852 Y90.396 E0.01896
G1 X154.402 Y90.639 E0.01885
G1 X158.884 Y93.805 E0.17205
G1 X159.873 Y94.869 E0.04555
G1 X160.104 Y95.396 E0.01805
G1 X160.188 Y95.966 E0.01805
G1 X160.136 Y99.479 E0.11015
G1 X155.359 Y117.583 E0.58708
G1 X155.174 Y118.043 E0.01555
G1 X154.890 Y118.450 E0.01555
G1 X154.171 Y119.164 E0.03177
G1 X153.685 Y119.479 E0.01817
G1 X153.233 Y119.635 E0.01498
G1 X152.758 Y119.689 E0.01498
G1 X97.192 Y119.688 E1.74226
G1 X96.546 Y119.572 E0.02055
G1 X95.967 Y119.273 E0.02044
G1 X95.117 Y118.457 E0.03695
G1 X94.771 Y117.935 E0.01964
G1 X89.865 Y99.480 E0.59873
G1 X89.813 Y95.916 E0.11177
G1 X89.902 Y95.376 E0.01714
G1 X90.098 Y94.931 E0.01526
G1 F8640
G1 X91.037 Y93.872 E-0.32682
G1 X92.573 Y92.795 E-0.43318
G1 E-0.04000 F2100.00000
G1 Z0.800 F10800.000
G1 X141.741 Y97.241
G1 Z0.200
G1 E0.80000 F2100.00000
G1 F1200
G1 X145.991 Y97.241 E0.13326
G1 X145.991 Y94.241 E0.09406
G1 X152.009 Y94.241 E0.18868
G1 X152.009 Y97.241 E0.09406
G1 X156.259 Y97.241 E0.13326
G1 X156.259 Y97.759 E0.01623
G1 X152.009 Y97.759 E0.13326
G1 X152.009 Y101.279 E0.11037
G1 X151.509 Y101.779 E0.02217
G1 X151.509 Y115.759 E0.43833
G1 X146.491 Y115.759 E0.15732
G1 X146.491 Y101.779 E0.43833
G1 X145.991 Y101.279 E0.02217
G1 X145.991 Y97.759 E0.11037
G1 X141.741 Y97.759 E0.13326
G1 X141.741 Y97.301 E0.01435
G1 F8640
G1 X145.032 Y97.255 E-0.76000
G1 E-0.04000 F2100.00000
G1 Z0.800 F10800.000
G1 X152.386 Y96.864
G1 Z0.200
G1 E0.80000 F2100.00000
G1 F1200
G1 X156.636 Y96.864 E0.13326
G1 X156.636 Y98.136 E0.03987
G1 X152.386 Y98.136 E0.13326
G1 X152.386 Y101.435 E0.10344
G1 X151.886 Y101.935 E0.02217
G1 X151.886 Y116.136 E0.44526
G1 X146.114 Y116.136 E0.18097
G1 X146.114 Y101.935 E0.44526
G1 X145.614 Y101.435 E0.02217
G1 X145.614 Y98.136 E0.10344
G1 X141.364 Y98.136 E0.13326
G1 X141.364 Y96.864 E0.03987
G1 X145.614 Y96.864 E0.13326
G1 X145.614 Y93.864 E0.09406
G1 X152.386 Y93.864 E0.21232
G1 X152.386 Y96.804 E0.09218
G1 X152.763 Y96.487 F10800.000
G1 F1200
G1 X157.013 Y96.487 E0.13326
G1 X157.013 Y98.513 E0.06352
G1 X152.763 Y98.513 E0.13326
G1 X152.763 Y101.591 E0.09652
G1 X152.263 Y102.091 E0.02217
G1 X152.263 Y116.513 E0.45218
G1 X145.737 Y116.513 E0.20461
G1 X145.737 Y102.091 E0.45218
G1 X145.237 Y101.591 E0.02217
G1 X145.237 Y98.513 E0.09652
G1 X140.987 Y98.513 E0.13326
G1 X140.987 Y96.487 E0.06352
G1 X145.237 Y96.487 E0.13326
G1 X145.237 Y93.487 E0.09406
G1 X152.763 Y93.487 E0.23597
G1 X152.763 Y96.427 E0.09218
G1 X153.140 Y96.110 F10800.000
G1 F1200
G1 X157.247 Y96.110 E0.12878
G1 X157.390 Y96.253 E0.00633
G1 X157.390 Y98.747 E0.07822
G1 X157.247 Y98.890 E0.00633
G1 X153.140 Y98.890 E0.12878
G1 X153.140 Y101.747 E0.08959
G1 X152.640 Y102.247 E0.02217
G1 X152.640 Y116.890 E0.45911
G1 X145.360 Y116.890 E0.22826
G1 X145.360 Y102.247 E0.45911
G1 X144.860 Y101.747 E0.02217
G1 X144.860 Y98.890 E0.08959
G1 X140.753 Y98.890 E0.12878
G1 X140.610 Y98.747 E0.00633
G1 X140.610 Y96.253 E0.07822
G1 X140.753 Y96.110 E0.00633
G1 X144.860 Y96.110 E0.12878
G1 X144.860 Y93.253 E0.08959
G1 X145.003 Y93.110 E0.00633
G1 X152.997 Y93.110 E0.25067
G1 X153.140 Y93.253 E0.00633
G1 X153.140 Y96.050 E0.08771
G1 X153.146 Y96.510 F10800.000
G1 F8640
G1 X156.431 Y96.098 E-0.76000
G1 E-0.04000 F2100.00000
G1 Z0.800 F10800.000
G1 X151.896 Y95.133
G1 Z0.200
G1 E0.80000 F2100.00000
G1 F1200
G1 X151.287 Y94.524 E0.02754
G1 X150.743 Y94.524 E0.01740
G1 X151.726 Y95.507 E0.04447
G1 X151.726 Y96.051 E0.01740
G1 X150.199 Y94.524 E0.06908
G1 X149.655 Y94.524 E0.01740
G1 X151.726 Y96.595 E0.09369
G1 X151.726 Y97.126 E0.01696
G1 X151.712 Y97.126 E0.00044
G1 X149.111 Y94.524 E0.11768
G1 X148.567 Y94.524 E0.01740
G1 X151.537 Y97.495 E0.13439
G1 X151.537 Y97.874 E0.01215
G1 X151.726 Y97.874 E0.00603
G1 X151.726 Y98.227 E0.01129
G1 X148.023 Y94.524 E0.16753
G1 X147.479 Y94.524 E0.01740
G1 X151.726 Y98.771 E0.19214
G1 X151.726 Y99.315 E0.01740
G1 X146.935 Y94.524 E0.21675
G1 X146.391 Y94.524 E0.01740
G1 X151.726 Y99.859 E0.24136
G1 X151.726 Y100.403 E0.01740
G1 X146.274 Y94.952 E0.24663
G1 X146.274 Y95.496 E0.01740
G1 X151.726 Y100.948 E0.24663
G1 X151.726 Y101.162 E0.00685
G1 X151.561 Y101.327 E0.00746
G1 X146.274 Y96.040 E0.23917
G1 X146.274 Y96.584 E0.01740
G1 X151.289 Y101.599 E0.22686
G1 X151.226 Y101.662 E0.00285
G1 X151.226 Y102.080 E0.01337
G1 X146.463 Y97.316 E0.21548
G1 X146.463 Y97.860 E0.01740
G1 X151.226 Y102.624 E0.21548
G1 X151.226 Y103.168 E0.01740
G1 X146.274 Y98.216 E0.22401
G1 X146.274 Y98.760 E0.01740
G1 X151.226 Y103.712 E0.22401
G1 X151.226 Y104.256 E0.01740
G1 X146.274 Y99.304 E0.22401
G1 X146.274 Y99.848 E0.01740
G1 X151.226 Y104.800 E0.22401
G1 X151.226 Y105.344 E0.01740
G1 X146.274 Y100.392 E0.22401
G1 X146.274 Y100.936 E0.01740
G1 X151.226 Y105.888 E0.22401
G1 X151.226 Y106.432 E0.01740
G1 X146.774 Y101.980 E0.20139
G1 X146.774 Y102.524 E0.01740
G1 X151.226 Y106.976 E0.20139
G1 X151.226 Y107.520 E0.01740
G1 X146.774 Y103.068 E0.20139
G1 X146.774 Y103.612 E0.01740
G1 X151.226 Y108.064 E0.20139
G1 X151.226 Y108.608 E0.01740
G1 X146.774 Y104.156 E0.20139
G1 X146.774 Y104.700 E0.01740
G1 X151.226 Y109.152 E0.20139
G1 X151.226 Y109.696 E0.01740
G1 X146.774 Y105.244 E0.20139
G1 X146.774 Y105.788 E0.01740
G1 X151.226 Y110.240 E0.20139
G1 X151.226 Y110.784 E0.01740
G1 X146.774 Y106.332 E0.20139
G1 X146.774 Y106.876 E0.01740
G1 X151.226 Y111.328 E0.20139
G1 X151.226 Y111.872 E0.01740
G1 X146.774 Y107.420 E0.20139
G1 X146.774 Y107.964 E0.01740
G1 X151.226 Y112.416 E0.20139
G1 X151.226 Y112.960 E0.01740
G1 X146.774 Y108.509 E0.20139
G1 X146.774 Y109.053 E0.01740
G1 X151.226 Y113.505 E0.20139
G1 X151.226 Y114.049 E0.01740
G1 X146.774 Y109.597 E0.20139
G1 X146.774 Y110.141 E0.01740
G1 X151.226 Y114.593 E0.20139
G1 X151.226 Y115.137 E0.01740
G1 X146.774 Y110.685 E0.20139
G1 X146.774 Y111.229 E0.01740
G1 X151.021 Y115.476 E0.19213
G1 X150.477 Y115.476 E0.01740
G1 X146.774 Y111.773 E0.16752
G1 X146.774 Y112.317 E0.01740
G1 X149.933 Y115.476 E0.14291
G1 X149.389 Y115.476 E0.01740
G1 X146.774 Y112.861 E0.11830
G1 X146.774 Y113.405 E0.01740
G1 X148.845 Y115.476 E0.09369
G1 X148.301 Y115.476 E0.01740
G1 X146.774 Y113.949 E0.06908
G1 X146.774 Y114.493 E0.01740
G1 X147.757 Y115.476 E0.04447
G1 X147.213 Y115.476 E0.01740
G1 X146.604 Y114.867 E0.02753
G1 F8640
G1 X147.213 Y115.476 E-0.19875
G1 X147.757 Y115.476 E-0.12562
G1 X146.774 Y114.493 E-0.32100
G1 X146.774 Y113.997 E-0.11463
G1 E-0.04000 F2100.00000
G1 Z0.800 F10800.000
G1 X146.180 Y97.500
G1 Z0.200
G1 E0.80000 F2100.00000
G1 F1200
G1 X141.930 Y97.500 E0.04963
G1 F8640
G1 X145.221 Y97.500 E-0.76000
G1 E-0.04000 F2100.00000
G1 Z0.800 F10800.000
G1 X151.820 Y97.500
G1 Z0.200
G1 E0.80000 F2100.00000
G1 F1200
G1 X156.070 Y97.500 E0.04963
G1 F8640
G1 X152.779 Y97.500 E-0.76000
G1 E-0.04000 F2100.00000
G1 Z0.800 F10800.000
G1 X128.009 Y97.241
G1 Z0.200
G1 E0.80000 F2100.00000
G1 F1200
G1 X132.259 Y97.241 E0.13326
G1 X132.259 Y97.759 E0.01623
G1 X128.009 Y97.759 E0.13326
G1 X128.009 Y101.279 E0.11037
G1 X127.509 Y101.779 E0.02217
G1 X127.509 Y115.759 E0.43833
G1 X122.491 Y115.759 E0.15732
G1 X122.491 Y101.779 E0.43833
G1 X121.991 Y101.279 E0.02217
G1 X121.991 Y97.759 E0.11037
G1 X117.741 Y97.759 E0.13326
G1 X117.741 Y97.241 E0.01623
G1 X121.991 Y97.241 E0.13326
G1 X121.991 Y94.241 E0.09406
G1 X128.009 Y94.241 E0.18868
G1 X128.009 Y97.181 E0.09218
G1 X128.386 Y96.864 F10800.000
G1 F1200
G1 X132.636 Y96.864 E0.13326
G1 X132.636 Y98.136 E0.03987
G1 X128.386 Y98.136 E0.13326
G1 X128.386 Y101.435 E0.10344
G1 X127.886 Y101.935 E0.02217
G1 X127.886 Y116.136 E0.44526
G1 X122.114 Y116.136 E0.18097
G1 X122.114 Y101.935 E0.44526
G1 X121.614 Y101.435 E0.02217
G1 X121.614 Y98.136 E0.10344
G1 X117.364 Y98.136 E0.13326
G1 X117.364 Y96.864 E0.03987
G1 X121.614 Y96.864 E0.13326
G1 X121.614 Y93.864 E0.09406
G1 X128.386 Y93.864 E0.21232
G1 X128.386 Y96.804 E0.09218
G1 X128.763 Y96.487 F10800.000
G1 F1200
G1 X133.013 Y96.487 E0.13326
G1 X133.013 Y98.513 E0.06352
G1 X128.763 Y98.513 E0.13326
G1 X128.763 Y101.591 E0.09652
G1 X128.263 Y102.091 E0.02217
G1 X128.263 Y116.513 E0.45218
G1 X121.737 Y116.513 E0.20461
G1 X121.737 Y102.091 E0.45218
G1 X121.237 Y101.591 E0.02217
G1 X121.237 Y98.513 E0.09652
G1 X116.987 Y98.513 E0.13326
G1 X116.987 Y96.487 E0.06352
G1 X121.237 Y96.487 E0.13326
G1 X121.237 Y93.487 E0.09406
G1 X128.763 Y93.487 E0.23597
G1 X128.763 Y96.427 E0.09218
G1 X129.140 Y96.110 F10800.000
G1 F1200
G1 X133.247 Y96.110 E0.12878
G1 X133.390 Y96.253 E0.00633
G1 X133.390 Y98.747 E0.07822
G1 X133.247 Y98.890 E0.00633
G1 X129.140 Y98.890 E0.12878
G1 X129.140 Y101.747 E0.08959
G1 X128.640 Y102.247 E0.02217
G1 X128.640 Y116.890 E0.45911
M73 Q1 S54
G1 X121.360 Y116.890 E0.22826
M73 P1 R54
G1 X121.360 Y102.247 E0.45911
G1 X120.860 Y101.747 E0.02217
G1 X120.860 Y98.890 E0.08959
G1 X116.753 Y98.890 E0.12878
G1 X116.610 Y98.747 E0.00633
G1 X116.610 Y96.253 E0.07822
G1 X116.753 Y96.110 E0.00633
G1 X120.860 Y96.110 E0.12878
G1 X120.860 Y93.253 E0.08959
G1 X121.003 Y93.110 E0.00633
G1 X128.997 Y93.110 E0.25067
G1 X129.140 Y93.253 E0.00633
G1 X129.140 Y96.050 E0.08771
G1 X129.146 Y96.510 F10800.000
G1 F8640
G1 X132.431 Y96.098 E-0.76000
G1 E-0.04000 F2100.00000
G1 Z0.800 F10800.000
G1 X127.896 Y95.133
G1 Z0.200
G1 E0.80000 F2100.00000
G1 F1200
G1 X127.287 Y94.524 E0.02754
G1 X126.743 Y94.524 E0.01740
G1 X127.726 Y95.507 E0.04447
G1 X127.726 Y96.051 E0.01740
G1 X126.199 Y94.524 E0.06908
G1 X125.655 Y94.524 E0.01740
G1 X127.726 Y96.595 E0.09369
G1 X127.726 Y97.126 E0.01696
G1 X127.712 Y97.126 E0.00044
G1 X125.111 Y94.524 E0.11768
G1 X124.567 Y94.524 E0.01740
G1 X127.537 Y97.495 E0.13439
G1 X127.537 Y97.874 E0.01215
G1 X127.726 Y97.874 E0.00603
G1 X127.726 Y98.227 E0.01129
G1 X124.023 Y94.524 E0.16753
G1 X123.479 Y94.524 E0.01740
G1 X127.726 Y98.771 E0.19214
G1 X127.726 Y99.315 E0.01740
G1 X122.935 Y94.524 E0.21675
G1 X122.391 Y94.524 E0.01740
G1 X127.726 Y99.859 E0.24136
G1 X127.726 Y100.403 E0.01740
G1 X122.274 Y94.952 E0.24663
G1 X122.274 Y95.496 E0.01740
G1 X127.726 Y100.948 E0.24663
G1 X127.726 Y101.162 E0.00685
G1 X127.561 Y101.327 E0.00746
G1 X122.274 Y96.040 E0.23917
G1 X122.274 Y96.584 E0.01740
G1 X127.289 Y101.599 E0.22686
G1 X127.226 Y101.662 E0.00285
G1 X127.226 Y102.080 E0.01337
G1 X122.463 Y97.316 E0.21548
G1 X122.463 Y97.860 E0.01740
G1 X127.226 Y102.624 E0.21548
G1 X127.226 Y103.168 E0.01740
G1 X122.274 Y98.216 E0.22401
G1 X122.274 Y98.760 E0.01740
G1 X127.226 Y103.712 E0.22401
G1 X127.226 Y104.256 E0.01740
G1 X122.274 Y99.304 E0.22401
G1 X122.274 Y99.848 E0.01740
G1 X127.226 Y104.800 E0.22401
G1 X127.226 Y105.344 E0.01740
G1 X122.274 Y100.392 E0.22401
G1 X122.274 Y100.936 E0.01740
G1 X127.226 Y105.888 E0.22401
G1 X127.226 Y106.432 E0.01740
G1 X122.774 Y101.980 E0.20139
G1 X122.774 Y102.524 E0.01740
G1 X127.226 Y106.976 E0.20139
G1 X127.226 Y107.520 E0.01740
G1 X122.774 Y103.068 E0.20139
G1 X122.774 Y103.612 E0.01740
G1 X127.226 Y108.064 E0.20139
G1 X127.226 Y108.608 E0.01740
G1 X122.774 Y104.156 E0.20139
G1 X122.774 Y104.700 E0.01740
G1 X127.226 Y109.152 E0.20139
G1 X127.226 Y109.696 E0.01740
G1 X122.774 Y105.244 E0.20139
G1 X122.774 Y105.788 E0.01740
G1 X127.226 Y110.240 E0.20139
G1 X127.226 Y110.784 E0.01740
G1 X122.774 Y106.332 E0.20139
G1 X122.774 Y106.876 E0.01740
G1 X127.226 Y111.328 E0.20139
G1 X127.226 Y111.872 E0.01740
G1 X122.774 Y107.420 E0.20139
G1 X122.774 Y107.964 E0.01740
G1 X127.226 Y112.416 E0.20139
G1 X127.226 Y112.960 E0.01740
G1 X122.774 Y108.509 E0.20139
G1 X122.774 Y109.053 E0.01740
G1 X127.226 Y113.505 E0.20139
G1 X127.226 Y114.049 E0.01740
G1 X122.774 Y109.597 E0.20139
G1 X122.774 Y110.141 E0.01740
G1 X127.226 Y114.593 E0.20139
G1 X127.226 Y115.137 E0.01740
G1 X122.774 Y110.685 E0.20139
G1 X122.774 Y111.229 E0.01740
G1 X127.021 Y115.476 E0.19213
G1 X126.477 Y115.476 E0.01740
G1 X122.774 Y111.773 E0.16752
G1 X122.774 Y112.317 E0.01740
G1 X125.933 Y115.476 E0.14291
G1 X125.389 Y115.476 E0.01740
G1 X122.774 Y112.861 E0.11830
G1 X122.774 Y113.405 E0.01740
G1 X124.845 Y115.476 E0.09369
G1 X124.301 Y115.476 E0.01740
G1 X122.774 Y113.949 E0.06908
G1 X122.774 Y114.493 E0.01740
G1 X123.757 Y115.476 E0.04447
G1 X123.213 Y115.476 E0.01740
G1 X122.604 Y114.867 E0.02753
G1 F8640
G1 X123.213 Y115.476 E-0.19875
G1 X123.757 Y115.476 E-0.12562
G1 X122.774 Y114.493 E-0.32100
G1 X122.774 Y113.997 E-0.11463
G1 E-0.04000 F2100.00000
G1 Z0.800 F10800.000
G1 X122.180 Y97.500
G1 Z0.200
G1 E0.80000 F2100.00000
G1 F1200
G1 X117.930 Y97.500 E0.04963
G1 F8640
G1 X121.221 Y97.500 E-0.76000
G1 E-0.04000 F2100.00000
G1 Z0.800 F10800.000
G1 X127.820 Y97.500
G1 Z0.200
G1 E0.80000 F2100.00000
G1 F1200
G1 X132.070 Y97.500 E0.04963
G1 F8640
G1 X128.779 Y97.500 E-0.76000
G1 E-0.04000 F2100.00000
G1 Z0.800 F10800.000
G1 X104.009 Y97.241
G1 Z0.200
G1 E0.80000 F2100.00000
G1 F1200
G1 X108.259 Y97.241 E0.13326
G1 X108.259 Y97.759 E0.01623
G1 X104.009 Y97.759 E0.13326
G1 X104.009 Y101.279 E0.11037
G1 X103.509 Y101.779 E0.02217
G1 X103.509 Y115.759 E0.43833
G1 X98.491 Y115.759 E0.15732
G1 X98.491 Y101.779 E0.43833
G1 X97.991 Y101.279 E0.02217
G1 X97.991 Y97.759 E0.11037
G1 X93.741 Y97.759 E0.13326
G1 X93.741 Y97.241 E0.01623
G1 X97.991 Y97.241 E0.13326
G1 X97.991 Y94.241 E0.09406
G1 X104.009 Y94.241 E0.18868
G1 X104.009 Y97.181 E0.09218
G1 X104.386 Y96.864 F10800.000
G1 F1200
G1 X108.636 Y96.864 E0.13326
G1 X108.636 Y98.136 E0.03987
G1 X104.386 Y98.136 E0.13326
G1 X104.386 Y101.435 E0.10344
G1 X103.886 Y101.935 E0.02217
G1 X103.886 Y116.136 E0.44526
G1 X98.114 Y116.136 E0.18097
G1 X98.114 Y101.935 E0.44526
G1 X97.614 Y101.435 E0.02217
G1 X97.614 Y98.136 E0.10344
G1 X93.364 Y98.136 E0.13326
G1 X93.364 Y96.864 E0.03987
G1 X97.614 Y96.864 E0.13326
G1 X97.614 Y93.864 E0.09406
G1 X104.386 Y93.864 E0.21232
G1 X104.386 Y96.804 E0.09218
G1 X104.763 Y96.487 F10800.000
G1 F1200
G1 X109.013 Y96.487 E0.13326
G1 X109.013 Y98.513 E0.06352
G1 X104.763 Y98.513 E0.13326
G1 X104.763 Y101.591 E0.09652
G1 X104.263 Y102.091 E0.02217
G1 X104.263 Y116.513 E0.45218
G1 X97.737 Y116.513 E0.20461
G1 X97.737 Y102.091 E0.45218
G1 X97.237 Y101.591 E0.02217
G1 X97.237 Y98.513 E0.09652
G1 X92.987 Y98.513 E0.13326
G1 X92.987 Y96.487 E0.06352
G1 X97.237 Y96.487 E0.13326
G1 X97.237 Y93.487 E0.09406
G1 X104.763 Y93.487 E0.23597
G1 X104.763 Y96.427 E0.09218
G1 X105.140 Y96.110 F10800.000
G1 F1200
G1 X109.247 Y96.110 E0.12878
G1 X109.390 Y96.253 E0.00633
G1 X109.390 Y98.747 E0.07822
G1 X109.247 Y98.890 E0.00633
G1 X105.140 Y98.890 E0.12878
G1 X105.140 Y101.747 E0.08959
