; generated by Slic3r Prusa Edition 1.42.0-beta2+linux64 on 2019-06-18 at 12:04:32

; 

; external perimeters extrusion width = 0.45mm
; perimeters extrusion width = 0.45mm
; infill extrusion width = 0.45mm
; solid infill extrusion width = 0.45mm
; top infill extrusion width = 0.40mm
; first layer extrusion width = 0.42mm

M73 P0 R28
M73 Q0 S28
M201 X1000 Y1000 Z1000 E5000 ; sets maximum accelerations, mm/sec^2
M203 X200 Y200 Z12 E120 ; sets maximum feedrates, mm/sec
M204 P1250 R1250 T1250 ; sets acceleration (P, T) and retract acceleration (R), mm/sec^2
M205 X8.00 Y8.00 Z0.40 E1.50 ; sets the jerk limits, mm/sec
M205 S0 T0 ; sets the minimum extruding and travel feed rate, mm/sec
M107
M115 U3.6.0 ; tell printer latest fw version
M83  ; extruder relative mode
M104 S215 ; set extruder temp
M140 S60 ; set bed temp
M190 S60 ; wait for bed temp
M109 S215 ; wait for extruder temp
G28 W ; home all without mesh bed level
G80 ; mesh bed leveling
G1 Y-3.0 F1000.0 ; go outside print area
G92 E0.0
G1 X60.0 E9.0  F1000.0 ; intro line
M73 Q0 S28
M73 P0 R27
G1 X100.0 E12.5  F1000.0 ; intro line
G92 E0.0
M221 S95
M900 K30 ; Filament gcode
G21 ; set units to millimeters
G90 ; use absolute coordinates
M83 ; use relative distances for extrusion
;BEFORE_LAYER_CHANGE
G92 E0.0
;0.2


G1 E-0.80000 F2100.00000
G1 Z0.600 F10800.000
;AFTER_LAYER_CHANGE
;0.2
G1 X102.936 Y87.808
G1 Z0.200
G1 E0.80000 F2100.00000
M204 S1000
G1 F1200
G1 X103.275 Y87.189 E0.02213
G1 X107.098 Y83.350 E0.16987
G1 X107.654 Y82.997 E0.02066
G1 X108.287 Y82.826 E0.02055
G1 X141.468 Y82.811 E1.04036
G1 X142.281 Y82.970 E0.02597
G1 X142.974 Y83.416 E0.02586
G1 X146.652 Y87.101 E0.16324
G1 X146.996 Y87.638 E0.01998
G1 X147.170 Y88.251 E0.01998
G1 X147.188 Y121.493 E1.04230
G1 X147.064 Y122.192 E0.02225
G1 X146.725 Y122.811 E0.02213
G1 X142.897 Y126.655 E0.17010
G1 X142.329 Y127.010 E0.02100
G1 X141.680 Y127.178 E0.02100
G1 X108.507 Y127.188 E1.04014
G1 X107.808 Y127.064 E0.02225
G1 X107.189 Y126.725 E0.02213
G1 X103.345 Y122.897 E0.17009
G1 X102.990 Y122.329 E0.02100
G1 X102.822 Y121.680 E0.02100
G1 X102.812 Y88.507 E1.04014
G1 X102.926 Y87.867 E0.02037
G1 F8640
G1 X103.275 Y87.189 E-0.17619
G1 X105.059 Y85.397 E-0.58381
G1 E-0.04000 F2100.00000
G1 Z0.800 F10800.000
G1 X137.650 Y118.028
G1 Z0.200
G1 E0.80000 F2100.00000
G1 F1200
G1 X138.028 Y117.650 E0.01677
G1 X138.466 Y117.343 E0.01677
G1 X138.951 Y117.117 E0.01677
G1 X139.467 Y116.979 E0.01677
G1 X139.929 Y116.938 E0.01454
G1 X140.521 Y116.976 E0.01860
G1 X141.049 Y117.117 E0.01714
G1 X141.534 Y117.343 E0.01677
G1 X141.972 Y117.650 E0.01677
G1 X142.350 Y118.028 E0.01677
G1 X142.657 Y118.466 E0.01677
G1 X142.883 Y118.951 E0.01677
G1 X143.021 Y119.467 E0.01677
G1 X143.068 Y120.000 E0.01677
G1 X143.021 Y120.533 E0.01677
G1 X142.883 Y121.049 E0.01677
G1 X142.687 Y121.470 E0.01454
G1 X142.358 Y121.964 E0.01860
G1 X141.972 Y122.350 E0.01714
G1 X141.534 Y122.657 E0.01677
G1 X141.049 Y122.883 E0.01677
G1 X140.533 Y123.021 E0.01677
G1 X140.000 Y123.068 E0.01677
G1 X139.467 Y123.021 E0.01677
G1 X138.951 Y122.883 E0.01677
G1 X138.466 Y122.657 E0.01677
G1 X138.028 Y122.350 E0.01677
G1 X137.650 Y121.972 E0.01677
G1 X137.343 Y121.534 E0.01677
G1 X137.117 Y121.049 E0.01677
G1 X136.979 Y120.533 E0.01677
G1 X136.932 Y120.000 E0.01677
G1 X136.979 Y119.467 E0.01677
G1 X137.117 Y118.951 E0.01677
G1 X137.343 Y118.466 E0.01677
G1 X137.615 Y118.077 E0.01489
G1 X137.924 Y118.293 F10800.000
G1 F1200
G1 X138.271 Y117.940 E0.01553
G1 X138.655 Y117.671 E0.01470
G1 X139.080 Y117.473 E0.01470
G1 X139.533 Y117.352 E0.01470
G1 X139.934 Y117.316 E0.01262
G1 X140.460 Y117.350 E0.01653
G1 X140.920 Y117.473 E0.01492
G1 X141.345 Y117.671 E0.01470
G1 X141.729 Y117.940 E0.01470
G1 X142.060 Y118.271 E0.01470
G1 X142.329 Y118.655 E0.01470
G1 X142.527 Y119.080 E0.01470
G1 X142.648 Y119.533 E0.01470
G1 X142.689 Y120.000 E0.01470
G1 X142.648 Y120.467 E0.01470
G1 X142.527 Y120.920 E0.01470
G1 X142.357 Y121.284 E0.01262
G1 X142.065 Y121.724 E0.01653
G1 X141.729 Y122.060 E0.01492
G1 X141.345 Y122.329 E0.01470
G1 X140.920 Y122.527 E0.01470
G1 X140.467 Y122.648 E0.01470
G1 X140.000 Y122.689 E0.01470
G1 X139.533 Y122.648 E0.01470
G1 X139.080 Y122.527 E0.01470
G1 X138.655 Y122.329 E0.01470
G1 X138.271 Y122.060 E0.01470
G1 X137.940 Y121.729 E0.01470
G1 X137.671 Y121.345 E0.01470
G1 X137.473 Y120.920 E0.01470
G1 X137.352 Y120.467 E0.01470
G1 X137.311 Y120.000 E0.01470
G1 X137.352 Y119.533 E0.01470
G1 X137.473 Y119.080 E0.01470
G1 X137.671 Y118.655 E0.01470
G1 X137.890 Y118.343 E0.01197
G1 X138.199 Y118.559 F10800.000
G1 F1200
G1 X138.515 Y118.230 E0.01430
G1 X138.845 Y117.999 E0.01263
G1 X139.210 Y117.829 E0.01263
G1 X139.599 Y117.724 E0.01263
G1 X139.938 Y117.695 E0.01069
G1 X140.399 Y117.724 E0.01446
G1 X140.790 Y117.829 E0.01271
G1 X141.155 Y117.999 E0.01263
G1 X141.485 Y118.230 E0.01263
G1 X141.770 Y118.515 E0.01263
G1 X142.001 Y118.845 E0.01263
G1 X142.171 Y119.210 E0.01263
G1 X142.276 Y119.599 E0.01263
G1 X142.311 Y120.000 E0.01263
G1 X142.276 Y120.401 E0.01263
G1 X142.171 Y120.790 E0.01263
G1 X142.027 Y121.099 E0.01069
G1 X141.772 Y121.484 E0.01446
G1 X141.485 Y121.770 E0.01271
G1 X141.155 Y122.001 E0.01263
G1 X140.790 Y122.171 E0.01263
G1 X140.401 Y122.276 E0.01263
G1 X140.000 Y122.311 E0.01263
G1 X139.599 Y122.276 E0.01263
G1 X139.210 Y122.171 E0.01263
G1 X138.845 Y122.001 E0.01263
G1 X138.515 Y121.770 E0.01263
G1 X138.230 Y121.485 E0.01263
G1 X137.999 Y121.155 E0.01263
G1 X137.829 Y120.790 E0.01263
G1 X137.724 Y120.401 E0.01263
G1 X137.689 Y120.000 E0.01263
G1 X137.724 Y119.599 E0.01263
G1 X137.829 Y119.210 E0.01263
G1 X137.999 Y118.845 E0.01263
G1 X138.164 Y118.608 E0.00905
G1 X138.056 Y118.185 F10800.000
G1 F8640
G1 X138.515 Y118.230 E-0.11902
G1 X138.845 Y117.999 E-0.09301
G1 X139.210 Y117.829 E-0.09301
G1 X139.599 Y117.724 E-0.09301
G1 X139.938 Y117.695 E-0.07873
G1 X140.399 Y117.724 E-0.10651
G1 X140.790 Y117.829 E-0.09360
G1 X141.117 Y117.981 E-0.08311
G1 E-0.04000 F2100.00000
G1 Z0.800 F10800.000
G1 X140.012 Y93.069
G1 Z0.200
G1 E0.80000 F2100.00000
G1 F1200
G1 X139.467 Y93.021 E0.01714
G1 X138.951 Y92.883 E0.01677
G1 X138.530 Y92.687 E0.01454
G1 X138.036 Y92.358 E0.01860
G1 X137.650 Y91.972 E0.01714
G1 X137.343 Y91.534 E0.01677
G1 X137.117 Y91.049 E0.01677
G1 X136.979 Y90.533 E0.01677
G1 X136.932 Y90.000 E0.01677
G1 X136.979 Y89.467 E0.01677
G1 X137.117 Y88.951 E0.01677
G1 X137.343 Y88.466 E0.01677
G1 X137.650 Y88.028 E0.01677
G1 X138.028 Y87.650 E0.01677
G1 X138.466 Y87.343 E0.01677
G1 X138.951 Y87.117 E0.01677
G1 X139.467 Y86.979 E0.01677
G1 X139.929 Y86.938 E0.01454
G1 X140.521 Y86.976 E0.01860
G1 X141.049 Y87.117 E0.01714
G1 X141.534 Y87.343 E0.01677
G1 X141.972 Y87.650 E0.01677
G1 X142.350 Y88.028 E0.01677
G1 X142.657 Y88.466 E0.01677
G1 X142.883 Y88.951 E0.01677
G1 X143.021 Y89.467 E0.01677
G1 X143.068 Y90.000 E0.01677
G1 X143.021 Y90.533 E0.01677
G1 X142.883 Y91.049 E0.01677
G1 X142.657 Y91.534 E0.01677
G1 X142.350 Y91.972 E0.01677
G1 X141.972 Y92.350 E0.01677
G1 X141.534 Y92.657 E0.01677
G1 X141.049 Y92.883 E0.01677
G1 X140.601 Y93.003 E0.01454
G1 X140.071 Y93.062 E0.01672
G1 X140.029 Y92.687 F10800.000
G1 F1200
G1 X139.533 Y92.648 E0.01561
G1 X139.080 Y92.527 E0.01470
G1 X138.716 Y92.357 E0.01262
G1 X138.276 Y92.065 E0.01653
G1 X137.940 Y91.729 E0.01492
G1 X137.671 Y91.345 E0.01470
G1 X137.473 Y90.920 E0.01470
G1 X137.352 Y90.467 E0.01470
G1 X137.311 Y90.000 E0.01470
G1 X137.352 Y89.533 E0.01470
G1 X137.473 Y89.080 E0.01470
G1 X137.671 Y88.655 E0.01470
G1 X137.940 Y88.271 E0.01470
G1 X138.271 Y87.940 E0.01470
G1 X138.655 Y87.671 E0.01470
G1 X139.080 Y87.473 E0.01470
G1 X139.533 Y87.352 E0.01470
G1 X139.934 Y87.316 E0.01262
G1 X140.460 Y87.350 E0.01653
G1 X140.920 Y87.473 E0.01492
G1 X141.345 Y87.671 E0.01470
G1 X141.729 Y87.940 E0.01470
G1 X142.060 Y88.271 E0.01470
G1 X142.329 Y88.655 E0.01470
G1 X142.527 Y89.080 E0.01470
G1 X142.648 Y89.533 E0.01470
G1 X142.689 Y90.000 E0.01470
G1 X142.648 Y90.467 E0.01470
G1 X142.527 Y90.920 E0.01470
G1 X142.329 Y91.345 E0.01470
G1 X142.060 Y91.729 E0.01470
G1 X141.729 Y92.060 E0.01470
G1 X141.345 Y92.329 E0.01470
G1 X140.920 Y92.527 E0.01470
G1 X140.531 Y92.631 E0.01262
G1 X140.089 Y92.681 E0.01395
G1 X140.003 Y92.311 F10800.000
G1 F1200
G1 X139.599 Y92.276 E0.01271
G1 X139.210 Y92.171 E0.01263
G1 X138.901 Y92.027 E0.01069
G1 X138.516 Y91.772 E0.01446
G1 X138.230 Y91.485 E0.01271
G1 X137.999 Y91.155 E0.01263
G1 X137.829 Y90.790 E0.01263
G1 X137.724 Y90.401 E0.01263
G1 X137.689 Y90.000 E0.01263
G1 X137.724 Y89.599 E0.01263
G1 X137.829 Y89.210 E0.01263
G1 X137.999 Y88.845 E0.01263
G1 X138.230 Y88.515 E0.01263
G1 X138.515 Y88.230 E0.01263
G1 X138.845 Y87.999 E0.01263
G1 X139.210 Y87.829 E0.01263
G1 X139.599 Y87.724 E0.01263
G1 X139.938 Y87.695 E0.01069
G1 X140.399 Y87.724 E0.01446
G1 X140.790 Y87.829 E0.01271
G1 X141.155 Y87.999 E0.01263
G1 X141.485 Y88.230 E0.01263
G1 X141.770 Y88.515 E0.01263
G1 X142.001 Y88.845 E0.01263
G1 X142.171 Y89.210 E0.01263
G1 X142.276 Y89.599 E0.01263
G1 X142.311 Y90.000 E0.01263
G1 X142.276 Y90.401 E0.01263
G1 X142.171 Y90.790 E0.01263
G1 X142.001 Y91.155 E0.01263
G1 X141.770 Y91.485 E0.01263
G1 X141.485 Y91.770 E0.01263
G1 X141.155 Y92.001 E0.01263
G1 X140.790 Y92.171 E0.01263
G1 X140.461 Y92.260 E0.01069
G1 X140.062 Y92.304 E0.01258
G1 X139.803 Y92.657 F10800.000
G1 F8640
G1 X139.599 Y92.276 E-0.10722
G1 X139.210 Y92.171 E-0.09301
G1 X138.901 Y92.027 E-0.07873
G1 X138.516 Y91.772 E-0.10651
G1 X138.230 Y91.485 E-0.09360
G1 X137.999 Y91.155 E-0.09301
G1 X137.829 Y90.790 E-0.09301
G1 X137.724 Y90.401 E-0.09301
G1 X137.724 Y90.393 E-0.00191
G1 E-0.04000 F2100.00000
G1 Z0.800 F10800.000
G1 X124.961 Y106.538
G1 Z0.200
G1 E0.80000 F2100.00000
G1 F1200
G1 X125.261 Y106.966 E0.01638
G1 X125.481 Y107.439 E0.01638
G1 X125.616 Y107.944 E0.01638
G1 X125.662 Y108.464 E0.01638
G1 X125.616 Y108.984 E0.01638
G1 X125.481 Y109.489 E0.01638
G1 X125.261 Y109.962 E0.01638
G1 X124.961 Y110.390 E0.01638
G1 X124.592 Y110.759 E0.01638
G1 X124.164 Y111.059 E0.01638
G1 X123.690 Y111.280 E0.01638
G1 X123.186 Y111.415 E0.01638
G1 X122.666 Y111.460 E0.01638
G1 X122.145 Y111.415 E0.01638
G1 X121.641 Y111.280 E0.01638
G1 X121.221 Y111.084 E0.01453
G1 X120.751 Y110.770 E0.01773
G1 X120.370 Y110.390 E0.01686
G1 X120.071 Y109.962 E0.01638
G1 X119.850 Y109.489 E0.01638
G1 X119.715 Y108.984 E0.01638
G1 X119.669 Y108.464 E0.01638
G1 X119.715 Y107.944 E0.01638
G1 X119.850 Y107.439 E0.01638
G1 X120.071 Y106.966 E0.01638
G1 X120.370 Y106.538 E0.01638
G1 X120.740 Y106.169 E0.01638
G1 X121.167 Y105.869 E0.01638
G1 X121.641 Y105.648 E0.01638
G1 X122.145 Y105.513 E0.01638
G1 X122.607 Y105.473 E0.01453
G1 X123.171 Y105.509 E0.01773
G1 X123.690 Y105.648 E0.01686
G1 X124.164 Y105.869 E0.01638
G1 X124.592 Y106.169 E0.01638
G1 X124.918 Y106.496 E0.01450
G1 X124.652 Y106.762 F10800.000
G1 F1200
G1 X124.933 Y107.155 E0.01514
G1 X125.126 Y107.569 E0.01431
G1 X125.244 Y108.010 E0.01431
G1 X125.283 Y108.464 E0.01431
G1 X125.244 Y108.919 E0.01431
G1 X125.126 Y109.359 E0.01431
G1 X124.933 Y109.773 E0.01431
G1 X124.671 Y110.147 E0.01431
G1 X124.348 Y110.469 E0.01431
G1 X123.974 Y110.731 E0.01431
G1 X123.561 Y110.924 E0.01431
G1 X123.120 Y111.042 E0.01431
G1 X122.666 Y111.082 E0.01431
G1 X122.211 Y111.042 E0.01431
G1 X121.770 Y110.924 E0.01431
G1 X121.406 Y110.754 E0.01259
G1 X120.991 Y110.477 E0.01566
G1 X120.660 Y110.147 E0.01466
G1 X120.398 Y109.773 E0.01431
G1 X120.206 Y109.359 E0.01431
G1 X120.088 Y108.919 E0.01431
G1 X120.048 Y108.464 E0.01431
G1 X120.088 Y108.010 E0.01431
G1 X120.206 Y107.569 E0.01431
G1 X120.398 Y107.155 E0.01431
G1 X120.660 Y106.781 E0.01431
G1 X120.983 Y106.459 E0.01431
G1 X121.357 Y106.197 E0.01431
G1 X121.770 Y106.004 E0.01431
G1 X122.211 Y105.886 E0.01431
G1 X122.611 Y105.851 E0.01259
G1 X123.109 Y105.883 E0.01566
G1 X123.561 Y106.004 E0.01466
G1 X123.974 Y106.197 E0.01431
G1 X124.348 Y106.459 E0.01431
G1 X124.609 Y106.720 E0.01158
G1 X124.343 Y106.986 F10800.000
G1 F1200
G1 X124.605 Y107.344 E0.01391
G1 X124.770 Y107.698 E0.01224
G1 X124.871 Y108.075 E0.01224
G1 X124.905 Y108.464 E0.01224
G1 X124.871 Y108.853 E0.01224
G1 X124.770 Y109.230 E0.01224
G1 X124.605 Y109.584 E0.01224
G1 X124.381 Y109.904 E0.01224
G1 X124.105 Y110.180 E0.01224
G1 X123.785 Y110.403 E0.01224
G1 X123.431 Y110.568 E0.01224
G1 X123.054 Y110.669 E0.01224
G1 X122.666 Y110.703 E0.01224
G1 X122.277 Y110.669 E0.01224
G1 X121.900 Y110.568 E0.01224
G1 X121.592 Y110.425 E0.01066
G1 X121.231 Y110.184 E0.01359
G1 X120.950 Y109.904 E0.01245
G1 X120.726 Y109.584 E0.01224
G1 X120.561 Y109.230 E0.01224
G1 X120.460 Y108.853 E0.01224
G1 X120.426 Y108.464 E0.01224
G1 X120.460 Y108.075 E0.01224
G1 X120.561 Y107.698 E0.01224
G1 X120.726 Y107.344 E0.01224
G1 X120.950 Y107.025 E0.01224
G1 X121.226 Y106.749 E0.01224
G1 X121.546 Y106.525 E0.01224
G1 X121.900 Y106.360 E0.01224
G1 X122.277 Y106.259 E0.01224
G1 X122.615 Y106.229 E0.01066
G1 X123.048 Y106.257 E0.01359
G1 X123.431 Y106.360 E0.01245
G1 X123.785 Y106.525 E0.01224
G1 X124.105 Y106.749 E0.01224
G1 X124.300 Y106.944 E0.00866
G1 X124.091 Y107.268 F10800.000
G1 F1200
G1 X124.277 Y107.534 E0.01017
G1 X124.414 Y107.828 E0.01017
G1 X124.498 Y108.141 E0.01017
G1 X124.526 Y108.464 E0.01017
G1 X124.498 Y108.787 E0.01017
G1 X124.414 Y109.101 E0.01017
G1 X124.277 Y109.395 E0.01017
G1 X124.091 Y109.660 E0.01017
G1 X123.862 Y109.890 E0.01017
G1 X123.596 Y110.076 E0.01017
G1 X123.302 Y110.213 E0.01017
G1 X122.989 Y110.297 E0.01017
G1 X122.666 Y110.325 E0.01017
G1 X122.342 Y110.297 E0.01017
G1 X122.029 Y110.213 E0.01017
G1 X121.777 Y110.095 E0.00873
G1 X121.471 Y109.891 E0.01152
G1 X121.240 Y109.660 E0.01025
G1 X121.054 Y109.395 E0.01017
G1 X120.917 Y109.101 E0.01017
G1 X120.833 Y108.787 E0.01017
G1 X120.805 Y108.464 E0.01017
G1 X120.833 Y108.141 E0.01017
G1 X120.917 Y107.828 E0.01017
G1 X121.054 Y107.534 E0.01017
G1 X121.240 Y107.268 E0.01017
G1 X121.469 Y107.039 E0.01017
G1 X121.735 Y106.853 E0.01017
G1 X122.029 Y106.716 E0.01017
G1 X122.342 Y106.632 E0.01017
G1 X122.620 Y106.607 E0.00873
G1 X122.986 Y106.631 E0.01152
G1 X123.302 Y106.716 E0.01025
G1 X123.596 Y106.853 E0.01017
G1 X123.862 Y107.039 E0.01017
G1 X124.049 Y107.226 E0.00829
G1 X124.410 Y107.212 F10800.000
G1 F8640
G1 X124.277 Y107.534 E-0.08857
G1 X124.414 Y107.828 E-0.07490
G1 X124.498 Y108.141 E-0.07490
G1 X124.526 Y108.464 E-0.07490
G1 X124.498 Y108.787 E-0.07490
G1 X124.414 Y109.101 E-0.07490
G1 X124.277 Y109.395 E-0.07490
G1 X124.091 Y109.660 E-0.07490
G1 X123.862 Y109.890 E-0.07490
G1 X123.605 Y110.069 E-0.07226
G1 E-0.04000 F2100.00000
G1 Z0.800 F10800.000
G1 X125.641 Y104.352
G1 Z0.200
G1 E0.80000 F2100.00000
G1 F1200
G1 X125.167 Y104.131 E0.01638
G1 X124.740 Y103.831 E0.01638
G1 X124.412 Y103.504 E0.01453
G1 X124.077 Y103.048 E0.01773
G1 X123.850 Y102.561 E0.01686
G1 X123.715 Y102.056 E0.01638
G1 X123.669 Y101.536 E0.01638
G1 X123.715 Y101.016 E0.01638
G1 X123.850 Y100.511 E0.01638
G1 X124.071 Y100.038 E0.01638
G1 X124.370 Y99.610 E0.01638
G1 X124.740 Y99.241 E0.01638
G1 X125.167 Y98.941 E0.01638
G1 X125.641 Y98.720 E0.01638
G1 X126.145 Y98.585 E0.01638
G1 X126.607 Y98.545 E0.01453
G1 X127.171 Y98.581 E0.01773
G1 X127.690 Y98.720 E0.01686
G1 X128.164 Y98.941 E0.01638
G1 X128.592 Y99.241 E0.01638
G1 X128.961 Y99.610 E0.01638
G1 X129.261 Y100.038 E0.01638
G1 X129.481 Y100.511 E0.01638
G1 X129.616 Y101.016 E0.01638
G1 X129.662 Y101.536 E0.01638
G1 X129.616 Y102.056 E0.01638
G1 X129.481 Y102.561 E0.01638
G1 X129.261 Y103.034 E0.01638
G1 X128.961 Y103.462 E0.01638
G1 X128.592 Y103.831 E0.01638
G1 X128.164 Y104.131 E0.01638
G1 X127.690 Y104.352 E0.01638
G1 X127.186 Y104.487 E0.01638
G1 X126.666 Y104.532 E0.01638
G1 X126.145 Y104.487 E0.01638
G1 X125.699 Y104.367 E0.01449
G1 X125.796 Y104.003 F10800.000
G1 F1200
G1 X125.357 Y103.803 E0.01514
G1 X124.983 Y103.541 E0.01431
G1 X124.699 Y103.257 E0.01259
G1 X124.403 Y102.855 E0.01566
G1 X124.206 Y102.431 E0.01466
G1 X124.088 Y101.990 E0.01431
G1 X124.048 Y101.536 E0.01431
G1 X124.088 Y101.081 E0.01431
G1 X124.206 Y100.641 E0.01431
G1 X124.398 Y100.227 E0.01431
