; generated by SuperSlicer 2.3.55 on 2021-06-17 at 11:37:25 UTC

; 

; external perimeters extrusion width = 0.45mm
; perimeters extrusion width = 0.45mm
; infill extrusion width = 0.45mm
; solid infill extrusion width = 0.45mm
; top infill extrusion width = 0.40mm
; support material extrusion width = 0.35mm
; first layer extrusion width = 0.42mm

; object:{"name":"tablecablechainmounting","id":"tablecablechainmounting.STL id:0 copy 0","object_center":[125.000000,105.000000,0.000000],"boundingbox_center":[125.000000,105.000000,4.000000],"boundingbox_size":[40.000000,40.000000,8.000000]}
; Total objects to print: 1
M486 T1
; plater:{"center":[125.000000,105.000000,0.000000],"boundingbox_center":[125.000000,105.000000,4.000000],"boundingbox_size":[40.000000,40.000000,8.000000]}

M73 P0 R29
M73 Q0 S31
;TYPE:Custom
M862.3 P "MK3S" ; printer model check
M862.1 P0.4 ; nozzle diameter check
M115 U3.9.2 ; tell printer latest fw version
G90 ; use absolute coordinates
M83 ; extruder relative mode
M104 S215 ; set extruder temp
M140 S60 ; set bed temp
M190 S60 ; wait for bed temp
M109 S215 ; wait for extruder temp
G28 W ; home all without mesh bed level
G80 ; mesh bed leveling
G1 Y-3.0 F1000.0 ; go outside print area
G92 E0.0
G1 X60.0 E9.0 F1000.0 ; intro line
G1 X100.0 E12.5 F1000.0 ; intro line
G92 E0.0
M221 S95

; Don't change E values below. Excessive value can damage the printer.

M107
G21 ; set units to millimeters
G90 ; use absolute coordinates
M83 ; use relative distances for extrusion
M900 K0.05 ; Filament gcode LA 1.5
M900 K30 ; Filament gcode LA 1.0
M107
;LAYER_CHANGE
;Z:0.2
;HEIGHT:0.2
;BEFORE_LAYER_CHANGE
;0.2


M73 P0 R28
G1 E-0.80000 F2100.000
G1 Z0.400000 F10800.000
;AFTER_LAYER_CHANGE
;0.2
G1 X100.278 Y83.658
M73 Q0 S30
G1 Z0.200000
G1 E0.80000 F2100.000
;TYPE:Skirt
;WIDTH:0.42
G1 F1200.000
M204 P1000
G1 X104.299 Y79.717 E0.17652
G1 X105.055 Y79.205 E0.02864
G1 X105.870 Y78.793 E0.02864
G1 X106.731 Y78.487 E0.02864
G1 X107.624 Y78.293 E0.02864
G1 X108.686 Y78.211 E0.03341
G1 X141.305 Y78.211 E1.02274
G1 X142.590 Y78.328 E0.04044
G1 X143.839 Y78.675 E0.04065
G1 X145.005 Y79.241 E0.04065
G1 X146.051 Y80.007 E0.04065
G1 X149.725 Y83.661 E0.16246
G1 X150.307 Y84.331 E0.02781
G1 X151.154 Y85.749 E0.05181
G1 X151.656 Y87.330 E0.05201
G1 X151.788 Y88.673 E0.04231
G1 X151.785 Y121.517 E1.02980
G1 X151.677 Y122.557 E0.03279
G1 X151.420 Y123.570 E0.03279
G1 X151.018 Y124.536 E0.03279
G1 X150.481 Y125.433 E0.03279
G1 X149.708 Y126.356 E0.03775
G1 X146.315 Y129.748 E0.15042
G1 X145.617 Y130.347 E0.02885
G1 X144.813 Y130.871 E0.03009
G1 X143.946 Y131.283 E0.03009
G1 X143.032 Y131.576 E0.03009
G1 X142.081 Y131.746 E0.03030
G1 X108.457 Y131.784 E1.05426
G1 X107.423 Y131.674 E0.03258
G1 X106.417 Y131.416 E0.03258
G1 X105.458 Y131.015 E0.03258
G1 X104.567 Y130.481 E0.03258
G1 X103.644 Y129.708 E0.03775
G1 X100.256 Y126.320 E0.15021
G1 X99.653 Y125.617 E0.02906
G1 X99.129 Y124.813 E0.03009
G1 X98.717 Y123.946 E0.03009
G1 X98.422 Y123.026 E0.03030
G1 X98.254 Y122.081 E0.03009
G1 X98.216 Y88.457 E1.05426
G1 X98.326 Y87.423 E0.03258
G1 X98.584 Y86.417 E0.03258
G1 X98.985 Y85.458 E0.03258
G1 X99.519 Y84.567 E0.03258
G1 X100.240 Y83.704 E0.03525
;WIPE_START
G1 F8640.000
G1 X102.588 Y81.398 E-0.76000
;WIPE_END
G1 E-0.04000 F2100.000
G1 Z1.000000 F10800.000
G1 X102.368 Y84.001
G1 Z0.200000
M73 P1 R28
G1 E0.80000 F2100.000
G1 F1200.000
G1 X101.473 Y84.896 E0.03967
G1 X101.018 Y85.433 E0.02209
G1 X100.565 Y86.164 E0.02695
G1 X100.221 Y86.977 E0.02767
G1 X99.962 Y88.128 E0.03701
G1 X99.934 Y89.896 E0.05543
;WIPE_START
G1 F8640.000
G1 X99.962 Y88.128 E-0.40822
G1 X100.221 Y86.977 E-0.27256
G1 X100.355 Y86.661 E-0.07923
;WIPE_END
G1 E-0.04000 F2100.000
G1 Z0.600000 F10800.000
G1 X100.311 Y90.983
G1 Z0.200000
G1 E0.80000 F2100.000
G1 F1200.000
G1 X100.311 Y88.536 E0.07671
M73 Q1 S30
G1 X100.468 Y87.459 E0.03413
G1 X100.901 Y86.336 E0.03776
G1 X101.323 Y85.655 E0.02511
G1 X101.742 Y85.161 E0.02030
G1 X105.166 Y81.737 E0.15182
G1 X106.078 Y81.043 E0.03595
G1 X107.022 Y80.605 E0.03263
G1 X108.064 Y80.349 E0.03364
G1 X110.980 Y80.309 E0.09142
G1 X111.717 Y80.687 F10800.000
G1 F1200.000
G1 X108.130 Y80.721 E0.11247
G1 X107.154 Y80.959 E0.03149
G1 X106.273 Y81.366 E0.03044
G1 X105.431 Y82.005 E0.03315
G1 X102.010 Y85.426 E0.15168
G1 X101.656 Y85.838 E0.01702
G1 X101.254 Y86.475 E0.02364
G1 X100.839 Y87.532 E0.03559
G1 X100.688 Y88.546 E0.03213
G1 X100.688 Y91.718 E0.09947
G1 X101.065 Y92.209 E0.01941
G1 X101.065 Y88.556 E0.11455
G1 X101.203 Y87.629 E0.02938
G1 X101.587 Y86.651 E0.03294
G1 X101.966 Y86.053 E0.02220
G1 X102.278 Y85.691 E0.01498
G1 X105.696 Y82.273 E0.15154
G1 X106.465 Y81.690 E0.03029
G1 X106.902 Y81.469 E0.01534
G1 X107.550 Y81.225 E0.02172
G1 X108.180 Y81.095 E0.02015
G1 X112.208 Y81.064 E0.12631
G1 X112.690 Y81.441 E0.01920
G1 X108.625 Y81.441 E0.12746
G1 X107.672 Y81.583 E0.03022
G1 X107.048 Y81.816 E0.02088
G1 X106.622 Y82.036 E0.01503
G1 X105.954 Y82.549 E0.02642
G1 X102.546 Y85.956 E0.15109
G1 X102.269 Y86.279 E0.01334
G1 X101.921 Y86.827 E0.02036
G1 X101.660 Y87.433 E0.02070
G1 X101.495 Y88.059 E0.02027
G1 X101.441 Y88.590 E0.01675
G1 X101.441 Y92.691 E0.12858
G1 X101.820 Y92.981 E0.01496
G1 X101.818 Y88.597 E0.13746
G1 X101.929 Y87.834 E0.02419
G1 X102.254 Y87.003 E0.02798
G1 X102.814 Y86.221 E0.03014
G1 X106.220 Y82.816 E0.15101
G1 X106.817 Y82.359 E0.02357
G1 X107.195 Y82.164 E0.01334
G1 X107.765 Y81.948 E0.01911
G1 X108.299 Y81.840 E0.01711
G1 X112.980 Y81.818 E0.14675
G1 X113.269 Y82.195 E0.01490
G1 X108.629 Y82.195 E0.14548
G1 X107.871 Y82.310 E0.02406
G1 X107.325 Y82.518 E0.01831
G1 X106.622 Y82.960 E0.02604
G1 X103.082 Y86.486 E0.15666
G1 X102.588 Y87.178 E0.02666
G1 X102.370 Y87.687 E0.01735
G1 X102.237 Y88.197 E0.01653
G1 X102.195 Y88.605 E0.01287
G1 X102.196 Y93.270 E0.14626
G1 X102.573 Y93.559 E0.01489
G1 X102.607 Y88.266 E0.16596
G1 X102.725 Y87.814 E0.01464
G1 X102.922 Y87.354 E0.01569
G1 X103.350 Y86.752 E0.02319
G1 X106.859 Y83.253 E0.15535
G1 X107.474 Y82.864 E0.02283
G1 X107.973 Y82.673 E0.01675
G1 X108.631 Y82.572 E0.02088
G1 X113.559 Y82.572 E0.15449
G1 X113.721 Y82.949 E0.01287
G1 X108.632 Y82.949 E0.15956
G1 X108.013 Y83.055 E0.01968
G1 X107.624 Y83.210 E0.01313
G1 X107.095 Y83.547 E0.01968
G1 X103.489 Y87.166 E0.16020
G1 X103.255 Y87.530 E0.01356
G1 X103.080 Y87.941 E0.01399
G1 X102.949 Y88.622 E0.02176
G1 X102.950 Y93.721 E0.15986
G1 X103.327 Y93.877 E0.01279
G1 X103.326 Y88.628 E0.16457
G1 X103.435 Y88.067 E0.01793
G1 X103.785 Y87.399 E0.02363
G1 X107.328 Y83.844 E0.15737
G1 X107.774 Y83.556 E0.01664
G1 X108.485 Y83.337 E0.02334
G1 X113.880 Y83.335 E0.16916
G1 X114.036 Y83.710 E0.01274
G1 X108.525 Y83.712 E0.17281
G1 X108.235 Y83.776 E0.00928
G1 X107.925 Y83.902 E0.01051
G1 X107.576 Y84.128 E0.01303
G1 X104.081 Y87.633 E0.15520
G1 X103.788 Y88.200 E0.02002
G1 X103.703 Y88.635 E0.01389
G1 X103.704 Y94.033 E0.16925
G1 X104.080 Y94.151 E0.01238
G1 X104.080 Y88.640 E0.17279
G1 X104.141 Y88.332 E0.00985
G1 X104.375 Y87.869 E0.01626
G1 X107.826 Y84.411 E0.15317
G1 X108.073 Y84.249 E0.00927
G1 X108.566 Y84.087 E0.01626
G1 X114.152 Y84.086 E0.17513
G1 X114.201 Y84.461 E0.01187
G1 X108.612 Y84.461 E0.17523
G1 X108.226 Y84.593 E0.01280
G1 X104.673 Y88.101 E0.15655
G1 X104.457 Y88.649 E0.01847
G1 X104.457 Y94.200 E0.17406
G1 X104.834 Y94.250 E0.01193
G1 X104.834 Y88.668 E0.17504
G1 X104.976 Y88.326 E0.01160
G1 X108.388 Y84.935 E0.15082
G1 X108.668 Y84.834 E0.00933
G1 X114.250 Y84.834 E0.17504
G1 X114.300 Y85.211 E0.01193
G1 X108.705 Y85.211 E0.17543
G1 X108.566 Y85.269 E0.00470
G1 X105.269 Y88.566 E0.14621
G1 X105.211 Y88.705 E0.00470
G1 X105.211 Y94.300 E0.17543
;WIPE_START
G1 F8640.000
G1 X105.211 Y91.008 E-0.76000
;WIPE_END
G1 E-0.04000 F2100.000
G1 Z0.600000 F10800.000
G1 X104.001 Y82.368
G1 Z0.200000
G1 E0.80000 F2100.000
G1 F1200.000
G1 X105.325 Y81.099 E0.05750
G1 X105.901 Y80.710 E0.02179
G1 X106.464 Y80.426 E0.01979
G1 X107.252 Y80.134 E0.02633
G1 X108.012 Y79.976 E0.02436
G1 X109.881 Y79.932 E0.05862
;WIPE_START
G1 F8640.000
G1 X108.012 Y79.976 E-0.43167
G1 X107.252 Y80.134 E-0.17941
G1 X106.647 Y80.358 E-0.14892
;WIPE_END
G1 E-0.04000 F2100.000
G1 Z0.600000 F10800.000
G1 X135.700 Y85.211
G1 Z0.200000
G1 E0.80000 F2100.000
G1 F1200.000
G1 X141.295 Y85.211 E0.17543
G1 X141.434 Y85.269 E0.00470
G1 X144.731 Y88.566 E0.14621
G1 X144.789 Y88.705 E0.00470
G1 X144.789 Y94.300 E0.17543
G1 X145.166 Y94.250 E0.01193
G1 X145.166 Y88.668 E0.17504
G1 X145.024 Y88.326 E0.01160
G1 X141.674 Y84.976 E0.14854
G1 X141.405 Y84.849 E0.00933
G1 X135.750 Y84.834 E0.17732
G1 X135.799 Y84.461 E0.01181
G1 X141.388 Y84.461 E0.17523
M73 P2 R28
G1 X141.928 Y84.696 E0.01847
G1 X145.407 Y88.226 E0.15539
G1 X145.539 Y88.612 E0.01280
G1 X145.540 Y94.201 E0.17523
G1 X145.915 Y94.152 E0.01185
G1 X145.913 Y88.566 E0.17513
G1 X145.751 Y88.073 E0.01626
G1 X145.589 Y87.826 E0.00927
G1 X142.188 Y84.423 E0.15086
G1 X141.651 Y84.135 E0.01911
G1 X141.379 Y84.081 E0.00870
G1 X135.849 Y84.082 E0.17338
G1 X135.966 Y83.705 E0.01239
G1 X141.374 Y83.703 E0.16955
G1 X141.703 Y83.757 E0.01044
G1 X142.075 Y83.902 E0.01254
G1 X142.451 Y84.153 E0.01417
M73 Q2 S30
G1 X145.872 Y87.576 E0.15173
G1 X146.098 Y87.925 E0.01303
G1 X146.224 Y88.235 E0.01051
G1 X146.288 Y88.525 E0.00928
G1 X146.290 Y94.036 E0.17281
G1 X146.674 Y93.877 E0.01304
G1 X146.674 Y88.633 E0.16442
G1 X146.584 Y88.124 E0.01621
G1 X146.444 Y87.774 E0.01182
G1 X146.165 Y87.339 E0.01621
G1 X142.713 Y83.882 E0.15318
G1 X142.370 Y83.630 E0.01333
G1 X141.950 Y83.442 E0.01442
G1 X141.372 Y83.326 E0.01850
G1 X136.123 Y83.328 E0.16459
G1 X136.279 Y82.949 E0.01286
G1 X141.371 Y82.949 E0.15963
G1 X142.094 Y83.093 E0.02312
G1 X142.784 Y83.451 E0.02437
G1 X146.453 Y87.095 E0.16214
G1 X146.789 Y87.622 E0.01961
G1 X146.945 Y88.013 E0.01320
G1 X147.051 Y88.632 E0.01968
G1 X147.051 Y93.721 E0.15956
G1 X147.428 Y93.559 E0.01287
G1 X147.428 Y88.631 E0.15449
G1 X147.306 Y87.903 E0.02315
G1 X147.134 Y87.471 E0.01458
G1 X146.749 Y86.861 E0.02261
G1 X143.235 Y83.337 E0.15604
G1 X142.759 Y82.984 E0.01858
G1 X142.236 Y82.744 E0.01804
G1 X141.738 Y82.608 E0.01619
G1 X136.441 Y82.572 E0.16607
G1 X136.731 Y82.195 E0.01490
G1 X141.372 Y82.195 E0.14551
G1 X141.810 Y82.238 E0.01381
G1 X142.379 Y82.395 E0.01850
G1 X142.985 Y82.680 E0.02101
G1 X143.495 Y83.064 E0.02000
G1 X146.917 Y86.486 E0.15177
G1 X147.319 Y87.012 E0.02075
G1 X147.487 Y87.335 E0.01141
G1 X147.666 Y87.792 E0.01538
G1 X147.805 Y88.629 E0.02662
G1 X147.805 Y93.269 E0.14548
G1 X148.182 Y92.980 E0.01490
G1 X148.153 Y88.244 E0.14848
G1 X148.049 Y87.755 E0.01569
G1 X147.833 Y87.186 E0.01908
G1 X147.641 Y86.817 E0.01305
G1 X147.184 Y86.220 E0.02357
G1 X143.739 Y82.776 E0.15275
G1 X143.454 Y82.540 E0.01159
G1 X142.874 Y82.194 E0.02117
G1 X142.210 Y81.941 E0.02228
G1 X141.373 Y81.818 E0.02652
G1 X137.020 Y81.818 E0.13649
G1 X137.310 Y81.441 E0.01490
G1 X141.375 Y81.441 E0.12747
G1 X141.953 Y81.498 E0.01821
G1 X142.654 Y81.693 E0.02281
G1 X143.374 Y82.033 E0.02497
G1 X143.996 Y82.500 E0.02440
G1 X147.451 Y85.954 E0.15317
G1 X147.964 Y86.621 E0.02638
G1 X148.173 Y87.024 E0.01424
G1 X148.386 Y87.568 E0.01832
G1 X148.520 Y88.146 E0.01861
G1 X148.559 Y88.625 E0.01507
G1 X148.559 Y92.691 E0.12747
G1 X148.936 Y92.208 E0.01920
G1 X148.936 Y88.623 E0.11241
G1 X148.892 Y88.087 E0.01686
G1 X148.747 Y87.458 E0.02026
G1 X148.519 Y86.873 E0.01967
G1 X148.287 Y86.426 E0.01578
G1 X147.718 Y85.687 E0.02924
G1 X144.245 Y82.217 E0.15393
G1 X143.937 Y81.959 E0.01260
G1 X143.242 Y81.534 E0.02554
G1 X142.413 Y81.215 E0.02788
G1 X141.740 Y81.085 E0.02148
G1 X137.792 Y81.064 E0.12379
G1 X138.283 Y80.687 E0.01942
G1 X141.379 Y80.687 E0.09704
G1 X142.513 Y80.851 E0.03596
G1 X143.404 Y81.193 E0.02991
G1 X144.173 Y81.665 E0.02830
G1 X144.501 Y81.940 E0.01342
G1 X147.995 Y85.431 E0.15485
G1 X148.609 Y86.231 E0.03162
G1 X149.106 Y87.344 E0.03825
G1 X149.262 Y88.013 E0.02153
G1 X149.313 Y88.621 E0.01911
G1 X149.313 Y91.717 E0.09707
G1 X149.690 Y90.980 F10800.000
G1 F1200.000
G1 X149.691 Y88.618 E0.07405
G1 X149.556 Y87.555 E0.03361
G1 X149.210 Y86.571 E0.03269
G1 X148.957 Y86.078 E0.01737
G1 X148.263 Y85.166 E0.03595
G1 X144.741 Y81.648 E0.15607
G1 X144.386 Y81.353 E0.01447
G1 X143.566 Y80.853 E0.03012
G1 X142.630 Y80.492 E0.03146
G1 X141.815 Y80.335 E0.02603
G1 X139.020 Y80.309 E0.08761
;WIPE_START
G1 F8640.000
G1 X141.815 Y80.335 E-0.64522
G1 X142.303 Y80.429 E-0.11478
;WIPE_END
G1 E-0.04000 F2100.000
G1 Z0.600000 F10800.000
G1 X140.119 Y79.932
G1 Z0.200000
G1 E0.80000 F2100.000
G1 F1200.000
G1 X141.852 Y79.960 E0.05434
G1 X142.715 Y80.124 E0.02754
G1 X143.190 Y80.283 E0.01570
G1 X144.151 Y80.740 E0.03338
G1 X144.612 Y81.051 E0.01742
G1 X146.011 Y82.384 E0.06059
;WIPE_START
G1 F8640.000
G1 X144.612 Y81.051 E-0.44617
G1 X144.151 Y80.740 E-0.12829
G1 X143.425 Y80.395 E-0.18554
;WIPE_END
G1 E-0.04000 F2100.000
G1 Z0.600000 F10800.000
G1 X147.626 Y83.997
G1 Z0.200000
G1 E0.80000 F2100.000
G1 F1200.000
G1 X148.913 Y85.340 E0.05832
G1 X149.281 Y85.885 E0.02062
G1 X149.556 Y86.420 E0.01885
G1 X149.827 Y87.121 E0.02355
G1 X149.999 Y87.850 E0.02348
G1 X150.068 Y88.616 E0.02412
G1 X150.068 Y89.882 E0.03969
;WIPE_START
G1 F8640.000
G1 X150.068 Y88.616 E-0.29227
G1 X149.999 Y87.850 E-0.17764
G1 X149.827 Y87.121 E-0.17295
G1 X149.644 Y86.648 E-0.11714
;WIPE_END
G1 E-0.04000 F2100.000
G1 Z0.600000 F10800.000
G1 X149.312 Y118.282
G1 Z0.200000
G1 E0.80000 F2100.000
G1 F1200.000
G1 X149.312 Y121.453 E0.09944
G1 X149.243 Y122.095 E0.02022
G1 X149.050 Y122.821 E0.02358
G1 X148.746 Y123.525 E0.02402
G1 X148.344 Y124.162 E0.02364
G1 X147.990 Y124.574 E0.01702
G1 X144.569 Y127.995 E0.15168
G1 X144.199 Y128.316 E0.01536
G1 X143.321 Y128.846 E0.03216
G1 X142.343 Y129.192 E0.03252
G1 X141.379 Y129.313 E0.03047
G1 X138.283 Y129.313 E0.09707
G1 X137.792 Y128.936 E0.01942
G1 X141.664 Y128.922 E0.12141
G1 X142.258 Y128.825 E0.01889
G1 X142.771 Y128.666 E0.01683
G1 X143.430 Y128.369 E0.02266
G1 X144.304 Y127.727 E0.03402
G1 X147.722 Y124.309 E0.15154
G1 X148.034 Y123.947 E0.01498
G1 X148.413 Y123.349 E0.02220
G1 X148.695 Y122.694 E0.02236
G1 X148.873 Y122.023 E0.02176
G1 X148.935 Y121.444 E0.01826
G1 X148.935 Y117.791 E0.11455
G1 X148.559 Y117.309 E0.01916
G1 X148.559 Y121.410 E0.12858
G1 X148.432 Y122.275 E0.02741
G1 X148.079 Y123.173 E0.03027
G1 X147.731 Y123.721 E0.02036
G1 X147.454 Y124.044 E0.01334
G1 X144.046 Y127.451 E0.15109
G1 X143.260 Y128.033 E0.03067
G1 X142.643 Y128.312 E0.02122
G1 X142.174 Y128.457 E0.01541
G1 X141.627 Y128.547 E0.01736
G1 X137.309 Y128.559 E0.13538
G1 X137.013 Y128.173 E0.01527
G1 X141.591 Y128.171 E0.14353
G1 X142.504 Y127.961 E0.02939
G1 X143.078 Y127.702 E0.01974
G1 X143.780 Y127.184 E0.02735
G1 X147.186 Y123.779 E0.15101
G1 X147.746 Y122.997 E0.03014
G1 X147.985 Y122.440 E0.01902
G1 X148.134 Y121.872 E0.01841
G1 X148.182 Y121.403 E0.01479
G1 X148.182 Y117.020 E0.13743
M73 P3 R28
G1 X147.805 Y116.731 E0.01490
G1 X147.805 Y121.395 E0.14623
G1 X147.763 Y121.803 E0.01287
G1 X147.630 Y122.313 E0.01653
G1 X147.412 Y122.822 E0.01735
G1 X146.918 Y123.514 E0.02666
G1 X143.514 Y126.917 E0.15093
G1 X142.897 Y127.372 E0.02403
G1 X142.364 Y127.611 E0.01829
G1 X141.553 Y127.796 E0.02609
G1 X136.725 Y127.797 E0.15139
G1 X136.437 Y127.422 E0.01484
G1 X141.517 Y127.421 E0.15927
G1 X142.237 Y127.255 E0.02319
G1 X142.727 Y127.035 E0.01685
G1 X143.138 Y126.750 E0.01566
G1 X146.650 Y123.248 E0.15550
G1 X147.078 Y122.646 E0.02319
G1 X147.275 Y122.186 E0.01569
G1 X147.393 Y121.734 E0.01464
G1 X147.428 Y116.441 E0.16594
G1 X147.051 Y116.279 E0.01287
G1 X147.051 Y121.378 E0.15985
G1 X146.920 Y122.059 E0.02176
G1 X146.745 Y122.470 E0.01399
G1 X146.383 Y122.982 E0.01968
G1 X142.900 Y126.457 E0.15427
G1 X142.607 Y126.668 E0.01132
G1 X141.909 Y126.968 E0.02381
G1 X141.481 Y127.045 E0.01363
G1 X136.277 Y127.046 E0.16317
G1 X136.122 Y126.671 E0.01275
G1 X141.446 Y126.670 E0.16692
M73 Q3 S30
G1 X141.805 Y126.606 E0.01146
G1 X142.222 Y126.446 E0.01399
G1 X142.661 Y126.165 E0.01635
G1 X146.215 Y122.601 E0.15781
G1 X146.565 Y121.933 E0.02363
G1 X146.674 Y121.372 E0.01793
