; generated by SuperSlicer 2.3.55 on 2021-06-17 at 11:36:48 UTC

; 

; external perimeters extrusion width = 0.45mm
; perimeters extrusion width = 0.45mm
; infill extrusion width = 0.45mm
; solid infill extrusion width = 0.45mm
; top infill extrusion width = 0.40mm
; support material extrusion width = 0.35mm
; first layer extrusion width = 0.42mm

; object:{"name":"uno_carrier","id":"uno_carrier.STL id:0 copy 0","object_center":[125.000000,105.000000,0.000000],"boundingbox_center":[125.000000,105.000000,2.500000],"boundingbox_size":[54.000000,88.400002,5.000000]}
; Total objects to print: 1
M486 T1
; plater:{"center":[125.000000,105.000000,0.000000],"boundingbox_center":[125.000000,105.000000,2.500000],"boundingbox_size":[54.000000,88.400002,5.000000]}

M73 P0 R33
M73 Q0 S33
;TYPE:Custom
M862.3 P "MK3S" ; printer model check
M862.1 P0.4 ; nozzle diameter check
M115 U3.9.2 ; tell printer latest fw version
G90 ; use absolute coordinates
M83 ; extruder relative mode
M104 S215 ; set extruder temp
M140 S60 ; set bed temp
M190 S60 ; wait for bed temp
M109 S215 ; wait for extruder temp
G28 W ; home all without mesh bed level
G80 ; mesh bed leveling
G1 Y-3.0 F1000.0 ; go outside print area
G92 E0.0
G1 X60.0 E9.0 F1000.0 ; intro line
G1 X100.0 E12.5 F1000.0 ; intro line
G92 E0.0
M221 S95

; Don't change E values below. Excessive value can damage the printer.

M107
G21 ; set units to millimeters
G90 ; use absolute coordinates
M83 ; use relative distances for extrusion
M900 K0.05 ; Filament gcode LA 1.5
M900 K30 ; Filament gcode LA 1.0
M107
;LAYER_CHANGE
;Z:0.2
;HEIGHT:0.2
;BEFORE_LAYER_CHANGE
;0.2


M73 P0 R32
G1 E-0.80000 F2100.000
G1 Z0.400000 F10800.000
;AFTER_LAYER_CHANGE
;0.2
G1 X92.821 Y61.182
G1 Z0.200000
G1 E0.80000 F2100.000
;TYPE:Skirt
;WIDTH:0.42
G1 F1200.000
M204 P1000
G1 X93.655 Y60.058 E0.04390
G1 X94.528 Y59.120 E0.04017
G1 X99.288 Y54.975 E0.19791
G1 X100.535 Y54.251 E0.04520
G1 X101.895 Y53.793 E0.04499
G1 X103.464 Y53.612 E0.04954
G1 X136.407 Y53.611 E1.03288
G1 X137.886 Y53.767 E0.04665
G1 X149.715 Y56.419 E0.38010
G1 X151.037 Y56.802 E0.04314
G1 X152.660 Y57.506 E0.05549
G1 X153.909 Y58.262 E0.04579
G1 X154.745 Y58.889 E0.03275
G1 X155.680 Y59.743 E0.03971
G1 X156.589 Y60.777 E0.04316
G1 X157.461 Y62.047 E0.04832
G1 X158.061 Y63.181 E0.04021
G1 X158.561 Y64.440 E0.04249
G1 X158.891 Y65.625 E0.03855
G1 X159.116 Y66.977 E0.04299
G1 X159.188 Y68.275 E0.04075
G1 X159.188 Y144.233 E2.38162
G1 X159.128 Y145.409 E0.03693
G1 X158.976 Y146.456 E0.03315
G1 X158.505 Y148.218 E0.05720
G1 X157.999 Y149.446 E0.04165
G1 X157.124 Y150.985 E0.05549
G1 X156.082 Y152.329 E0.05334
G1 X154.904 Y153.474 E0.05152
G1 X153.404 Y154.566 E0.05817
G1 X152.213 Y155.213 E0.04249
G1 X150.605 Y155.842 E0.05416
G1 X148.676 Y156.271 E0.06195
G1 X147.279 Y156.382 E0.04393
G1 X102.915 Y156.388 E1.39101
G1 X101.778 Y156.327 E0.03572
G1 X100.731 Y156.173 E0.03316
G1 X98.982 Y155.705 E0.05678
G1 X97.393 Y155.022 E0.05425
G1 X95.811 Y154.043 E0.05831
G1 X94.598 Y153.025 E0.04966
G1 X93.241 Y151.501 E0.06396
G1 X92.327 Y150.082 E0.05294
G1 X91.506 Y148.247 E0.06305
G1 X91.071 Y146.701 E0.05036
G1 X90.842 Y145.048 E0.05230
G1 X90.812 Y67.824 E2.42132
M73 P1 R32
M73 Q1 S33
G1 X91.015 Y65.674 E0.06769
G1 X91.478 Y63.918 E0.05694
G1 X92.169 Y62.300 E0.05518
G1 X92.791 Y61.234 E0.03869
;WIPE_START
G1 F8640.000
G1 X93.655 Y60.058 E-0.33703
G1 X94.528 Y59.120 E-0.29580
G1 X94.943 Y58.758 E-0.12717
;WIPE_END
G1 E-0.04000 F2100.000
G1 Z1.000000 F10800.000
G1 X94.194 Y62.245
G1 Z0.200000
G1 E0.80000 F2100.000
G1 F1200.000
G1 X93.800 Y62.890 E0.02371
G1 X93.446 Y63.610 E0.02513
G1 X92.986 Y64.834 E0.04101
G1 X92.849 Y65.385 E0.01779
;WIPE_START
G1 F8640.000
G1 X92.986 Y64.834 E-0.13101
G1 X93.446 Y63.610 E-0.30203
G1 X93.800 Y62.890 E-0.18509
G1 X94.120 Y62.366 E-0.14187
;WIPE_END
G1 E-0.04000 F2100.000
G1 Z0.600000 F10800.000
G1 X92.945 Y67.187
G1 Z0.200000
G1 E0.80000 F2100.000
G1 F1200.000
G1 X93.106 Y65.902 E0.04062
G1 X93.348 Y64.941 E0.03108
G1 X93.788 Y63.768 E0.03927
G1 X94.132 Y63.068 E0.02447
G1 X94.676 Y62.179 E0.03268
G1 X95.594 Y61.049 E0.04564
G1 X96.509 Y60.670 F10800.000
G1 F1200.000
G1 X95.620 Y61.567 E0.03960
G1 X94.988 Y62.391 E0.03255
G1 X94.465 Y63.246 E0.03141
G1 X94.130 Y63.927 E0.02380
G1 X93.710 Y65.048 E0.03755
G1 X93.476 Y65.975 E0.02996
G1 X93.338 Y66.884 E0.02885
G1 X93.287 Y68.141 E0.03944
G1 X93.664 Y68.905 F10800.000
G1 F1200.000
G1 X93.713 Y66.923 E0.06217
G1 X93.846 Y66.048 E0.02774
G1 X94.071 Y65.156 E0.02885
G1 X94.472 Y64.085 E0.03584
G1 X94.798 Y63.423 E0.02313
G1 X95.300 Y62.603 E0.03015
G1 X95.907 Y61.811 E0.03130
G1 X96.588 Y61.097 E0.03094
G1 X97.375 Y60.433 E0.03229
;WIPE_START
G1 F8640.000
G1 X96.588 Y61.097 E-0.23781
G1 X95.907 Y61.811 E-0.22788
G1 X95.300 Y62.603 E-0.23054
G1 X95.155 Y62.839 E-0.06377
;WIPE_END
G1 E-0.04000 F2100.000
G1 Z0.600000 F10800.000
G1 X98.290 Y58.811
G1 Z0.200000
G1 E0.80000 F2100.000
G1 F1200.000
G1 X99.981 Y57.120 E0.07498
G1 X100.459 Y56.719 E0.01955
G1 X101.390 Y56.181 E0.03373
G1 X102.013 Y55.939 E0.02096
G1 X102.973 Y55.736 E0.03076
G1 X105.778 Y55.709 E0.08795
G1 X106.515 Y56.087 F10800.000
G1 F1200.000
G1 X103.419 Y56.087 E0.09707
G1 X102.709 Y56.156 E0.02238
G1 X102.127 Y56.298 E0.01877
G1 X101.539 Y56.527 E0.01980
G1 X100.680 Y57.024 E0.03109
G1 X100.245 Y57.390 E0.01785
G1 X98.174 Y59.460 E0.09180
G1 X98.043 Y59.537 E0.00476
G1 X97.981 Y60.012 E0.01502
G1 X98.404 Y59.763 E0.01540
G1 X100.507 Y57.660 E0.09325
G1 X100.894 Y57.335 E0.01585
G1 X101.292 Y57.073 E0.01493
G1 X102.224 Y56.663 E0.03194
G1 X102.781 Y56.526 E0.01798
G1 X103.421 Y56.464 E0.02016
G1 X107.006 Y56.464 E0.11241
G1 X107.489 Y56.841 E0.01920
G1 X103.424 Y56.841 E0.12746
G1 X102.869 Y56.893 E0.01747
G1 X102.341 Y57.022 E0.01705
G1 X101.467 Y57.408 E0.02996
G1 X100.760 Y57.941 E0.02776
G1 X98.634 Y60.066 E0.09425
G1 X97.589 Y60.743 E0.03903
G1 X96.845 Y61.373 E0.03057
G1 X96.194 Y62.057 E0.02961
G1 X95.611 Y62.816 E0.03000
G1 X95.130 Y63.601 E0.02888
G1 X94.696 Y64.524 E0.03198
G1 X94.432 Y65.263 E0.02460
G1 X94.216 Y66.121 E0.02773
G1 X94.088 Y66.961 E0.02663
G1 X94.041 Y69.396 E0.07638
G1 X94.418 Y69.888 E0.01942
G1 X94.464 Y66.999 E0.09059
G1 X94.586 Y66.194 E0.02552
G1 X94.798 Y65.356 E0.02710
G1 X95.062 Y64.623 E0.02445
G1 X95.463 Y63.778 E0.02931
G1 X95.924 Y63.027 E0.02763
G1 X96.481 Y62.301 E0.02867
G1 X97.102 Y61.648 E0.02828
G1 X97.812 Y61.047 E0.02915
G1 X98.864 Y60.370 E0.03923
G1 X101.308 Y57.966 E0.10747
G1 X101.973 Y57.572 E0.02422
G1 X102.457 Y57.381 E0.01632
G1 X102.946 Y57.262 E0.01578
G1 X103.426 Y57.218 E0.01511
G1 X107.778 Y57.218 E0.13647
G1 X108.067 Y57.595 E0.01490
G1 X103.428 Y57.595 E0.14548
G1 X102.573 Y57.740 E0.02719
G1 X102.123 Y57.918 E0.01516
G1 X101.529 Y58.272 E0.02169
G1 X101.289 Y58.479 E0.00993
G1 X99.094 Y60.673 E0.09731
G1 X98.049 Y61.341 E0.03888
G1 X97.347 Y61.936 E0.02887
G1 X96.767 Y62.546 E0.02637
G1 X96.234 Y63.240 E0.02744
G1 X95.796 Y63.956 E0.02632
G1 X95.414 Y64.759 E0.02789
G1 X95.159 Y65.466 E0.02355
G1 X94.956 Y66.267 E0.02591
G1 X94.839 Y67.037 E0.02441
G1 X94.795 Y70.181 E0.09858
G1 X95.172 Y70.470 E0.01490
G1 X95.214 Y67.075 E0.10645
G1 X95.326 Y66.340 E0.02330
G1 X95.520 Y65.576 E0.02472
G1 X95.765 Y64.896 E0.02266
G1 X96.128 Y64.134 E0.02648
G1 X96.547 Y63.452 E0.02510
G1 X97.054 Y62.791 E0.02612
G1 X97.606 Y62.210 E0.02512
G1 X98.271 Y61.646 E0.02734
G1 X99.324 Y60.976 E0.03913
G1 X101.750 Y58.578 E0.10695
G1 X102.038 Y58.384 E0.01089
G1 X102.688 Y58.099 E0.02228
G1 X103.429 Y57.972 E0.02358
G1 X108.357 Y57.972 E0.15449
G1 X108.519 Y58.349 E0.01287
G1 X103.430 Y58.349 E0.15956
G1 X102.803 Y58.458 E0.01997
G1 X102.429 Y58.607 E0.01262
G1 X101.978 Y58.879 E0.01651
G1 X99.554 Y61.279 E0.10696
G1 X98.498 Y61.947 E0.03917
G1 X97.864 Y62.485 E0.02607
G1 X97.341 Y63.036 E0.02382
G1 X96.858 Y63.664 E0.02485
G1 X96.464 Y64.305 E0.02358
G1 X96.117 Y65.032 E0.02528
G1 X95.880 Y65.686 E0.02180
G1 X95.695 Y66.414 E0.02353
G1 X95.585 Y67.155 E0.02350
G1 X95.549 Y67.867 E0.02233
G1 X95.549 Y70.759 E0.09070
G1 X95.926 Y70.930 E0.01297
G1 X95.960 Y67.191 E0.11723
G1 X96.065 Y66.487 E0.02231
G1 X96.241 Y65.797 E0.02234
G1 X96.468 Y65.170 E0.02091
G1 X96.796 Y64.485 E0.02379
G1 X97.170 Y63.877 E0.02239
G1 X97.628 Y63.281 E0.02358
G1 X98.119 Y62.763 E0.02238
G1 X98.717 Y62.254 E0.02461
G1 X99.783 Y61.583 E0.03950
G1 X102.198 Y59.185 E0.10671
G1 X102.918 Y58.817 E0.02535
G1 X103.431 Y58.726 E0.01635
G1 X108.675 Y58.726 E0.16442
G1 X108.831 Y59.103 E0.01280
G1 X103.434 Y59.103 E0.16924
G1 X103.034 Y59.176 E0.01274
G1 X102.723 Y59.302 E0.01051
G1 X102.432 Y59.481 E0.01073
G1 X100.010 Y61.890 E0.10711
G1 X98.860 Y62.619 E0.04268
G1 X97.891 Y63.554 E0.04222
G1 X97.125 Y64.669 E0.04241
G1 X96.819 Y65.307 E0.02220
G1 X96.435 Y66.561 E0.04111
G1 X96.303 Y67.871 E0.04130
G1 X96.304 Y71.086 E0.10079
G1 X96.681 Y71.242 E0.01280
G1 X96.680 Y67.874 E0.10561
G1 X96.805 Y66.635 E0.03906
G1 X97.176 Y65.430 E0.03951
G1 X97.458 Y64.846 E0.02034
G1 X97.791 Y64.304 E0.01997
G1 X98.614 Y63.333 E0.03988
G1 X99.580 Y62.569 E0.03862
G1 X100.231 Y62.202 E0.02344
G1 X102.667 Y59.775 E0.10782
G1 X103.148 Y59.535 E0.01684
G1 X103.346 Y59.489 E0.00639
G1 X108.950 Y59.488 E0.17571
G1 X108.999 Y59.861 E0.01180
G1 X103.411 Y59.861 E0.17523
G1 X103.024 Y59.993 E0.01280
G1 X100.451 Y62.516 E0.11299
G1 X99.796 Y62.878 E0.02347
G1 X99.327 Y63.211 E0.01803
G1 X98.466 Y64.041 E0.03750
G1 X97.788 Y65.027 E0.03750
G1 X97.526 Y65.570 E0.01892
G1 X97.175 Y66.709 E0.03735
G1 X97.057 Y67.879 E0.03688
G1 X97.058 Y71.367 E0.10935
G1 X97.435 Y71.416 E0.01192
G1 X97.434 Y67.880 E0.11087
G1 X97.544 Y66.782 E0.03461
G1 X97.683 Y66.239 E0.01758
G1 X98.120 Y65.207 E0.03512
G1 X98.414 Y64.730 E0.01758
G1 X99.138 Y63.875 E0.03512
G1 X100.011 Y63.188 E0.03483
G1 X100.670 Y62.830 E0.02354
G1 X103.186 Y60.335 E0.11108
G1 X103.466 Y60.234 E0.00933
G1 X109.048 Y60.234 E0.17504
G1 X109.098 Y60.611 E0.01193
G1 X103.503 Y60.611 E0.17543
G1 X103.364 Y60.669 E0.00470
G1 X100.890 Y63.143 E0.10972
G1 X100.224 Y63.499 E0.02368
G1 X99.403 Y64.144 E0.03274
G1 X98.727 Y64.940 E0.03274
G1 X98.452 Y65.385 E0.01639
G1 X98.224 Y65.855 E0.01639
G1 X97.915 Y66.853 E0.03274
G1 X97.811 Y67.883 E0.03245
G1 X97.812 Y71.466 E0.11235
;WIPE_START
G1 F8640.000
G1 X97.811 Y68.175 E-0.76000
;WIPE_END
G1 E-0.04000 F2100.000
G1 Z0.600000 F10800.000
G1 X98.799 Y57.769
M73 P2 R32
G1 Z0.200000
G1 E0.80000 F2100.000
G1 F1200.000
G1 X99.732 Y56.837 E0.04135
G1 X100.235 Y56.415 E0.02058
G1 X101.168 Y55.866 E0.03396
G1 X101.804 Y55.611 E0.02148
G1 X102.887 Y55.366 E0.03480
G1 X104.680 Y55.332 E0.05623
;WIPE_START
G1 F8640.000
G1 X102.887 Y55.366 E-0.41411
G1 X101.804 Y55.611 E-0.25628
G1 X101.444 Y55.756 E-0.08962
;WIPE_END
G1 E-0.04000 F2100.000
M73 Q2 S33
G1 Z0.600000 F10800.000
G1 X130.802 Y60.611
G1 Z0.200000
G1 E0.80000 F2100.000
G1 F1200.000
G1 X136.397 Y60.611 E0.17543
G1 X136.536 Y60.669 E0.00470
G1 X138.978 Y63.111 E0.10831
G1 X147.547 Y63.140 E0.26868
G1 X148.594 Y63.363 E0.03355
G1 X149.603 Y63.812 E0.03462
G1 X150.261 Y64.265 E0.02506
G1 X151.026 Y65.027 E0.03386
G1 X151.498 Y65.714 E0.02614
G1 X151.937 Y66.706 E0.03401
G1 X152.124 Y67.483 E0.02506
G1 X152.189 Y68.300 E0.02568
G1 X152.189 Y73.108 E0.15075
G1 X152.566 Y73.058 E0.01193
G1 X152.566 Y68.298 E0.14927
G1 X152.495 Y67.417 E0.02769
G1 X152.298 Y66.594 E0.02653
G1 X151.807 Y65.496 E0.03771
G1 X151.332 Y64.806 E0.02626
G1 X150.494 Y63.968 E0.03717
G1 X149.799 Y63.490 E0.02646
G1 X148.706 Y63.002 E0.03752
G1 X147.585 Y62.765 E0.03590
G1 X139.134 Y62.734 E0.26498
G1 X136.776 Y60.376 E0.10458
G1 X136.507 Y60.249 E0.00933
G1 X130.852 Y60.234 E0.17732
G1 X130.901 Y59.861 E0.01181
G1 X136.634 Y59.893 E0.17977
G1 X137.029 Y60.096 E0.01393
G1 X139.290 Y62.357 E0.10026
G1 X147.625 Y62.390 E0.26134
G1 X148.853 Y62.654 E0.03936
G1 X149.996 Y63.168 E0.03932
G1 X150.725 Y63.670 E0.02773
G1 X151.630 Y64.575 E0.04015
G1 X152.135 Y65.310 E0.02794
G1 X152.658 Y66.485 E0.04034
G1 X152.866 Y67.350 E0.02789
G1 X152.943 Y68.296 E0.02978
G1 X152.943 Y73.009 E0.14775
G1 X153.320 Y72.959 E0.01193
G1 X153.320 Y68.296 E0.14621
G1 X153.187 Y67.014 E0.04041
G1 X153.005 Y66.330 E0.02220
G1 X152.760 Y65.701 E0.02113
G1 X152.448 Y65.099 E0.02128
G1 X151.915 Y64.327 E0.02940
G1 X151.455 Y63.818 E0.02150
G1 X150.955 Y63.371 E0.02104
G1 X150.193 Y62.847 E0.02901
G1 X149.576 Y62.529 E0.02176
G1 X148.970 Y62.295 E0.02034
G1 X148.373 Y62.132 E0.01942
G1 X147.598 Y62.010 E0.02460
G1 X139.447 Y61.980 E0.25559
G1 X137.276 Y59.811 E0.09623
G1 X136.770 Y59.541 E0.01797
G1 X136.480 Y59.481 E0.00927
G1 X130.951 Y59.482 E0.17338
G1 X131.069 Y59.103 E0.01245
G1 X136.623 Y59.119 E0.17415
G1 X137.219 Y59.322 E0.01974
G1 X137.468 Y59.481 E0.00928
G1 X139.603 Y61.603 E0.09437
G1 X147.620 Y61.633 E0.25139
G1 X148.470 Y61.768 E0.02696
G1 X149.092 Y61.939 E0.02024
G1 X149.745 Y62.192 E0.02196
G1 X150.389 Y62.525 E0.02273
G1 X151.185 Y63.072 E0.03030
G1 X151.722 Y63.551 E0.02254
G1 X152.208 Y64.090 E0.02274
G1 X152.769 Y64.901 E0.03095
G1 X153.101 Y65.540 E0.02256
G1 X153.363 Y66.212 E0.02263
G1 X153.557 Y66.942 E0.02368
G1 X153.697 Y68.294 E0.04261
G1 X153.697 Y72.824 E0.14203
G1 X154.074 Y72.667 E0.01280
G1 X154.036 Y67.565 E0.15999
G1 X153.927 Y66.869 E0.02210
G1 X153.721 Y66.094 E0.02513
G1 X153.442 Y65.379 E0.02407
G1 X153.090 Y64.703 E0.02390
G1 X152.502 Y63.854 E0.03238
G1 X151.987 Y63.283 E0.02410
G1 X151.415 Y62.774 E0.02400
G1 X150.586 Y62.203 E0.03157
G1 X149.913 Y61.854 E0.02379
G1 X149.213 Y61.581 E0.02355
G1 X148.566 Y61.403 E0.02104
G1 X147.653 Y61.258 E0.02899
G1 X139.759 Y61.226 E0.24751
G1 X137.691 Y59.177 E0.09128
G1 X137.030 Y58.834 E0.02334
G1 X136.473 Y58.726 E0.01779
G1 X131.225 Y58.726 E0.16456
G1 X131.381 Y58.349 E0.01280
G1 X136.758 Y58.376 E0.16858
G1 X137.561 Y58.650 E0.02660
G1 X137.883 Y58.849 E0.01190
G1 X139.915 Y60.849 E0.08938
G1 X147.677 Y60.881 E0.24337
G1 X148.662 Y61.038 E0.03126
G1 X149.332 Y61.223 E0.02179
G1 X150.078 Y61.515 E0.02514
G1 X151.319 Y62.229 E0.04488
G1 X152.252 Y63.015 E0.03825
G1 X153.066 Y63.974 E0.03943
G1 X153.783 Y65.217 E0.04499
G1 X154.079 Y65.975 E0.02554
G1 X154.297 Y66.795 E0.02659
G1 X154.411 Y67.526 E0.02321
G1 X154.451 Y72.511 E0.15630
G1 X154.828 Y72.327 E0.01315
G1 X154.828 Y68.287 E0.12668
G1 X154.786 Y67.488 E0.02510
G1 X154.664 Y66.704 E0.02487
G1 X154.437 Y65.857 E0.02750
G1 X154.128 Y65.064 E0.02666
G1 X153.744 Y64.327 E0.02606
G1 X153.380 Y63.765 E0.02102
G1 X152.550 Y62.780 E0.04036
G1 X151.917 Y62.209 E0.02675
G1 X151.028 Y61.590 E0.03395
G1 X150.081 Y61.105 E0.03335
G1 X149.316 Y60.824 E0.02556
G1 X148.591 Y60.635 E0.02350
G1 X147.732 Y60.507 E0.02721
G1 X140.071 Y60.472 E0.24021
M73 Q2 S32
G1 X138.076 Y58.524 E0.08745
G1 X137.714 Y58.305 E0.01324
G1 X137.239 Y58.108 E0.01613
G1 X136.821 Y58.005 E0.01349
G1 X131.543 Y57.972 E0.16550
G1 X131.833 Y57.595 E0.01490
G1 X136.865 Y57.630 E0.15778
G1 X137.315 Y57.736 E0.01451
G1 X137.818 Y57.936 E0.01697
G1 X138.379 Y58.278 E0.02060
G1 X140.228 Y60.095 E0.08128
G1 X143.468 Y60.095 E0.10158
G1 X143.178 Y59.718 E0.01490
G1 X140.384 Y59.718 E0.08761
G1 X138.606 Y57.977 E0.07799
G1 X137.963 Y57.588 E0.02357
G1 X137.419 Y57.373 E0.01834
G1 X136.475 Y57.218 E0.03000
G1 X132.122 Y57.218 E0.13649
G1 X132.411 Y56.841 E0.01490
G1 X136.477 Y56.841 E0.12747
G1 X136.952 Y56.880 E0.01495
G1 X137.451 Y56.989 E0.01602
G1 X138.084 Y57.229 E0.02121
G1 X138.822 Y57.667 E0.02692
G1 X140.540 Y59.341 E0.07520
G1 X142.889 Y59.341 E0.07365
G1 X142.406 Y58.964 E0.01920
G1 X140.696 Y58.964 E0.05362
G1 X139.000 Y57.330 E0.07383
G1 X138.205 Y56.871 E0.02879
G1 X137.544 Y56.623 E0.02214
G1 X137.007 Y56.507 E0.01724
G1 X136.478 Y56.464 E0.01661
G1 X132.894 Y56.464 E0.11240
G1 X133.385 Y56.087 E0.01942
G1 X136.480 Y56.087 E0.09704
G1 X137.015 Y56.127 E0.01680
G1 X137.629 Y56.255 E0.01967
G1 X138.350 Y56.523 E0.02413
G1 X139.194 Y57.005 E0.03046
G1 X139.540 Y57.282 E0.01390
G1 X140.852 Y58.587 E0.05802
G1 X141.915 Y58.587 E0.03331
G1 X141.361 Y58.209 E0.02101
G1 X141.009 Y58.209 E0.01105
G1 X139.759 Y56.973 E0.05511
