; generated by SuperSlicer 2.3.55 on 2021-06-22 at 17:20:10 UTC

; 

; external perimeters extrusion width = 0.45mm
; perimeters extrusion width = 0.45mm
; infill extrusion width = 0.45mm
; solid infill extrusion width = 0.45mm
; top infill extrusion width = 0.40mm
; support material extrusion width = 0.35mm
; first layer extrusion width = 0.42mm

; object:{"name":"xaxisendstopmounting","id":"xaxisendstopmounting.STL id:0 copy 0","object_center":[125.000000,105.000000,0.000000],"boundingbox_center":[125.000000,105.000000,11.750000],"boundingbox_size":[60.000000,17.500000,23.500000]}
; Total objects to print: 1
M486 T1
; plater:{"center":[125.000000,105.000000,0.000000],"boundingbox_center":[125.000000,105.000000,11.750000],"boundingbox_size":[60.000000,17.500000,23.500000]}

M73 P0 R50
M73 Q0 S50
;TYPE:Custom
M862.3 P "MK3S" ; printer model check
M862.1 P0.4 ; nozzle diameter check
M115 U3.9.2 ; tell printer latest fw version
G90 ; use absolute coordinates
M83 ; extruder relative mode
M104 S215 ; set extruder temp
M140 S60 ; set bed temp
M190 S60 ; wait for bed temp
M109 S215 ; wait for extruder temp
G28 W ; home all without mesh bed level
G80 ; mesh bed leveling
G1 Y-3.0 F1000.0 ; go outside print area
G92 E0.0
G1 X60.0 E9.0 F1000.0 ; intro line
G1 X100.0 E12.5 F1000.0 ; intro line
G92 E0.0
M221 S95

; Don't change E values below. Excessive value can damage the printer.

M107
G21 ; set units to millimeters
G90 ; use absolute coordinates
M83 ; use relative distances for extrusion
M900 K0.05 ; Filament gcode LA 1.5
M900 K30 ; Filament gcode LA 1.0
;LAYER_CHANGE
;Z:0.2
;HEIGHT:0.2
;BEFORE_LAYER_CHANGE
;0.2


G1 E-0.80000 F2100.000
G1 Z0.400000 F10800.000
;AFTER_LAYER_CHANGE
;0.2
G1 X89.878 Y99.706
G1 Z0.200000
G1 E0.80000 F2100.000
;TYPE:Skirt
;WIDTH:0.42
G1 F1200.000
M204 P1000
G1 X90.512 Y99.134 E0.02678
G1 X91.204 Y98.645 E0.02657
G1 X91.955 Y98.238 E0.02678
G1 X122.360 Y86.121 E1.02624
G1 X123.591 Y85.758 E0.04024
G1 X124.966 Y85.618 E0.04334
G1 X155.166 Y85.618 E0.94692
M73 P0 R49
G1 X156.497 Y85.742 E0.04189
G1 X157.781 Y86.111 E0.04189
G1 X158.975 Y86.710 E0.04189
G1 X160.033 Y87.516 E0.04169
G1 X160.928 Y88.508 E0.04189
G1 X161.624 Y89.648 E0.04189
G1 X162.097 Y90.898 E0.04189
G1 X162.330 Y92.213 E0.04189
G1 X162.355 Y96.118 E0.12243
G1 X162.188 Y113.824 E0.55520
G1 X162.106 Y114.834 E0.03175
G1 X161.921 Y115.694 E0.02760
G1 X161.629 Y116.532 E0.02781
G1 X161.239 Y117.321 E0.02760
G1 X160.755 Y118.057 E0.02760
G1 X160.181 Y118.733 E0.02781
G1 X159.533 Y119.329 E0.02761
G1 X158.817 Y119.841 E0.02760
G1 X158.044 Y120.262 E0.02760
G1 X156.593 Y120.760 E0.04809
G1 X155.076 Y120.938 E0.04788
G1 X94.642 Y120.930 E1.89486
G1 X93.676 Y120.816 E0.03051
G1 X92.734 Y120.572 E0.03051
G1 X91.834 Y120.204 E0.03051
G1 X90.991 Y119.717 E0.03051
G1 X90.222 Y119.121 E0.03051
G1 X89.541 Y118.427 E0.03051
G1 X88.959 Y117.647 E0.03051
G1 X88.488 Y116.795 E0.03051
G1 X88.016 Y115.454 E0.04458
G1 X87.818 Y114.046 E0.04458
G1 X87.812 Y104.671 E0.29396
G1 X87.933 Y103.433 E0.03900
G1 X88.139 Y102.604 E0.02678
G1 X88.442 Y101.806 E0.02678
G1 X88.838 Y101.049 E0.02678
G1 X89.316 Y100.349 E0.02657
G1 X89.838 Y99.751 E0.02489
;WIPE_START
G1 F8640.000
G1 X90.512 Y99.134 E-0.21095
G1 X91.204 Y98.645 E-0.19566
G1 X91.955 Y98.238 E-0.19718
G1 X92.583 Y97.988 E-0.15621
;WIPE_END
G1 E-0.04000 F2100.000
G1 Z1.000000 F10800.000
G1 X89.533 Y105.933
G1 Z0.200000
G1 E0.80000 F2100.000
G1 F1200.000
G1 X89.532 Y104.615 E0.04133
G1 X89.590 Y103.945 E0.02108
G1 X89.753 Y103.247 E0.02248
G1 X90.251 Y102.106 E0.03903
G1 X90.934 Y101.195 E0.03572
G1 X91.654 Y100.495 E0.03148
G1 X92.207 Y100.092 E0.02145
G1 X93.292 Y99.572 E0.03773
G1 X94.316 Y99.322 E0.03303
G1 X96.183 Y99.283 E0.05856
;WIPE_START
G1 F8640.000
G1 X94.316 Y99.322 E-0.43127
G1 X93.292 Y99.572 E-0.24327
G1 X92.958 Y99.732 E-0.08546
;WIPE_END
G1 E-0.04000 F2100.000
G1 Z0.600000 F10800.000
G1 X97.281 Y99.661
G1 Z0.200000
G1 E0.80000 F2100.000
G1 F1200.000
G1 X94.788 Y99.661 E0.07817
G1 X93.811 Y99.805 E0.03096
G1 X92.793 Y100.193 E0.03416
G1 X92.483 Y100.364 E0.01111
G1 X91.771 Y100.895 E0.02786
G1 X91.174 Y101.490 E0.02642
G1 X90.610 Y102.240 E0.02942
G1 X90.379 Y102.678 E0.01551
G1 X90.011 Y103.749 E0.03554
G1 X89.909 Y104.632 E0.02784
G1 X89.912 Y107.034 E0.07531
;WIPE_START
G1 F8640.000
G1 X89.909 Y104.632 E-0.55464
G1 X90.011 Y103.749 E-0.20503
G1 X90.012 Y103.748 E-0.00033
;WIPE_END
G1 E-0.04000 F2100.000
G1 Z0.600000 F10800.000
G1 X91.041 Y108.739
G1 Z0.200000
G1 E0.80000 F2100.000
G1 F1200.000
G1 X91.069 Y104.250 E0.14075
G1 X91.173 Y103.760 E0.01570
G1 X91.385 Y103.201 E0.01875
G1 X91.554 Y102.866 E0.01178
G1 X92.021 Y102.240 E0.02447
G1 X92.626 Y101.649 E0.02654
G1 X93.042 Y101.349 E0.01608
G1 X93.418 Y101.149 E0.01333
G1 X94.133 Y100.890 E0.02387
G1 X94.869 Y100.791 E0.02328
G1 X98.989 Y100.791 E0.12917
G1 X98.507 Y100.414 E0.01919
G1 X94.453 Y100.445 E0.12710
G1 X93.680 Y100.635 E0.02495
G1 X93.241 Y100.815 E0.01487
G1 X92.383 Y101.360 E0.03187
G1 X91.501 Y102.269 E0.03973
G1 X91.233 Y102.667 E0.01503
G1 X90.835 Y103.575 E0.03110
G1 X90.703 Y104.153 E0.01860
G1 X90.664 Y104.632 E0.01505
G1 X90.664 Y108.257 E0.11367
G1 X90.287 Y107.765 E0.01944
G1 X90.313 Y104.217 E0.11124
G1 X90.528 Y103.308 E0.02928
G1 X90.777 Y102.718 E0.02009
G1 X91.386 Y101.816 E0.03413
G1 X92.385 Y100.881 E0.04291
G1 X92.925 Y100.549 E0.01988
G1 X93.891 Y100.174 E0.03249
G1 X94.861 Y100.037 E0.03072
G1 X98.015 Y100.037 E0.09888
;WIPE_START
G1 F8640.000
G1 X94.861 Y100.037 E-0.72821
G1 X94.725 Y100.056 E-0.03179
;WIPE_END
G1 E-0.04000 F2100.000
G1 Z0.600000 F10800.000
G1 X90.287 Y110.735
G1 Z0.200000
G1 E0.80000 F2100.000
G1 F1200.000
G1 X90.287 Y113.890 E0.09892
G1 X90.424 Y114.859 E0.03069
G1 X90.814 Y115.853 E0.03347
G1 X91.186 Y116.439 E0.02178
G1 X92.280 Y117.541 E0.04869
G1 X93.094 Y118.032 E0.02982
G1 X93.529 Y118.212 E0.01473
G1 X94.425 Y118.431 E0.02894
G1 X98.018 Y118.461 E0.11266
G1 X98.508 Y118.085 E0.01935
G1 X94.807 Y118.085 E0.11605
G1 X94.312 Y118.032 E0.01559
G1 X93.739 Y117.886 E0.01855
G1 X93.136 Y117.635 E0.02049
G1 X92.638 Y117.336 E0.01821
G1 X92.256 Y117.027 E0.01539
G1 X91.629 Y116.388 E0.02808
G1 X91.294 Y115.932 E0.01776
G1 X91.065 Y115.509 E0.01508
G1 X90.785 Y114.751 E0.02533
G1 X90.697 Y114.309 E0.01413
G1 X90.664 Y110.243 E0.12750
G1 X91.041 Y109.761 E0.01918
G1 X91.042 Y113.927 E0.13063
G1 X91.151 Y114.658 E0.02318
G1 X91.399 Y115.332 E0.02252
G1 X91.610 Y115.727 E0.01403
G1 X91.914 Y116.141 E0.01610
G1 X92.515 Y116.752 E0.02687
G1 X93.303 Y117.297 E0.03005
G1 X93.861 Y117.529 E0.01893
G1 X94.381 Y117.661 E0.01685
G1 X94.818 Y117.708 E0.01378
G1 X98.990 Y117.708 E0.13079
G1 X99.279 Y117.331 E0.01491
G1 X94.819 Y117.331 E0.13986
G1 X93.922 Y117.151 E0.02867
G1 X93.363 Y116.903 E0.01917
G1 X92.757 Y116.462 E0.02349
G1 X92.067 Y115.729 E0.03159
G1 X91.801 Y115.299 E0.01585
G1 X91.577 Y114.767 E0.01810
G1 X91.418 Y113.876 E0.02837
G1 X91.418 Y104.632 E0.28984
G1 X91.565 Y103.770 E0.02741
G1 X91.937 Y102.962 E0.02790
G1 X92.216 Y102.585 E0.01471
G1 X92.771 Y102.024 E0.02474
G1 X93.452 Y101.550 E0.02601
G1 X93.983 Y101.327 E0.01806
G1 X94.881 Y101.168 E0.02858
G1 X99.278 Y101.168 E0.13788
G1 X99.568 Y101.545 E0.01491
G1 X94.869 Y101.545 E0.14733
G1 X94.155 Y101.668 E0.02272
G1 X93.706 Y101.847 E0.01515
G1 X93.205 Y102.150 E0.01837
G1 X92.506 Y102.826 E0.03048
G1 X92.254 Y103.167 E0.01331
G1 X91.931 Y103.865 E0.02411
G1 X91.802 Y104.489 E0.01999
G1 X91.796 Y113.918 E0.29564
G1 X91.921 Y114.607 E0.02196
G1 X92.098 Y115.048 E0.01487
G1 X92.501 Y115.668 E0.02319
G1 X93.205 Y116.350 E0.03073
G1 X93.706 Y116.653 E0.01837
G1 X94.156 Y116.833 E0.01519
G1 X94.883 Y116.955 E0.02311
G1 X99.568 Y116.955 E0.14690
G1 X99.857 Y116.578 E0.01491
G1 X94.884 Y116.578 E0.15592
G1 X94.264 Y116.471 E0.01975
G1 X93.632 Y116.186 E0.02172
G1 X93.327 Y115.962 E0.01189
G1 X92.696 Y115.311 E0.02841
G1 X92.441 Y114.890 E0.01544
G1 X92.279 Y114.486 E0.01363
G1 X92.173 Y113.896 E0.01882
G1 X92.177 Y104.530 E0.29365
G1 X92.287 Y103.987 E0.01738
G1 X92.570 Y103.372 E0.02122
G1 X92.790 Y103.075 E0.01160
G1 X93.439 Y102.446 E0.02834
G1 X93.860 Y102.191 E0.01544
G1 X94.599 Y101.949 E0.02437
G1 X99.857 Y101.922 E0.16486
G1 X100.019 Y102.299 E0.01287
G1 X94.665 Y102.320 E0.16788
G1 X94.376 Y102.388 E0.00929
G1 X93.851 Y102.622 E0.01803
G1 X93.550 Y102.845 E0.01174
G1 X92.964 Y103.462 E0.02666
G1 X92.658 Y104.069 E0.02134
G1 X92.552 Y104.562 E0.01578
G1 X92.549 Y113.883 E0.29227
M73 Q1 S50
G1 X92.640 Y114.378 E0.01578
G1 X92.785 Y114.736 E0.01211
G1 X93.108 Y115.214 E0.01807
G1 X93.835 Y115.868 E0.03068
M73 P1 R49
G1 X94.376 Y116.112 E0.01861
G1 X94.885 Y116.201 E0.01621
G1 X100.019 Y116.200 E0.16096
G1 X100.175 Y115.823 E0.01279
G1 X94.731 Y115.809 E0.17069
G1 X94.453 Y115.739 E0.00899
G1 X93.923 Y115.474 E0.01859
G1 X93.370 Y114.942 E0.02406
G1 X93.180 Y114.680 E0.01015
G1 X92.999 Y114.262 E0.01428
G1 X92.926 Y113.871 E0.01245
G1 X92.928 Y104.592 E0.29096
G1 X93.011 Y104.203 E0.01246
G1 X93.276 Y103.673 E0.01859
G1 X93.808 Y103.120 E0.02406
G1 X94.070 Y102.930 E0.01015
G1 X94.488 Y102.749 E0.01428
G1 X94.888 Y102.676 E0.01274
G1 X100.175 Y102.676 E0.16578
G1 X100.331 Y103.053 E0.01280
G1 X94.892 Y103.053 E0.17053
G1 X94.602 Y103.108 E0.00927
G1 X94.065 Y103.396 E0.01911
G1 X93.479 Y104.059 E0.02773
G1 X93.304 Y104.624 E0.01854
G1 X93.303 Y113.858 E0.28952
M73 Q1 S49
G1 X93.358 Y114.148 E0.00927
G1 X93.646 Y114.685 E0.01911
G1 X94.136 Y115.163 E0.02146
G1 X94.584 Y115.386 E0.01569
G1 X94.892 Y115.447 E0.00985
G1 X100.331 Y115.447 E0.17053
G1 X100.449 Y115.070 E0.01238
G1 X94.902 Y115.070 E0.17394
G1 X94.353 Y114.854 E0.01847
G1 X93.834 Y114.304 E0.02373
G1 X93.680 Y113.848 E0.01508
G1 X93.680 Y104.652 E0.28835
G1 X93.896 Y104.103 E0.01847
G1 X94.325 Y103.669 E0.01914
G1 X94.720 Y103.466 E0.01393
G1 X94.902 Y103.430 E0.00580
G1 X100.449 Y103.430 E0.17394
G1 X100.499 Y103.807 E0.01193
G1 X94.920 Y103.807 E0.17491
G1 X94.578 Y103.949 E0.01160
G1 X94.158 Y104.390 E0.01912
G1 X94.057 Y104.670 E0.00933
G1 X94.057 Y113.830 E0.28719
G1 X94.199 Y114.172 E0.01160
G1 X94.578 Y114.551 E0.01683
G1 X94.920 Y114.693 E0.01160
G1 X100.499 Y114.693 E0.17491
G1 X100.548 Y114.316 E0.01193
G1 X94.957 Y114.316 E0.17531
G1 X94.819 Y114.258 E0.00470
G1 X94.492 Y113.931 E0.01450
G1 X94.434 Y113.793 E0.00470
G1 X94.434 Y104.707 E0.28486
G1 X94.492 Y104.569 E0.00470
G1 X94.819 Y104.242 E0.01450
G1 X94.957 Y104.184 E0.00470
G1 X100.548 Y104.184 E0.17531
G1 X100.598 Y104.561 E0.01193
G1 X95.032 Y104.561 E0.17451
G1 X94.811 Y104.782 E0.00979
G1 X94.811 Y113.718 E0.28016
G1 X95.032 Y113.939 E0.00979
G1 X100.598 Y113.939 E0.17451
;WIPE_START
G1 F8640.000
G1 X97.307 Y113.939 E-0.76000
;WIPE_END
G1 E-0.04000 F2100.000
G1 Z0.600000 F10800.000
G1 X97.278 Y118.841
G1 Z0.200000
G1 E0.80000 F2100.000
G1 F1200.000
G1 X94.881 Y118.841 E0.07517
G1 X94.340 Y118.800 E0.01701
G1 X93.740 Y118.676 E0.01920
G1 X92.907 Y118.361 E0.02792
G1 X92.144 Y117.910 E0.02779
G1 X91.145 Y116.979 E0.04281
G1 X90.798 Y116.546 E0.01741
G1 X90.458 Y115.985 E0.02057
G1 X90.176 Y115.327 E0.02245
G1 X90.016 Y114.775 E0.01802
G1 X89.919 Y114.115 E0.02093
G1 X89.916 Y111.456 E0.08336
;WIPE_START
G1 F8640.000
G1 X89.919 Y114.115 E-0.61391
G1 X90.011 Y114.741 E-0.14609
;WIPE_END
G1 E-0.04000 F2100.000
G1 Z0.600000 F10800.000
G1 X89.535 Y112.550
G1 Z0.200000
G1 E0.80000 F2100.000
G1 F1200.000
G1 X89.536 Y114.014 E0.04590
G1 X89.586 Y114.526 E0.01612
G1 X89.828 Y115.475 E0.03072
G1 X90.058 Y116.027 E0.01874
G1 X90.583 Y116.892 E0.03174
G1 X91.512 Y117.879 E0.04248
G1 X92.018 Y118.282 E0.02029
G1 X92.635 Y118.649 E0.02252
G1 X93.727 Y119.063 E0.03663
G1 X94.748 Y119.215 E0.03235
G1 X96.199 Y119.215 E0.04551
;WIPE_START
G1 F8640.000
G1 X94.748 Y119.215 E-0.33515
G1 X93.727 Y119.063 E-0.23824
G1 X92.972 Y118.777 E-0.18661
;WIPE_END
G1 E-0.04000 F2100.000
G1 Z0.600000 F10800.000
G1 X117.983 Y118.462
G1 Z0.200000
G1 E0.80000 F2100.000
G1 F1200.000
G1 X121.199 Y118.462 E0.10082
G1 X121.746 Y118.405 E0.01725
G1 X122.360 Y118.251 E0.01986
G1 X123.009 Y117.984 E0.02198
G1 X123.500 Y117.697 E0.01783
G1 X123.998 Y117.988 E0.01808
G1 X124.672 Y118.262 E0.02280
G1 X125.302 Y118.413 E0.02031
G1 X125.849 Y118.463 E0.01724
G1 X129.015 Y118.463 E0.09927
G1 X129.506 Y118.086 E0.01941
G1 X125.870 Y118.086 E0.11400
G1 X125.328 Y118.035 E0.01710
G1 X124.686 Y117.868 E0.02079
G1 X124.078 Y117.606 E0.02075
G1 X123.500 Y117.235 E0.02154
G1 X122.997 Y117.566 E0.01888
G1 X122.330 Y117.862 E0.02289
G1 X121.704 Y118.029 E0.02031
G1 X121.189 Y118.085 E0.01626
G1 X117.492 Y118.085 E0.11590
G1 X117.010 Y117.708 E0.01919
G1 X121.544 Y117.674 E0.14215
G1 X121.907 Y117.600 E0.01162
G1 X122.553 Y117.363 E0.02156
G1 X122.997 Y117.126 E0.01580
G1 X123.500 Y116.738 E0.01991
G1 X123.759 Y116.958 E0.01064
G1 X124.370 Y117.329 E0.02242
G1 X124.730 Y117.481 E0.01226
G1 X125.532 Y117.685 E0.02595
G1 X129.989 Y117.709 E0.13974
G1 X130.279 Y117.332 E0.01492
G1 X125.514 Y117.301 E0.14941
G1 X124.916 Y117.148 E0.01935
G1 X124.488 Y116.968 E0.01454
G1 X123.971 Y116.645 E0.01913
G1 X123.500 Y116.206 E0.02020
G1 X123.031 Y116.644 E0.02015
G1 X122.514 Y116.967 E0.01910
G1 X121.838 Y117.228 E0.02272
G1 X121.494 Y117.300 E0.01103
G1 X116.721 Y117.331 E0.14966
G1 X116.432 Y116.954 E0.01489
G1 X121.444 Y116.926 E0.15717
G1 X121.774 Y116.854 E0.01059
G1 X122.471 Y116.564 E0.02365
G1 X122.914 Y116.252 E0.01700
G1 X123.500 Y115.667 E0.02597
G1 X124.086 Y116.252 E0.02597
G1 X124.529 Y116.564 E0.01700
G1 X125.227 Y116.854 E0.02368
G1 X125.556 Y116.926 E0.01056
G1 X130.568 Y116.954 E0.15717
G1 X130.859 Y116.576 E0.01495
G1 X125.810 Y116.575 E0.15828
G1 X125.442 Y116.520 E0.01168
G1 X124.808 Y116.285 E0.02121
G1 X124.499 Y116.098 E0.01132
G1 X123.815 Y115.453 E0.02948
G1 X123.500 Y115.008 E0.01707
G1 X123.185 Y115.453 E0.01707
G1 X122.501 Y116.098 E0.02948
G1 X122.192 Y116.285 E0.01132
G1 X121.558 Y116.520 E0.02121
G1 X121.190 Y116.575 E0.01168
G1 X116.142 Y116.576 E0.15828
G1 X115.980 Y116.198 E0.01289
G1 X121.193 Y116.197 E0.16346
G1 X121.628 Y116.110 E0.01391
G1 X122.118 Y115.897 E0.01674
G1 X122.423 Y115.680 E0.01175
G1 X122.905 Y115.200 E0.02132
G1 X123.147 Y114.868 E0.01290
G1 X123.335 Y114.448 E0.01442
G1 X123.451 Y113.765 E0.02171
G1 X123.500 Y113.716 E0.00217
G1 X123.549 Y113.765 E0.00217
G1 X123.665 Y114.448 E0.02171
G1 X123.853 Y114.868 E0.01442
G1 X124.095 Y115.200 E0.01290
G1 X124.581 Y115.683 E0.02147
G1 X124.894 Y115.904 E0.01204
G1 X125.376 Y116.112 E0.01645
G1 X125.862 Y116.200 E0.01549
G1 X131.019 Y116.200 E0.16169
G1 X131.176 Y115.823 E0.01282
G1 X125.851 Y115.822 E0.16696
G1 X125.479 Y115.748 E0.01188
G1 X125.046 Y115.556 E0.01485
G1 X124.351 Y114.921 E0.02952
G1 X124.145 Y114.615 E0.01159
G1 X123.999 Y114.262 E0.01196
G1 X123.926 Y113.609 E0.02060
G1 X123.500 Y113.183 E0.01889
G1 X123.074 Y113.609 E0.01889
G1 X123.001 Y114.262 E0.02060
G1 X122.855 Y114.615 E0.01196
G1 X122.649 Y114.921 E0.01159
G1 X121.954 Y115.556 E0.02952
G1 X121.521 Y115.748 E0.01485
G1 X121.149 Y115.822 E0.01188
G1 X115.824 Y115.823 E0.16696
G1 X115.668 Y115.446 E0.01278
G1 X121.126 Y115.446 E0.17112
G1 X121.398 Y115.392 E0.00870
G1 X121.935 Y115.104 E0.01911
G1 X122.366 Y114.672 E0.01915
G1 X122.658 Y114.095 E0.02026
G1 X122.697 Y113.453 E0.02017
G1 X123.500 Y112.650 E0.03561
G1 X124.303 Y113.453 E0.03561
G1 X124.342 Y114.095 E0.02017
G1 X124.634 Y114.672 E0.02026
G1 X125.065 Y115.104 E0.01915
G1 X125.602 Y115.392 E0.01911
G1 X125.874 Y115.446 E0.00870
G1 X131.332 Y115.446 E0.17112
G1 X131.449 Y115.070 E0.01236
G1 X125.902 Y115.070 E0.17394
G1 X125.479 Y114.934 E0.01393
G1 X124.816 Y114.271 E0.02937
G1 X124.684 Y113.885 E0.01280
G1 X124.680 Y113.297 E0.01845
G1 X123.500 Y112.116 E0.05233
G1 X122.320 Y113.297 E0.05233
G1 X122.316 Y113.885 E0.01845
G1 X122.104 Y114.397 E0.01735
G1 X121.647 Y114.854 E0.02030
G1 X121.280 Y115.034 E0.01280
G1 X115.551 Y115.070 E0.17963
G1 X115.501 Y114.693 E0.01193
G1 X121.080 Y114.693 E0.17491
G1 X121.360 Y114.592 E0.00933
G1 X121.842 Y114.110 E0.02140
G1 X121.943 Y113.830 E0.00933
