; generated by Slic3r Prusa Edition 1.42.0-beta2+linux64 on 2019-06-18 at 12:05:45

; 

; external perimeters extrusion width = 0.45mm
; perimeters extrusion width = 0.45mm
; infill extrusion width = 0.45mm
; solid infill extrusion width = 0.45mm
; top infill extrusion width = 0.40mm
; first layer extrusion width = 0.42mm

M73 P0 R74
M73 Q0 S74
M201 X1000 Y1000 Z1000 E5000 ; sets maximum accelerations, mm/sec^2
M203 X200 Y200 Z12 E120 ; sets maximum feedrates, mm/sec
M204 P1250 R1250 T1250 ; sets acceleration (P, T) and retract acceleration (R), mm/sec^2
M205 X8.00 Y8.00 Z0.40 E1.50 ; sets the jerk limits, mm/sec
M205 S0 T0 ; sets the minimum extruding and travel feed rate, mm/sec
M107
M115 U3.6.0 ; tell printer latest fw version
M83  ; extruder relative mode
M104 S215 ; set extruder temp
M140 S60 ; set bed temp
M190 S60 ; wait for bed temp
M109 S215 ; wait for extruder temp
G28 W ; home all without mesh bed level
G80 ; mesh bed leveling
G1 Y-3.0 F1000.0 ; go outside print area
G92 E0.0
G1 X60.0 E9.0  F1000.0 ; intro line
M73 Q0 S74
M73 P0 R74
G1 X100.0 E12.5  F1000.0 ; intro line
G92 E0.0
M221 S95
M900 K30 ; Filament gcode
G21 ; set units to millimeters
G90 ; use absolute coordinates
M83 ; use relative distances for extrusion
;BEFORE_LAYER_CHANGE
G92 E0.0
;0.2


G1 E-0.80000 F2100.00000
G1 Z0.600 F10800.000
;AFTER_LAYER_CHANGE
;0.2
G1 X112.331 Y93.854
G1 Z0.200
G1 E0.80000 F2100.00000
M204 S1000
G1 F1200
G1 X113.189 Y93.685 E0.02741
G1 X136.754 Y93.684 E0.73886
G1 X137.660 Y93.851 E0.02888
G1 X138.445 Y94.324 E0.02875
G1 X139.016 Y95.047 E0.02888
G1 X139.295 Y95.925 E0.02888
G1 X139.307 Y104.959 E0.28328
G1 X139.035 Y105.916 E0.03119
G1 X138.417 Y106.701 E0.03131
G1 X137.953 Y107.016 E0.01758
G1 X120.535 Y116.192 E0.61728
G1 X119.788 Y116.315 E0.02374
G1 X113.037 Y116.307 E0.21170
G1 X112.080 Y116.033 E0.03119
G1 X111.299 Y115.417 E0.03119
G1 X110.857 Y114.676 E0.02704
G1 X110.686 Y113.831 E0.02704
G1 X110.685 Y96.214 E0.55235
G1 X110.750 Y95.673 E0.01709
G1 X110.928 Y95.158 E0.01709
G1 X111.209 Y94.696 E0.01697
G1 X111.583 Y94.299 E0.01709
G1 X112.280 Y93.885 E0.02541
G1 X112.468 Y94.209 F10800.000
G1 F1200
G1 X113.204 Y94.062 E0.02352
G1 X136.754 Y94.061 E0.73838
G1 X137.533 Y94.206 E0.02484
G1 X138.209 Y94.619 E0.02484
G1 X138.694 Y95.245 E0.02484
G1 X138.925 Y96.003 E0.02484
G1 X138.933 Y104.911 E0.27928
G1 X138.697 Y105.749 E0.02732
G1 X138.156 Y106.428 E0.02721
G1 X120.431 Y115.830 E0.62908
G1 X119.781 Y115.938 E0.02066
G1 X113.082 Y115.932 E0.21005
G1 X112.251 Y115.697 E0.02709
G1 X111.572 Y115.156 E0.02721
G1 X111.203 Y114.525 E0.02293
G1 X111.062 Y113.811 E0.02281
G1 X111.062 Y96.221 E0.55152
G1 X111.118 Y95.754 E0.01475
G1 X111.274 Y95.309 E0.01475
G1 X111.521 Y94.909 E0.01475
G1 X111.844 Y94.572 E0.01464
G1 X112.417 Y94.239 E0.02076
G1 F8640
G1 X113.204 Y94.062 E-0.18634
G1 X115.688 Y94.062 E-0.57366
G1 E-0.04000 F2100.00000
G1 Z0.800 F10800.000
G1 X114.591 Y97.591
G1 Z0.200
G1 E0.80000 F2100.00000
G1 F1200
G1 X135.409 Y97.591 E0.65272
G1 X135.409 Y103.409 E0.18240
G1 X122.691 Y103.409 E0.39874
G1 X121.995 Y103.470 E0.02191
G1 X121.263 Y103.666 E0.02375
G1 X120.577 Y103.986 E0.02375
G1 X119.956 Y104.420 E0.02375
G1 X119.420 Y104.956 E0.02375
G1 X118.986 Y105.577 E0.02375
G1 X118.666 Y106.263 E0.02375
G1 X118.470 Y106.995 E0.02375
G1 X118.409 Y107.691 E0.02191
G1 X118.409 Y112.409 E0.14791
G1 X114.591 Y112.409 E0.11970
G1 X114.591 Y97.651 E0.46271
G1 X114.214 Y97.214 F10800.000
G1 F1200
G1 X135.786 Y97.214 E0.67637
G1 X135.786 Y103.786 E0.20605
G1 X122.708 Y103.786 E0.41005
G1 X122.061 Y103.842 E0.02036
G1 X121.393 Y104.021 E0.02169
G1 X120.766 Y104.314 E0.02169
G1 X120.200 Y104.710 E0.02169
G1 X119.710 Y105.200 E0.02169
G1 X119.314 Y105.766 E0.02169
G1 X119.021 Y106.393 E0.02169
G1 X118.842 Y107.061 E0.02169
G1 X118.786 Y107.708 E0.02036
G1 X118.786 Y112.786 E0.15922
G1 X114.214 Y112.786 E0.14334
G1 X114.214 Y97.274 E0.48636
G1 X113.837 Y96.837 F10800.000
G1 F1200
G1 X136.163 Y96.837 E0.70001
G1 X136.163 Y104.163 E0.22970
G1 X122.724 Y104.163 E0.42136
G1 X122.127 Y104.215 E0.01881
G1 X121.522 Y104.377 E0.01962
G1 X120.955 Y104.642 E0.01962
G1 X120.443 Y105.000 E0.01962
G1 X120.000 Y105.443 E0.01962
G1 X119.642 Y105.955 E0.01962
G1 X119.377 Y106.522 E0.01962
G1 X119.215 Y107.127 E0.01962
G1 X119.163 Y107.724 E0.01881
G1 X119.163 Y113.163 E0.17052
G1 X113.837 Y113.163 E0.16699
G1 X113.837 Y96.897 E0.51000
G1 X113.460 Y96.460 F10800.000
G1 F1200
G1 X136.540 Y96.460 E0.72366
G1 X136.540 Y104.540 E0.25334
G1 X122.741 Y104.540 E0.43266
G1 X122.192 Y104.588 E0.01726
G1 X121.652 Y104.733 E0.01755
G1 X121.145 Y104.969 E0.01755
G1 X120.686 Y105.290 E0.01755
G1 X120.290 Y105.686 E0.01755
G1 X119.969 Y106.145 E0.01755
G1 X119.733 Y106.652 E0.01755
G1 X119.588 Y107.192 E0.01755
G1 X119.540 Y107.741 E0.01726
G1 X119.540 Y113.540 E0.18183
G1 X113.460 Y113.540 E0.19063
G1 X113.460 Y96.520 E0.53365
G1 X113.827 Y96.619 F10800.000
G1 F8640
G1 X116.751 Y96.511 E-0.76000
G1 E-0.04000 F2100.00000
G1 Z0.800 F10800.000
G1 X115.468 Y112.296
G1 Z0.200
G1 E0.80000 F2100.00000
G1 F1200
G1 X114.874 Y111.702 E0.02638
G1 X114.874 Y111.168 E0.01678
G1 X115.832 Y112.126 E0.04257
G1 X116.367 Y112.126 E0.01678
G1 X114.874 Y110.633 E0.06630
G1 X114.874 Y110.099 E0.01678
G1 X116.901 Y112.126 E0.09003
G1 X117.435 Y112.126 E0.01678
G1 X114.874 Y109.565 E0.11376
G1 X114.874 Y109.031 E0.01678
G1 X117.969 Y112.126 E0.13749
G1 X118.126 Y112.126 E0.00492
G1 X118.126 Y111.748 E0.01186
G1 X114.874 Y108.496 E0.14445
G1 X114.874 Y107.962 E0.01678
G1 X118.126 Y111.214 E0.14445
G1 X118.126 Y110.680 E0.01678
G1 X114.874 Y107.428 E0.14445
G1 X114.874 Y106.894 E0.01678
G1 X118.126 Y110.146 E0.14445
G1 X118.126 Y109.612 E0.01678
G1 X114.874 Y106.360 E0.14445
G1 X114.874 Y105.825 E0.01678
G1 X118.126 Y109.077 E0.14445
G1 X118.126 Y108.543 E0.01678
G1 X114.874 Y105.291 E0.14445
G1 X114.874 Y104.757 E0.01678
G1 X118.126 Y108.009 E0.14445
G1 X118.142 Y107.491 E0.01627
G1 X114.874 Y104.223 E0.14518
G1 X114.874 Y103.689 E0.01678
G1 X118.185 Y107.000 E0.14709
G1 X118.291 Y106.571 E0.01387
G1 X114.874 Y103.154 E0.15176
G1 X114.874 Y102.620 E0.01678
G1 X118.406 Y106.152 E0.15688
G1 X118.576 Y105.788 E0.01263
G1 X114.874 Y102.086 E0.16443
G1 X114.874 Y101.552 E0.01678
G1 X118.747 Y105.425 E0.17204
G1 X118.967 Y105.111 E0.01205
G1 X114.874 Y101.018 E0.18182
G1 X114.874 Y100.483 E0.01678
G1 X119.187 Y104.796 E0.19159
G1 X119.451 Y104.526 E0.01187
G1 X114.874 Y99.949 E0.20330
G1 X114.874 Y99.415 E0.01678
G1 X119.718 Y104.259 E0.21517
G1 X120.022 Y104.029 E0.01198
G1 X114.874 Y98.881 E0.22869
G1 X114.874 Y98.346 E0.01678
G1 X120.337 Y103.809 E0.24264
G1 X120.435 Y103.740 E0.00377
G1 X120.685 Y103.623 E0.00867
G1 X114.936 Y97.874 E0.25539
G1 X115.470 Y97.874 E0.01678
G1 X121.050 Y103.454 E0.24784
G1 X121.166 Y103.399 E0.00405
G1 X121.453 Y103.322 E0.00931
G1 X116.004 Y97.874 E0.24201
G1 X116.538 Y97.874 E0.01678
G1 X121.874 Y103.209 E0.23700
G1 X122.353 Y103.154 E0.01515
G1 X117.073 Y97.874 E0.23456
G1 X117.607 Y97.874 E0.01678
G1 X122.859 Y103.126 E0.23329
G1 X123.393 Y103.126 E0.01678
G1 X118.141 Y97.874 E0.23329
G1 X118.675 Y97.874 E0.01678
G1 X123.927 Y103.126 E0.23329
G1 X124.461 Y103.126 E0.01678
G1 X119.210 Y97.874 E0.23329
G1 X119.744 Y97.874 E0.01678
G1 X124.996 Y103.126 E0.23329
G1 X125.530 Y103.126 E0.01678
G1 X120.278 Y97.874 E0.23329
G1 X120.812 Y97.874 E0.01678
G1 X126.064 Y103.126 E0.23329
G1 X126.598 Y103.126 E0.01678
G1 X121.346 Y97.874 E0.23329
G1 X121.881 Y97.874 E0.01678
G1 X127.133 Y103.126 E0.23329
G1 X127.667 Y103.126 E0.01678
G1 X122.415 Y97.874 E0.23329
G1 X122.949 Y97.874 E0.01678
G1 X128.201 Y103.126 E0.23329
G1 X128.735 Y103.126 E0.01678
G1 X123.483 Y97.874 E0.23329
G1 X124.017 Y97.874 E0.01678
G1 X129.269 Y103.126 E0.23329
G1 X129.804 Y103.126 E0.01678
G1 X124.552 Y97.874 E0.23329
G1 X125.086 Y97.874 E0.01678
G1 X130.338 Y103.126 E0.23329
G1 X130.872 Y103.126 E0.01678
G1 X125.620 Y97.874 E0.23329
G1 X126.154 Y97.874 E0.01678
G1 X131.406 Y103.126 E0.23329
G1 X131.940 Y103.126 E0.01678
G1 X126.688 Y97.874 E0.23329
G1 X127.223 Y97.874 E0.01678
G1 X132.475 Y103.126 E0.23329
G1 X133.009 Y103.126 E0.01678
G1 X127.757 Y97.874 E0.23329
G1 X128.291 Y97.874 E0.01678
G1 X133.543 Y103.126 E0.23329
G1 X134.077 Y103.126 E0.01678
G1 X128.825 Y97.874 E0.23329
G1 X129.360 Y97.874 E0.01678
G1 X134.611 Y103.126 E0.23329
G1 X135.126 Y103.126 E0.01616
G1 X135.126 Y103.106 E0.00062
G1 X129.894 Y97.874 E0.23241
G1 X130.428 Y97.874 E0.01678
G1 X135.126 Y102.572 E0.20869
G1 X135.126 Y102.038 E0.01678
G1 X130.962 Y97.874 E0.18496
G1 X131.496 Y97.874 E0.01678
G1 X135.126 Y101.504 E0.16123
G1 X135.126 Y100.969 E0.01678
G1 X132.031 Y97.874 E0.13750
G1 X132.565 Y97.874 E0.01678
G1 X135.126 Y100.435 E0.11377
G1 X135.126 Y99.901 E0.01678
G1 X133.099 Y97.874 E0.09004
G1 X133.633 Y97.874 E0.01678
G1 X135.126 Y99.367 E0.06631
G1 X135.126 Y98.833 E0.01678
G1 X134.167 Y97.874 E0.04258
G1 X134.702 Y97.874 E0.01678
G1 X135.296 Y98.468 E0.02639
M106 S255
;BEFORE_LAYER_CHANGE
G92 E0.0
;0.4


G1 F8640
G1 X134.702 Y97.874 E-0.19397
G1 X134.167 Y97.874 E-0.12335
G1 X135.126 Y98.833 E-0.31300
G1 X135.126 Y99.367 E-0.12335
G1 X135.107 Y99.347 E-0.00633
G1 E-0.04000 F2100.00000
G1 Z0.800 F10800.000
;AFTER_LAYER_CHANGE
;0.4
G1 X139.016 Y95.047
G1 Z0.400
G1 E0.80000 F2100.00000
G1 F2282
G1 X139.295 Y95.925 E0.02888
G1 X139.307 Y104.959 E0.28328
G1 X139.035 Y105.916 E0.03119
G1 X138.417 Y106.701 E0.03131
G1 X137.953 Y107.016 E0.01758
G1 X120.535 Y116.192 E0.61728
G1 X119.788 Y116.315 E0.02374
G1 X113.037 Y116.307 E0.21170
G1 X112.080 Y116.033 E0.03119
G1 X111.299 Y115.417 E0.03119
G1 X110.857 Y114.676 E0.02704
G1 X110.686 Y113.831 E0.02704
G1 X110.685 Y96.214 E0.55235
G1 X110.750 Y95.673 E0.01709
G1 X110.928 Y95.158 E0.01709
G1 X111.209 Y94.696 E0.01697
G1 X111.583 Y94.299 E0.01709
G1 X112.331 Y93.854 E0.02729
G1 X113.189 Y93.685 E0.02741
G1 X136.754 Y93.684 E0.73886
G1 X137.660 Y93.851 E0.02888
G1 X138.445 Y94.324 E0.02875
G1 X138.979 Y95.000 E0.02699
G1 F8640
G1 X139.295 Y95.925 E-0.22567
G1 X139.298 Y98.239 E-0.53433
G1 E-0.04000 F2100.00000
G1 Z1.000 F10800.000
G1 X135.304 Y97.696
G1 Z0.400
G1 E0.80000 F2100.00000
M204 S800
G1 F2282
G1 X135.304 Y103.304 E0.18981
G1 X122.687 Y103.304 E0.42707
G1 X121.977 Y103.366 E0.02412
G1 X121.226 Y103.567 E0.02631
G1 X120.519 Y103.898 E0.02644
G1 X119.888 Y104.340 E0.02605
G1 X119.339 Y104.889 E0.02631
G1 X118.892 Y105.530 E0.02644
G1 X118.567 Y106.227 E0.02605
G1 X118.366 Y106.977 E0.02627
G1 X118.304 Y107.687 E0.02412
G1 X118.304 Y112.304 E0.15628
G1 X114.696 Y112.304 E0.12211
G1 X114.696 Y97.696 E0.49445
G1 X135.244 Y97.696 E0.69551
M204 S1000
G1 X135.711 Y97.289 F10800.000
M204 S800
G1 F2282
G1 X135.711 Y103.711 E0.21737
G1 X122.705 Y103.711 E0.44024
G1 X122.048 Y103.768 E0.02231
G1 X121.366 Y103.951 E0.02389
G1 X120.723 Y104.252 E0.02403
G1 X120.151 Y104.653 E0.02365
G1 X119.652 Y105.152 E0.02389
G1 X119.246 Y105.734 E0.02403
G1 X118.951 Y106.367 E0.02365
G1 X118.768 Y107.048 E0.02386
G1 X118.711 Y107.705 E0.02231
G1 X118.711 Y112.711 E0.16945
G1 X114.289 Y112.711 E0.14967
G1 X114.289 Y97.289 E0.52201
G1 X135.651 Y97.289 E0.72307
M204 S1000
G1 X136.118 Y96.882 F10800.000
M204 S800
G1 F2282
G1 X136.118 Y104.118 E0.24492
G1 X122.722 Y104.118 E0.45342
G1 X122.119 Y104.171 E0.02051
G1 X121.506 Y104.335 E0.02146
G1 X120.928 Y104.606 E0.02162
G1 X120.414 Y104.966 E0.02125
G1 X119.965 Y105.414 E0.02146
G1 X119.600 Y105.938 E0.02162
G1 X119.335 Y106.507 E0.02125
G1 X119.171 Y107.119 E0.02144
G1 X119.118 Y107.722 E0.02051
G1 X119.118 Y113.118 E0.18263
G1 X113.882 Y113.118 E0.17723
G1 X113.882 Y96.882 E0.54956
G1 X136.058 Y96.882 E0.75063
M204 S1000
G1 X136.525 Y96.475 F10800.000
M204 S800
G1 F2100
G1 X136.525 Y104.525 E0.27248
G1 X122.740 Y104.525 E0.46660
G1 X122.190 Y104.573 E0.01870
G1 X121.647 Y104.719 E0.01904
M73 Q1 S73
G1 X121.133 Y104.959 E0.01921
G1 X120.676 Y105.279 E0.01885
G1 X120.279 Y105.677 E0.01904
G1 X119.954 Y106.142 E0.01921
G1 X119.719 Y106.647 E0.01885
G1 X119.573 Y107.190 E0.01903
G1 X119.525 Y107.740 E0.01870
G1 X119.525 Y113.525 E0.19581
G1 X113.475 Y113.525 E0.20479
M73 P1 R73
G1 X113.475 Y96.475 E0.57712
G1 X136.465 Y96.475 E0.77818
M204 S1000
G1 X136.402 Y96.856 F10800.000
G1 F8640
G1 X136.490 Y99.766 E-0.76000
G1 E-0.04000 F2100.00000
G1 Z1.000 F10800.000
G1 X134.342 Y103.182
G1 Z0.400
G1 E0.80000 F2100.00000
M204 S1250
G1 F2282
G1 X134.998 Y102.526 E0.03199
G1 X134.998 Y101.939 E0.02023
G1 X133.939 Y102.998 E0.05167
G1 X133.353 Y102.998 E0.02023
G1 X134.998 Y101.353 E0.08027
G1 X134.998 Y100.766 E0.02023
G1 X132.766 Y102.998 E0.10888
G1 X132.179 Y102.998 E0.02023
G1 X134.998 Y100.179 E0.13749
G1 X134.998 Y99.593 E0.02023
G1 X131.593 Y102.998 E0.16609
G1 X131.006 Y102.998 E0.02023
G1 X134.998 Y99.006 E0.19470
G1 X134.998 Y98.420 E0.02023
G1 X130.420 Y102.998 E0.22331
G1 X129.833 Y102.998 E0.02023
G1 X134.830 Y98.002 E0.24371
G1 X134.244 Y98.002 E0.02023
G1 X129.247 Y102.998 E0.24371
G1 X128.660 Y102.998 E0.02023
G1 X133.657 Y98.002 E0.24371
G1 X133.071 Y98.002 E0.02023
G1 X128.074 Y102.998 E0.24371
G1 X127.487 Y102.998 E0.02023
G1 X132.484 Y98.002 E0.24371
G1 X131.898 Y98.002 E0.02023
G1 X126.901 Y102.998 E0.24371
G1 X126.314 Y102.998 E0.02023
G1 X131.311 Y98.002 E0.24371
G1 X130.724 Y98.002 E0.02023
G1 X125.727 Y102.998 E0.24371
G1 X125.141 Y102.998 E0.02023
G1 X130.138 Y98.002 E0.24371
G1 X129.551 Y98.002 E0.02023
G1 X124.554 Y102.998 E0.24371
G1 X123.968 Y102.998 E0.02023
G1 X128.965 Y98.002 E0.24371
G1 X128.378 Y98.002 E0.02023
G1 X123.381 Y102.998 E0.24371
G1 X122.795 Y102.998 E0.02023
G1 X127.792 Y98.002 E0.24371
G1 X127.205 Y98.002 E0.02023
G1 X122.164 Y103.043 E0.24588
G1 X121.924 Y103.064 E0.00830
G1 X121.421 Y103.199 E0.01793
G1 X126.619 Y98.002 E0.25347
G1 X126.032 Y98.002 E0.02023
G1 X115.002 Y109.032 E0.53797
G1 X115.002 Y109.619 E0.02023
G1 X118.199 Y106.421 E0.15593
G1 X118.064 Y106.924 E0.01793
G1 X118.043 Y107.164 E0.00830
G1 X115.002 Y110.205 E0.14834
G1 X115.002 Y110.792 E0.02023
G1 X117.998 Y107.795 E0.14616
G1 X117.998 Y108.381 E0.02023
G1 X115.002 Y111.378 E0.14616
G1 X115.002 Y111.965 E0.02023
G1 X117.998 Y108.968 E0.14616
G1 X117.998 Y109.554 E0.02023
G1 X115.554 Y111.998 E0.11920
G1 X116.141 Y111.998 E0.02023
G1 X117.998 Y110.141 E0.09059
G1 X117.998 Y110.727 E0.02023
G1 X116.727 Y111.998 E0.06199
G1 X117.314 Y111.998 E0.02023
G1 X117.998 Y111.314 E0.03338
G1 X117.998 Y111.901 E0.02023
G1 X117.717 Y112.182 E0.01371
M204 S1000
G1 F8640
G1 X117.998 Y111.901 E-0.09179
G1 X117.998 Y111.314 E-0.13543
G1 X117.314 Y111.998 E-0.22350
G1 X116.727 Y111.998 E-0.13543
G1 X117.260 Y111.466 E-0.17384
G1 E-0.04000 F2100.00000
G1 Z1.000 F10800.000
G1 X114.818 Y108.629
G1 Z0.400
G1 E0.80000 F2100.00000
M204 S1250
G1 F2282
G1 X125.446 Y98.002 E0.51830
G1 X124.859 Y98.002 E0.02023
G1 X115.002 Y107.859 E0.48076
G1 X115.002 Y107.272 E0.02023
G1 X124.272 Y98.002 E0.45215
G1 X123.686 Y98.002 E0.02023
G1 X115.002 Y106.686 E0.42355
G1 X115.002 Y106.099 E0.02023
G1 X123.099 Y98.002 E0.39494
G1 X122.513 Y98.002 E0.02023
G1 X115.002 Y105.513 E0.36633
G1 X115.002 Y104.926 E0.02023
G1 X121.926 Y98.002 E0.33773
G1 X121.340 Y98.002 E0.02023
G1 X115.002 Y104.340 E0.30912
G1 X115.002 Y103.753 E0.02023
G1 X120.753 Y98.002 E0.28051
G1 X120.167 Y98.002 E0.02023
G1 X115.002 Y103.167 E0.25191
G1 X115.002 Y102.580 E0.02023
G1 X119.580 Y98.002 E0.22330
G1 X118.994 Y98.002 E0.02023
G1 X115.002 Y101.994 E0.19469
G1 X115.002 Y101.407 E0.02023
G1 X118.407 Y98.002 E0.16609
G1 X117.820 Y98.002 E0.02023
G1 X115.002 Y100.820 E0.13748
G1 X115.002 Y100.234 E0.02023
G1 X117.234 Y98.002 E0.10887
G1 X116.647 Y98.002 E0.02023
G1 X115.002 Y99.647 E0.08027
G1 X115.002 Y99.061 E0.02023
G1 X116.061 Y98.002 E0.05166
G1 X115.474 Y98.002 E0.02023
G1 X114.818 Y98.657 E0.03199
M204 S1000
;BEFORE_LAYER_CHANGE
G92 E0.0
;0.6


G1 F8640
G1 X115.474 Y98.002 E-0.21418
G1 X116.061 Y98.002 E-0.13543
G1 X115.002 Y99.061 E-0.34589
G1 X115.002 Y99.340 E-0.06449
G1 E-0.04000 F2100.00000
G1 Z1.000 F10800.000
;AFTER_LAYER_CHANGE
;0.6
G1 X112.331 Y93.854
