; generated by Slic3r Prusa Edition 1.42.0-beta2+linux64 on 2019-06-18 at 12:06:03

; 

; external perimeters extrusion width = 0.45mm
; perimeters extrusion width = 0.45mm
; infill extrusion width = 0.45mm
; solid infill extrusion width = 0.45mm
; top infill extrusion width = 0.40mm
; first layer extrusion width = 0.42mm

M73 P0 R66
M73 Q0 S68
M201 X1000 Y1000 Z1000 E5000 ; sets maximum accelerations, mm/sec^2
M203 X200 Y200 Z12 E120 ; sets maximum feedrates, mm/sec
M204 P1250 R1250 T1250 ; sets acceleration (P, T) and retract acceleration (R), mm/sec^2
M205 X8.00 Y8.00 Z0.40 E1.50 ; sets the jerk limits, mm/sec
M205 S0 T0 ; sets the minimum extruding and travel feed rate, mm/sec
M107
M115 U3.6.0 ; tell printer latest fw version
M83  ; extruder relative mode
M104 S215 ; set extruder temp
M140 S60 ; set bed temp
M190 S60 ; wait for bed temp
M109 S215 ; wait for extruder temp
G28 W ; home all without mesh bed level
G80 ; mesh bed leveling
G1 Y-3.0 F1000.0 ; go outside print area
G92 E0.0
G1 X60.0 E9.0  F1000.0 ; intro line
M73 Q0 S68
M73 P0 R66
G1 X100.0 E12.5  F1000.0 ; intro line
G92 E0.0
M221 S95
M900 K30 ; Filament gcode
G21 ; set units to millimeters
G90 ; use absolute coordinates
M83 ; use relative distances for extrusion
;BEFORE_LAYER_CHANGE
G92 E0.0
;0.2


G1 E-0.80000 F2100.00000
G1 Z0.600 F10800.000
;AFTER_LAYER_CHANGE
;0.2
G1 X87.635 Y87.990
G1 Z0.200
G1 E0.80000 F2100.00000
M204 S1000
G1 F1200
G1 X88.495 Y87.811 E0.02754
G1 X161.504 Y87.811 E2.28913
G1 X162.330 Y87.975 E0.02642
G1 X163.034 Y88.439 E0.02642
G1 X163.898 Y89.410 E0.04074
G1 X164.107 Y89.907 E0.01692
G1 X164.188 Y90.444 E0.01703
G1 X164.185 Y119.628 E0.91504
G1 X164.052 Y120.262 E0.02032
G1 X163.738 Y120.830 E0.02032
G1 X162.927 Y121.659 E0.03639
G1 X162.365 Y122.010 E0.02078
G1 X161.505 Y122.189 E0.02754
G1 X88.452 Y122.188 E2.29050
G1 X87.793 Y122.071 E0.02100
G1 X87.197 Y121.758 E0.02112
G1 X86.345 Y120.933 E0.03718
G1 X85.990 Y120.365 E0.02100
G1 X85.811 Y119.512 E0.02732
G1 X85.814 Y90.390 E0.91309
G1 X85.943 Y89.752 E0.02044
G1 X86.255 Y89.179 E0.02044
G1 X87.070 Y88.343 E0.03661
G1 X87.584 Y88.021 E0.01901
G1 F8640
G1 X88.495 Y87.811 E-0.21588
G1 X90.852 Y87.811 E-0.54412
G1 E-0.04000 F2100.00000
G1 Z0.800 F10800.000
G1 X140.403 Y95.689
G1 Z0.200
G1 E0.80000 F2100.00000
G1 F1200
G1 X140.614 Y94.903 E0.02551
G1 X140.958 Y94.166 E0.02551
G1 X141.424 Y93.500 E0.02551
G1 X142.000 Y92.924 E0.02551
G1 X142.666 Y92.458 E0.02551
G1 X143.404 Y92.114 E0.02551
G1 X144.189 Y91.903 E0.02551
G1 X145.000 Y91.832 E0.02551
G1 X145.811 Y91.903 E0.02551
G1 X146.596 Y92.114 E0.02551
G1 X147.334 Y92.458 E0.02551
G1 X148.000 Y92.924 E0.02551
G1 X148.576 Y93.500 E0.02551
G1 X149.042 Y94.166 E0.02551
G1 X149.386 Y94.903 E0.02551
G1 X149.597 Y95.689 E0.02551
G1 X149.668 Y96.500 E0.02551
G1 X149.597 Y97.311 E0.02551
G1 X149.386 Y98.096 E0.02551
G1 X149.042 Y98.834 E0.02551
G1 X148.576 Y99.500 E0.02551
G1 X148.000 Y100.076 E0.02551
G1 X147.334 Y100.542 E0.02551
G1 X146.596 Y100.886 E0.02551
G1 X145.811 Y101.097 E0.02551
G1 X145.000 Y101.168 E0.02551
G1 X144.189 Y101.097 E0.02551
G1 X143.404 Y100.886 E0.02551
G1 X142.666 Y100.542 E0.02551
G1 X142.000 Y100.076 E0.02551
G1 X141.424 Y99.500 E0.02551
G1 X140.958 Y98.834 E0.02551
G1 X140.614 Y98.096 E0.02551
G1 X140.403 Y97.311 E0.02551
G1 X140.332 Y96.500 E0.02551
G1 X140.398 Y95.749 E0.02363
G1 X140.773 Y95.782 F10800.000
G1 F1200
G1 X140.969 Y95.033 E0.02428
G1 X141.285 Y94.355 E0.02344
G1 X141.714 Y93.743 E0.02344
G1 X142.243 Y93.214 E0.02344
G1 X142.855 Y92.785 E0.02344
G1 X143.533 Y92.469 E0.02344
G1 X144.255 Y92.276 E0.02344
G1 X145.000 Y92.211 E0.02344
G1 X145.745 Y92.276 E0.02344
G1 X146.467 Y92.469 E0.02344
G1 X147.145 Y92.785 E0.02344
G1 X147.757 Y93.214 E0.02344
G1 X148.286 Y93.743 E0.02344
G1 X148.715 Y94.355 E0.02344
G1 X149.031 Y95.033 E0.02344
G1 X149.224 Y95.755 E0.02344
G1 X149.289 Y96.500 E0.02344
G1 X149.224 Y97.245 E0.02344
G1 X149.031 Y97.967 E0.02344
G1 X148.715 Y98.645 E0.02344
G1 X148.286 Y99.257 E0.02344
G1 X147.757 Y99.786 E0.02344
G1 X147.145 Y100.215 E0.02344
G1 X146.467 Y100.531 E0.02344
G1 X145.745 Y100.724 E0.02344
G1 X145.000 Y100.789 E0.02344
G1 X144.255 Y100.724 E0.02344
G1 X143.533 Y100.531 E0.02344
G1 X142.855 Y100.215 E0.02344
G1 X142.243 Y99.786 E0.02344
G1 X141.714 Y99.257 E0.02344
G1 X141.285 Y98.645 E0.02344
G1 X140.969 Y97.967 E0.02344
G1 X140.776 Y97.245 E0.02344
G1 X140.711 Y96.500 E0.02344
G1 X140.768 Y95.842 E0.02071
G1 X141.144 Y95.875 F10800.000
G1 F1200
G1 X141.325 Y95.162 E0.02304
G1 X141.613 Y94.545 E0.02137
G1 X142.004 Y93.986 E0.02137
G1 X142.486 Y93.504 E0.02137
G1 X143.045 Y93.113 E0.02137
G1 X143.662 Y92.825 E0.02137
G1 X144.321 Y92.649 E0.02137
G1 X145.000 Y92.589 E0.02137
G1 X145.679 Y92.649 E0.02137
G1 X146.338 Y92.825 E0.02137
G1 X146.955 Y93.113 E0.02137
G1 X147.514 Y93.504 E0.02137
G1 X147.996 Y93.986 E0.02137
G1 X148.387 Y94.545 E0.02137
G1 X148.675 Y95.162 E0.02137
G1 X148.851 Y95.821 E0.02137
G1 X148.911 Y96.500 E0.02137
G1 X148.851 Y97.179 E0.02137
G1 X148.675 Y97.838 E0.02137
G1 X148.387 Y98.455 E0.02137
G1 X147.996 Y99.014 E0.02137
G1 X147.514 Y99.496 E0.02137
G1 X146.955 Y99.887 E0.02137
G1 X146.338 Y100.175 E0.02137
G1 X145.679 Y100.351 E0.02137
G1 X145.000 Y100.411 E0.02137
G1 X144.321 Y100.351 E0.02137
G1 X143.662 Y100.175 E0.02137
G1 X143.045 Y99.887 E0.02137
G1 X142.486 Y99.496 E0.02137
G1 X142.004 Y99.014 E0.02137
G1 X141.613 Y98.455 E0.02137
G1 X141.325 Y97.838 E0.02137
G1 X141.149 Y97.179 E0.02137
G1 X141.089 Y96.500 E0.02137
G1 X141.139 Y95.934 E0.01780
G1 X140.835 Y95.621 F10800.000
G1 F8640
G1 X141.325 Y95.162 E-0.18339
G1 X141.613 Y94.545 E-0.15741
G1 X142.004 Y93.986 E-0.15741
G1 X142.486 Y93.504 E-0.15741
G1 X142.857 Y93.245 E-0.10439
G1 E-0.04000 F2100.00000
G1 Z0.800 F10800.000
G1 X109.668 Y96.500
G1 Z0.200
G1 E0.80000 F2100.00000
G1 F1200
G1 X109.597 Y97.311 E0.02551
G1 X109.386 Y98.096 E0.02551
G1 X109.042 Y98.834 E0.02551
G1 X108.576 Y99.500 E0.02551
G1 X108.141 Y99.935 E0.01926
G1 X108.000 Y100.076 E0.00625
G1 X107.334 Y100.542 E0.02551
G1 X106.596 Y100.886 E0.02551
G1 X105.811 Y101.097 E0.02551
G1 X105.000 Y101.168 E0.02551
G1 X104.189 Y101.097 E0.02551
G1 X103.404 Y100.886 E0.02551
G1 X102.666 Y100.542 E0.02551
G1 X102.000 Y100.076 E0.02551
G1 X101.565 Y99.641 E0.01926
G1 X101.424 Y99.500 E0.00625
G1 X100.958 Y98.834 E0.02551
G1 X100.614 Y98.096 E0.02551
G1 X100.403 Y97.311 E0.02551
G1 X100.332 Y96.500 E0.02551
G1 X100.403 Y95.689 E0.02551
G1 X100.614 Y94.904 E0.02551
G1 X100.958 Y94.166 E0.02551
G1 X101.424 Y93.500 E0.02551
G1 X102.000 Y92.924 E0.02551
G1 X102.666 Y92.458 E0.02551
G1 X103.404 Y92.114 E0.02551
G1 X104.189 Y91.903 E0.02551
G1 X105.000 Y91.832 E0.02551
G1 X105.811 Y91.903 E0.02551
G1 X106.596 Y92.114 E0.02551
G1 X107.334 Y92.458 E0.02551
G1 X108.000 Y92.924 E0.02551
G1 X108.576 Y93.500 E0.02551
G1 X109.042 Y94.166 E0.02551
G1 X109.386 Y94.904 E0.02551
G1 X109.597 Y95.689 E0.02551
G1 X109.663 Y96.440 E0.02363
G1 X109.287 Y96.473 F10800.000
G1 F1200
G1 X109.224 Y97.245 E0.02428
G1 X109.031 Y97.967 E0.02344
G1 X108.715 Y98.645 E0.02344
G1 X108.286 Y99.257 E0.02344
G1 X107.757 Y99.786 E0.02344
G1 X107.145 Y100.215 E0.02344
G1 X106.467 Y100.531 E0.02344
G1 X105.745 Y100.724 E0.02344
G1 X105.000 Y100.789 E0.02344
G1 X104.255 Y100.724 E0.02344
G1 X103.533 Y100.531 E0.02344
G1 X102.855 Y100.215 E0.02344
G1 X102.243 Y99.786 E0.02344
G1 X101.832 Y99.375 E0.01823
G1 X101.714 Y99.257 E0.00522
G1 X101.285 Y98.645 E0.02344
G1 X100.969 Y97.967 E0.02344
G1 X100.776 Y97.245 E0.02344
G1 X100.711 Y96.500 E0.02344
G1 X100.776 Y95.755 E0.02344
G1 X100.969 Y95.033 E0.02344
G1 X101.285 Y94.355 E0.02344
G1 X101.714 Y93.743 E0.02344
G1 X102.243 Y93.214 E0.02344
G1 X102.855 Y92.785 E0.02344
G1 X103.533 Y92.469 E0.02344
G1 X104.255 Y92.276 E0.02344
G1 X105.000 Y92.211 E0.02344
G1 X105.745 Y92.276 E0.02344
G1 X106.467 Y92.469 E0.02344
G1 X107.145 Y92.785 E0.02344
G1 X107.757 Y93.214 E0.02344
G1 X108.286 Y93.743 E0.02344
G1 X108.715 Y94.355 E0.02344
G1 X109.031 Y95.033 E0.02344
G1 X109.224 Y95.755 E0.02344
G1 X109.282 Y96.413 E0.02071
G1 X108.906 Y96.446 F10800.000
G1 F1200
G1 X108.851 Y97.179 E0.02304
G1 X108.675 Y97.838 E0.02137
G1 X108.387 Y98.455 E0.02137
G1 X107.996 Y99.014 E0.02137
G1 X107.514 Y99.496 E0.02137
G1 X106.955 Y99.887 E0.02137
G1 X106.338 Y100.175 E0.02137
G1 X105.679 Y100.351 E0.02137
G1 X105.000 Y100.411 E0.02137
G1 X104.321 Y100.351 E0.02137
G1 X103.662 Y100.175 E0.02137
G1 X103.045 Y99.887 E0.02137
G1 X102.486 Y99.496 E0.02137
G1 X102.098 Y99.108 E0.01719
G1 X102.004 Y99.014 E0.00418
G1 X101.613 Y98.455 E0.02137
G1 X101.325 Y97.838 E0.02137
G1 X101.149 Y97.179 E0.02137
G1 X101.089 Y96.500 E0.02137
G1 X101.149 Y95.821 E0.02137
G1 X101.325 Y95.162 E0.02137
G1 X101.613 Y94.545 E0.02137
G1 X102.004 Y93.986 E0.02137
G1 X102.486 Y93.504 E0.02137
G1 X103.045 Y93.113 E0.02137
G1 X103.662 Y92.825 E0.02137
G1 X104.321 Y92.649 E0.02137
G1 X105.000 Y92.589 E0.02137
G1 X105.679 Y92.649 E0.02137
G1 X106.338 Y92.825 E0.02137
G1 X106.955 Y93.113 E0.02137
G1 X107.514 Y93.504 E0.02137
G1 X107.996 Y93.986 E0.02137
G1 X108.387 Y94.545 E0.02137
G1 X108.675 Y95.162 E0.02137
G1 X108.851 Y95.821 E0.02137
G1 X108.901 Y96.386 E0.01780
G1 X109.254 Y96.643 F10800.000
G1 F8640
G1 X108.851 Y97.179 E-0.18339
G1 X108.675 Y97.838 E-0.15741
G1 X108.387 Y98.455 E-0.15741
G1 X107.996 Y99.014 E-0.15741
G1 X107.676 Y99.333 E-0.10439
G1 E-0.04000 F2100.00000
G1 Z0.800 F10800.000
G1 X102.498 Y107.405
G1 Z0.200
G1 E0.80000 F2100.00000
G1 F1200
G1 X102.926 Y107.705 E0.01638
G1 X103.295 Y108.074 E0.01638
G1 X103.595 Y108.502 E0.01638
G1 X103.816 Y108.975 E0.01638
G1 X103.951 Y109.480 E0.01638
G1 X103.996 Y110.000 E0.01638
G1 X103.951 Y110.520 E0.01638
G1 X103.816 Y111.025 E0.01638
G1 X103.595 Y111.498 E0.01638
G1 X103.295 Y111.926 E0.01638
G1 X102.926 Y112.295 E0.01638
G1 X102.547 Y112.561 E0.01453
G1 X102.040 Y112.812 E0.01773
G1 X101.520 Y112.951 E0.01686
G1 X101.000 Y112.996 E0.01638
G1 X100.480 Y112.951 E0.01638
G1 X99.975 Y112.816 E0.01638
G1 X99.502 Y112.595 E0.01638
G1 X99.074 Y112.295 E0.01638
G1 X98.705 Y111.926 E0.01638
G1 X98.405 Y111.498 E0.01638
G1 X98.184 Y111.025 E0.01638
G1 X98.049 Y110.520 E0.01638
G1 X98.004 Y110.000 E0.01638
G1 X98.049 Y109.480 E0.01638
G1 X98.184 Y108.975 E0.01638
G1 X98.405 Y108.502 E0.01638
G1 X98.705 Y108.074 E0.01638
G1 X99.074 Y107.705 E0.01638
G1 X99.502 Y107.405 E0.01638
G1 X99.975 Y107.184 E0.01638
G1 X100.480 Y107.049 E0.01638
G1 X100.941 Y107.009 E0.01453
G1 X101.505 Y107.045 E0.01773
G1 X102.025 Y107.184 E0.01686
G1 X102.444 Y107.380 E0.01449
G1 X102.284 Y107.721 F10800.000
G1 F1200
G1 X102.683 Y107.995 E0.01514
G1 X103.005 Y108.317 E0.01431
G1 X103.267 Y108.691 E0.01431
G1 X103.460 Y109.105 E0.01431
G1 X103.578 Y109.545 E0.01431
G1 X103.618 Y110.000 E0.01431
G1 X103.578 Y110.455 E0.01431
G1 X103.460 Y110.895 E0.01431
G1 X103.267 Y111.309 E0.01431
G1 X103.005 Y111.683 E0.01431
G1 X102.683 Y112.005 E0.01431
G1 X102.354 Y112.236 E0.01259
G1 X101.906 Y112.457 E0.01566
G1 X101.455 Y112.578 E0.01466
G1 X101.000 Y112.618 E0.01431
G1 X100.545 Y112.578 E0.01431
G1 X100.105 Y112.460 E0.01431
G1 X99.691 Y112.267 E0.01431
G1 X99.317 Y112.005 E0.01431
G1 X98.995 Y111.683 E0.01431
G1 X98.733 Y111.309 E0.01431
G1 X98.540 Y110.895 E0.01431
G1 X98.422 Y110.455 E0.01431
G1 X98.382 Y110.000 E0.01431
G1 X98.422 Y109.545 E0.01431
G1 X98.540 Y109.105 E0.01431
G1 X98.733 Y108.691 E0.01431
G1 X98.995 Y108.317 E0.01431
G1 X99.317 Y107.995 E0.01431
G1 X99.691 Y107.733 E0.01431
G1 X100.105 Y107.540 E0.01431
G1 X100.545 Y107.422 E0.01431
G1 X100.946 Y107.387 E0.01259
G1 X101.444 Y107.419 E0.01566
G1 X101.895 Y107.540 E0.01466
G1 X102.230 Y107.696 E0.01158
G1 X102.071 Y108.038 F10800.000
G1 F1200
G1 X102.439 Y108.285 E0.01391
G1 X102.715 Y108.561 E0.01224
G1 X102.939 Y108.880 E0.01224
G1 X103.104 Y109.234 E0.01224
G1 X103.205 Y109.611 E0.01224
G1 X103.239 Y110.000 E0.01224
G1 X103.205 Y110.389 E0.01224
G1 X103.104 Y110.766 E0.01224
G1 X102.939 Y111.120 E0.01224
G1 X102.715 Y111.439 E0.01224
G1 X102.439 Y111.715 E0.01224
G1 X102.161 Y111.910 E0.01066
G1 X101.772 Y112.103 E0.01359
G1 X101.389 Y112.205 E0.01245
G1 X101.000 Y112.239 E0.01224
G1 X100.611 Y112.205 E0.01224
G1 X100.234 Y112.104 E0.01224
G1 X99.880 Y111.939 E0.01224
G1 X99.561 Y111.715 E0.01224
G1 X99.285 Y111.439 E0.01224
G1 X99.061 Y111.120 E0.01224
G1 X98.896 Y110.766 E0.01224
G1 X98.795 Y110.389 E0.01224
G1 X98.761 Y110.000 E0.01224
G1 X98.795 Y109.611 E0.01224
G1 X98.896 Y109.234 E0.01224
G1 X99.061 Y108.880 E0.01224
G1 X99.285 Y108.561 E0.01224
G1 X99.561 Y108.285 E0.01224
G1 X99.880 Y108.061 E0.01224
G1 X100.234 Y107.896 E0.01224
G1 X100.611 Y107.795 E0.01224
G1 X100.950 Y107.765 E0.01066
G1 X101.382 Y107.793 E0.01359
G1 X101.766 Y107.896 E0.01245
G1 X102.016 Y108.013 E0.00866
G1 X101.930 Y108.389 F10800.000
G1 F1200
G1 X102.196 Y108.575 E0.01017
G1 X102.425 Y108.804 E0.01017
G1 X102.612 Y109.070 E0.01017
G1 X102.749 Y109.364 E0.01017
G1 X102.833 Y109.677 E0.01017
G1 X102.861 Y110.000 E0.01017
G1 X102.833 Y110.323 E0.01017
G1 X102.749 Y110.636 E0.01017
G1 X102.612 Y110.930 E0.01017
G1 X102.425 Y111.196 E0.01017
G1 X102.196 Y111.425 E0.01017
G1 X101.968 Y111.585 E0.00873
G1 X101.639 Y111.748 E0.01152
G1 X101.323 Y111.833 E0.01025
G1 X101.000 Y111.861 E0.01017
G1 X100.677 Y111.833 E0.01017
G1 X100.364 Y111.749 E0.01017
G1 X100.070 Y111.612 E0.01017
G1 X99.804 Y111.425 E0.01017
G1 X99.575 Y111.196 E0.01017
G1 X99.388 Y110.930 E0.01017
G1 X99.251 Y110.636 E0.01017
G1 X99.167 Y110.323 E0.01017
G1 X99.139 Y110.000 E0.01017
G1 X99.167 Y109.677 E0.01017
G1 X99.251 Y109.364 E0.01017
G1 X99.388 Y109.070 E0.01017
G1 X99.575 Y108.804 E0.01017
G1 X99.804 Y108.575 E0.01017
G1 X100.070 Y108.389 E0.01017
G1 X100.364 Y108.251 E0.01017
G1 X100.677 Y108.167 E0.01017
G1 X100.954 Y108.143 E0.00873
G1 X101.321 Y108.167 E0.01152
G1 X101.636 Y108.251 E0.01025
G1 X101.876 Y108.363 E0.00829
G1 X102.211 Y108.226 F10800.000
G1 F8640
G1 X102.196 Y108.575 E-0.08857
G1 X102.425 Y108.804 E-0.07490
G1 X102.612 Y109.070 E-0.07490
G1 X102.749 Y109.364 E-0.07490
G1 X102.833 Y109.677 E-0.07490
G1 X102.861 Y110.000 E-0.07490
G1 X102.833 Y110.323 E-0.07490
G1 X102.749 Y110.636 E-0.07490
G1 X102.612 Y110.930 E-0.07490
G1 X102.432 Y111.187 E-0.07227
G1 E-0.04000 F2100.00000
G1 Z0.800 F10800.000
G1 X95.951 Y109.480
G1 Z0.200
G1 E0.80000 F2100.00000
G1 F1200
G1 X95.996 Y110.000 E0.01638
G1 X95.951 Y110.520 E0.01638
G1 X95.816 Y111.025 E0.01638
G1 X95.595 Y111.498 E0.01638
G1 X95.295 Y111.926 E0.01638
G1 X94.926 Y112.295 E0.01638
G1 X94.547 Y112.561 E0.01453
G1 X94.040 Y112.812 E0.01773
G1 X93.520 Y112.951 E0.01686
G1 X93.000 Y112.996 E0.01638
G1 X92.480 Y112.951 E0.01638
G1 X91.975 Y112.816 E0.01638
G1 X91.502 Y112.595 E0.01638
G1 X91.074 Y112.295 E0.01638
G1 X90.705 Y111.926 E0.01638
G1 X90.405 Y111.498 E0.01638
G1 X90.184 Y111.025 E0.01638
G1 X90.049 Y110.520 E0.01638
G1 X90.004 Y110.000 E0.01638
G1 X90.049 Y109.480 E0.01638
G1 X90.184 Y108.975 E0.01638
G1 X90.405 Y108.502 E0.01638
G1 X90.705 Y108.074 E0.01638
G1 X91.074 Y107.705 E0.01638
G1 X91.502 Y107.405 E0.01638
G1 X91.975 Y107.184 E0.01638
G1 X92.480 Y107.049 E0.01638
G1 X92.941 Y107.009 E0.01453
G1 X93.505 Y107.045 E0.01773
G1 X94.025 Y107.184 E0.01686
G1 X94.498 Y107.405 E0.01638
G1 X94.926 Y107.705 E0.01638
G1 X95.295 Y108.074 E0.01638
G1 X95.595 Y108.502 E0.01638
G1 X95.816 Y108.975 E0.01638
G1 X95.935 Y109.422 E0.01450
G1 X95.571 Y109.519 F10800.000
G1 F1200
G1 X95.618 Y110.000 E0.01514
G1 X95.578 Y110.455 E0.01431
G1 X95.460 Y110.895 E0.01431
G1 X95.267 Y111.309 E0.01431
G1 X95.005 Y111.683 E0.01431
G1 X94.683 Y112.005 E0.01431
G1 X94.354 Y112.236 E0.01259
G1 X93.906 Y112.457 E0.01566
G1 X93.455 Y112.578 E0.01466
G1 X93.000 Y112.618 E0.01431
G1 X92.545 Y112.578 E0.01431
G1 X92.105 Y112.460 E0.01431
G1 X91.691 Y112.267 E0.01431
G1 X91.317 Y112.005 E0.01431
G1 X90.995 Y111.683 E0.01431
G1 X90.733 Y111.309 E0.01431
G1 X90.540 Y110.895 E0.01431
G1 X90.422 Y110.455 E0.01431
G1 X90.382 Y110.000 E0.01431
G1 X90.422 Y109.545 E0.01431
