; generated by SuperSlicer 2.3.55 on 2021-06-17 at 12:36:01 UTC

; 

; external perimeters extrusion width = 0.45mm
; perimeters extrusion width = 0.45mm
; infill extrusion width = 0.45mm
; solid infill extrusion width = 0.45mm
; top infill extrusion width = 0.40mm
; support material extrusion width = 0.35mm
; first layer extrusion width = 0.42mm

; object:{"name":"yaxiscablechainmounting","id":"yaxiscablechainmounting.STL id:0 copy 0","object_center":[125.000000,105.000000,0.000000],"boundingbox_center":[125.000000,105.000000,7.250000],"boundingbox_size":[74.000000,30.000000,14.500000]}
; Total objects to print: 1
M486 T1
; plater:{"center":[125.000000,105.000000,0.000000],"boundingbox_center":[125.000000,105.000000,7.250000],"boundingbox_size":[74.000000,30.000000,14.500000]}

M73 P0 R48
M73 Q0 S52
;TYPE:Custom
M862.3 P "MK3S" ; printer model check
M862.1 P0.4 ; nozzle diameter check
M115 U3.9.2 ; tell printer latest fw version
G90 ; use absolute coordinates
M83 ; extruder relative mode
M104 S215 ; set extruder temp
M140 S60 ; set bed temp
M190 S60 ; wait for bed temp
M109 S215 ; wait for extruder temp
G28 W ; home all without mesh bed level
G80 ; mesh bed leveling
G1 Y-3.0 F1000.0 ; go outside print area
G92 E0.0
G1 X60.0 E9.0 F1000.0 ; intro line
M73 Q0 S51
G1 X100.0 E12.5 F1000.0 ; intro line
G92 E0.0
M221 S95

; Don't change E values below. Excessive value can damage the printer.

M107
G21 ; set units to millimeters
G90 ; use absolute coordinates
M83 ; use relative distances for extrusion
M900 K0.05 ; Filament gcode LA 1.5
M900 K30 ; Filament gcode LA 1.0
;LAYER_CHANGE
;Z:0.2
;HEIGHT:0.2
;BEFORE_LAYER_CHANGE
;0.2


G1 E-0.80000 F2100.000
G1 Z0.400000 F10800.000
;AFTER_LAYER_CHANGE
;0.2
G1 X83.770 Y84.987
G1 Z0.200000
G1 E0.80000 F2100.000
;TYPE:Skirt
;WIDTH:0.42
G1 F1200.000
G1 X84.500 Y84.427 E0.02885
G1 X85.302 Y83.962 E0.02906
G1 X86.824 Y83.410 E0.05078
G1 X88.431 Y83.212 E0.05078
G1 X161.507 Y83.211 E2.29122
G1 X162.843 Y83.338 E0.04210
G1 X164.133 Y83.711 E0.04210
G1 X165.331 Y84.317 E0.04210
G1 X166.395 Y85.136 E0.04210
G1 X167.339 Y86.171 E0.04391
G1 X168.053 Y87.332 E0.04272
G1 X168.538 Y88.619 E0.04313
G1 X168.769 Y89.968 E0.04293
G1 X168.743 Y120.306 E0.95123
G1 X168.586 Y121.193 E0.02823
G1 X168.318 Y122.059 E0.02843
G1 X167.945 Y122.879 E0.02823
G1 X167.473 Y123.645 E0.02823
G1 X166.904 Y124.352 E0.02843
G1 X166.195 Y125.044 E0.03108
G1 X165.478 Y125.588 E0.02823
G1 X164.698 Y126.038 E0.02823
G1 X163.176 Y126.590 E0.05078
G1 X161.569 Y126.788 E0.05078
G1 X88.209 Y126.783 E2.30015
G1 X87.248 Y126.679 E0.03030
G1 X86.303 Y126.445 E0.03051
G1 X85.405 Y126.088 E0.03030
G1 X84.563 Y125.615 E0.03030
G1 X83.782 Y125.023 E0.03071
G1 X83.035 Y124.285 E0.03294
G1 X82.445 Y123.527 E0.03009
G1 X81.962 Y122.698 E0.03009
G1 X81.420 Y121.221 E0.04933
G1 X81.213 Y119.661 E0.04933
G1 X81.238 Y89.885 E0.93362
G1 X81.377 Y88.968 E0.02906
G1 X81.632 Y88.078 E0.02906
G1 X82.000 Y87.227 E0.02906
G1 X82.474 Y86.431 E0.02906
G1 X83.051 Y85.697 E0.02926
G1 X83.727 Y85.029 E0.02982
;WIPE_START
G1 F8640.000
G1 X84.500 Y84.427 E-0.22620
G1 X85.302 Y83.962 E-0.21398
G1 X86.604 Y83.489 E-0.31982
;WIPE_END
G1 E-0.04000 F2100.000
G1 Z1.000000 F10800.000
G1 X82.944 Y90.907
G1 Z0.200000
G1 E0.80000 F2100.000
G1 F1200.000
G1 X82.944 Y89.986 E0.02887
G1 X83.050 Y89.287 E0.02219
G1 X83.223 Y88.688 E0.01955
G1 X83.524 Y87.989 E0.02385
G1 X83.892 Y87.383 E0.02225
G1 X84.287 Y86.894 E0.01970
G1 X85.023 Y86.172 E0.03233
G1 X85.593 Y85.751 E0.02220
G1 X86.123 Y85.458 E0.01901
G1 X87.184 Y85.073 E0.03537
G1 X88.269 Y84.932 E0.03433
G1 X89.680 Y84.932 E0.04422
;WIPE_START
G1 F8640.000
G1 X88.269 Y84.932 E-0.32564
G1 X87.184 Y85.073 E-0.25279
G1 X86.445 Y85.342 E-0.18157
;WIPE_END
G1 E-0.04000 F2100.000
G1 Z0.600000 F10800.000
G1 X90.778 Y85.309
G1 Z0.200000
G1 E0.80000 F2100.000
G1 F1200.000
G1 X88.272 Y85.309 E0.07858
G1 X87.273 Y85.439 E0.03157
G1 X86.298 Y85.793 E0.03253
G1 X85.798 Y86.067 E0.01786
G1 X85.270 Y86.457 E0.02058
G1 X84.564 Y87.151 E0.03105
G1 X84.202 Y87.598 E0.01803
G1 X83.860 Y88.161 E0.02066
G1 X83.573 Y88.830 E0.02284
G1 X83.418 Y89.366 E0.01747
G1 X83.318 Y90.044 E0.02149
G1 X83.317 Y92.456 E0.07563
;WIPE_START
G1 F8640.000
G1 X83.318 Y90.044 E-0.55697
G1 X83.418 Y89.366 E-0.15826
G1 X83.472 Y89.179 E-0.04476
;WIPE_END
G1 E-0.04000 F2100.000
G1 Z0.600000 F10800.000
G1 X88.211 Y95.985
G1 Z0.200000
G1 E0.80000 F2100.000
G1 F1200.000
G1 X88.211 Y90.432 E0.17410
G1 X88.432 Y90.211 E0.00979
G1 X94.098 Y90.211 E0.17765
G1 X94.048 Y89.834 E0.01193
G1 X88.357 Y89.834 E0.17844
G1 X88.219 Y89.892 E0.00470
G1 X87.892 Y90.219 E0.01450
G1 X87.834 Y90.357 E0.00470
G1 X87.834 Y95.935 E0.17489
G1 X87.457 Y95.886 E0.01193
G1 X87.457 Y90.320 E0.17450
G1 X87.599 Y89.978 E0.01160
G1 X87.978 Y89.599 E0.01683
G1 X88.320 Y89.457 E0.01160
G1 X93.999 Y89.457 E0.17805
G1 X93.949 Y89.080 E0.01192
G1 X88.302 Y89.080 E0.17707
G1 X88.120 Y89.116 E0.00580
G1 X87.725 Y89.319 E0.01393
G1 X87.296 Y89.753 E0.01914
G1 X87.080 Y90.302 E0.01847
G1 X87.080 Y95.836 E0.17353
G1 X86.703 Y95.690 E0.01268
G1 X86.703 Y90.292 E0.16923
G1 X86.764 Y89.984 E0.00985
G1 X86.987 Y89.536 E0.01569
G1 X87.478 Y89.034 E0.02204
G1 X87.726 Y88.871 E0.00927
G1 X88.292 Y88.703 E0.01853
G1 X93.831 Y88.703 E0.17367
G1 X93.675 Y88.326 E0.01280
G1 X88.288 Y88.326 E0.16892
G1 X87.950 Y88.380 E0.01072
G1 X87.577 Y88.525 E0.01254
G1 X87.229 Y88.751 E0.01303
G1 X86.682 Y89.315 E0.02464
G1 X86.411 Y89.853 E0.01887
G1 X86.341 Y90.131 E0.00899
G1 X86.326 Y95.534 E0.16939
G1 X85.949 Y95.378 E0.01279
G1 X85.950 Y90.262 E0.16039
G1 X86.057 Y89.724 E0.01722
G1 X86.209 Y89.364 E0.01225
G1 X86.505 Y88.940 E0.01621
G1 X86.981 Y88.467 E0.02103
G1 X87.427 Y88.179 E0.01664
G1 X87.861 Y88.013 E0.01457
G1 X88.285 Y87.949 E0.01347
G1 X93.519 Y87.949 E0.16409
G1 X93.357 Y87.572 E0.01287
G1 X88.061 Y87.589 E0.16606
G1 X87.275 Y87.834 E0.02581
G1 X86.733 Y88.182 E0.02018
G1 X86.067 Y88.878 E0.03021
G1 X85.702 Y89.596 E0.02524
G1 X85.601 Y89.988 E0.01269
G1 X85.573 Y95.181 E0.16283
G1 X85.196 Y94.892 E0.01489
G1 X85.196 Y90.227 E0.14625
G1 X85.335 Y89.502 E0.02315
G1 X85.528 Y89.039 E0.01573
G1 X85.948 Y88.431 E0.02315
G1 X86.487 Y87.897 E0.02379
G1 X86.829 Y87.646 E0.01331
G1 X87.680 Y87.281 E0.02904
G1 X88.007 Y87.216 E0.01045
G1 X93.067 Y87.195 E0.15867
G1 X92.778 Y86.818 E0.01490
G1 X88.281 Y86.818 E0.14102
G1 X87.958 Y86.842 E0.01016
G1 X87.322 Y86.999 E0.02053
M73 P0 R47
G1 X86.626 Y87.329 E0.02415
G1 X86.254 Y87.600 E0.01443
G1 X85.451 Y88.443 E0.03650
G1 X85.203 Y88.847 E0.01488
G1 X84.891 Y89.690 E0.02816
M73 P1 R47
G1 X84.821 Y90.171 E0.01526
G1 X84.821 Y94.604 E0.13898
G1 X84.445 Y94.273 E0.01572
G1 X84.445 Y90.143 E0.12947
G1 X84.640 Y89.205 E0.03006
G1 X84.867 Y88.675 E0.01805
G1 X85.399 Y87.914 E0.02913
G1 X86.009 Y87.314 E0.02683
G1 X86.422 Y87.011 E0.01606
G1 X86.796 Y86.809 E0.01334
G1 X87.533 Y86.540 E0.02460
G1 X88.279 Y86.441 E0.02357
G1 X92.489 Y86.441 E0.13201
G1 X92.006 Y86.064 E0.01920
G1 X87.869 Y86.093 E0.12972
G1 X87.442 Y86.174 E0.01363
G1 X86.631 Y86.470 E0.02706
G1 X85.762 Y87.028 E0.03237
G1 X84.835 Y88.008 E0.04232
G1 X84.532 Y88.503 E0.01819
G1 X84.153 Y89.537 E0.03452
G1 X84.070 Y90.108 E0.01809
G1 X84.069 Y93.783 E0.11524
G1 X83.693 Y93.293 E0.01938
M73 Q1 S51
G1 X83.693 Y90.083 E0.10062
G1 X83.784 Y89.461 E0.01972
G1 X83.928 Y88.958 E0.01638
G1 X84.195 Y88.332 E0.02136
G1 X84.511 Y87.813 E0.01906
G1 X84.848 Y87.398 E0.01676
G1 X85.516 Y86.743 E0.02932
G1 X86.004 Y86.383 E0.01902
G1 X86.458 Y86.134 E0.01624
G1 X86.951 Y85.930 E0.01672
G1 X87.818 Y85.719 E0.02800
G1 X91.515 Y85.687 E0.11590
;WIPE_START
G1 F8640.000
G1 X88.224 Y85.716 E-0.76000
;WIPE_END
G1 E-0.04000 F2100.000
G1 Z0.600000 F10800.000
G1 X83.688 Y116.484
G1 Z0.200000
G1 E0.80000 F2100.000
G1 F1200.000
G1 X83.720 Y120.183 E0.11598
G1 X83.930 Y121.049 E0.02797
G1 X84.134 Y121.542 E0.01672
G1 X84.384 Y121.997 E0.01627
G1 X84.760 Y122.505 E0.01982
G1 X85.408 Y123.161 E0.02891
G1 X85.840 Y123.507 E0.01737
G1 X86.369 Y123.823 E0.01933
G1 X87.033 Y124.099 E0.02251
G1 X87.661 Y124.256 E0.02030
G1 X88.195 Y124.312 E0.01684
G1 X91.286 Y124.312 E0.09693
G1 X91.777 Y123.935 E0.01940
G1 X88.217 Y123.935 E0.11163
G1 X87.728 Y123.885 E0.01543
G1 X87.139 Y123.736 E0.01904
G1 X86.536 Y123.485 E0.02049
G1 X86.039 Y123.187 E0.01817
G1 X85.656 Y122.877 E0.01543
G1 X85.029 Y122.238 E0.02808
G1 X84.470 Y121.369 E0.03241
G1 X84.175 Y120.559 E0.02703
G1 X84.093 Y120.132 E0.01363
G1 X84.064 Y115.993 E0.12979
G1 X84.441 Y115.511 E0.01918
G1 X84.441 Y119.731 E0.13232
G1 X84.541 Y120.467 E0.02331
G1 X84.809 Y121.204 E0.02457
G1 X85.011 Y121.578 E0.01334
G1 X85.314 Y121.992 E0.01610
G1 X85.915 Y122.602 E0.02684
G1 X86.703 Y123.147 E0.03005
G1 X87.262 Y123.380 E0.01896
G1 X88.227 Y123.558 E0.03080
G1 X92.269 Y123.558 E0.12670
G1 X92.602 Y123.182 E0.01576
G1 X88.257 Y123.182 E0.13623
G1 X87.862 Y123.143 E0.01243
G1 X87.384 Y123.023 E0.01545
G1 X86.872 Y122.810 E0.01740
G1 X86.466 Y122.565 E0.01487
G1 X85.613 Y121.761 E0.03675
G1 X85.332 Y121.379 E0.01486
G1 X84.999 Y120.678 E0.02433
G1 X84.842 Y120.042 E0.02053
G1 X84.818 Y119.726 E0.00994
G1 X84.818 Y115.221 E0.14125
G1 X85.195 Y114.932 E0.01489
G1 X85.216 Y119.993 E0.15868
G1 X85.281 Y120.321 E0.01049
G1 X85.646 Y121.171 E0.02900
G1 X85.897 Y121.513 E0.01331
G1 X86.431 Y122.052 E0.02379
G1 X87.040 Y122.472 E0.02319
G1 X87.506 Y122.667 E0.01585
G1 X88.265 Y122.805 E0.02419
G1 X92.891 Y122.805 E0.14503
G1 X93.180 Y122.428 E0.01490
G1 X87.997 Y122.401 E0.16253
G1 X87.628 Y122.310 E0.01189
G1 X86.891 Y121.942 E0.02582
G1 X86.182 Y121.267 E0.03071
G1 X85.834 Y120.725 E0.02018
G1 X85.589 Y119.939 E0.02581
G1 X85.572 Y114.643 E0.16606
G1 X85.949 Y114.481 E0.01287
G1 X85.949 Y119.715 E0.16409
G1 X86.013 Y120.139 E0.01347
G1 X86.179 Y120.573 E0.01457
G1 X86.467 Y121.019 E0.01664
G1 X87.108 Y121.633 E0.02782
G1 X87.754 Y121.954 E0.02264
G1 X88.281 Y122.051 E0.01678
G1 X93.377 Y122.051 E0.15980
G1 X93.534 Y121.674 E0.01280
G1 X88.131 Y121.659 E0.16939
G1 X87.853 Y121.589 E0.00899
G1 X87.315 Y121.318 E0.01887
G1 X86.751 Y120.771 E0.02464
G1 X86.525 Y120.423 E0.01303
G1 X86.380 Y120.050 E0.01254
G1 X86.326 Y119.712 E0.01072
G1 X86.326 Y114.325 E0.16892
G1 X86.703 Y114.169 E0.01280
G1 X86.703 Y119.708 E0.17367
G1 X86.871 Y120.274 E0.01853
G1 X87.034 Y120.522 E0.00927
G1 X87.536 Y121.013 E0.02204
G1 X87.984 Y121.236 E0.01569
G1 X88.292 Y121.297 E0.00985
G1 X93.690 Y121.297 E0.16923
G1 X93.836 Y120.920 E0.01268
G1 X88.302 Y120.920 E0.17353
G1 X87.753 Y120.704 E0.01847
G1 X87.319 Y120.275 E0.01914
G1 X87.116 Y119.880 E0.01393
G1 X87.080 Y119.698 E0.00580
G1 X87.080 Y114.051 E0.17707
G1 X87.457 Y114.001 E0.01193
G1 X87.457 Y119.680 E0.17805
G1 X87.599 Y120.022 E0.01160
G1 X87.978 Y120.401 E0.01683
G1 X88.320 Y120.543 E0.01160
G1 X93.886 Y120.543 E0.17450
G1 X93.935 Y120.166 E0.01193
G1 X88.357 Y120.166 E0.17489
G1 X88.219 Y120.108 E0.00470
G1 X87.892 Y119.781 E0.01450
G1 X87.834 Y119.643 E0.00470
G1 X87.834 Y113.952 E0.17844
G1 X88.211 Y113.902 E0.01193
G1 X88.211 Y119.568 E0.17765
G1 X88.432 Y119.789 E0.00979
G1 X93.985 Y119.789 E0.17410
;WIPE_START
G1 F8640.000
G1 X90.694 Y119.789 E-0.76000
;WIPE_END
G1 E-0.04000 F2100.000
G1 Z0.600000 F10800.000
G1 X90.441 Y124.689
G1 Z0.200000
G1 E0.80000 F2100.000
G1 F1200.000
G1 X88.184 Y124.689 E0.07076
G1 X87.594 Y124.627 E0.01858
G1 X86.912 Y124.456 E0.02204
G1 X86.202 Y124.161 E0.02411
G1 X85.629 Y123.820 E0.02092
G1 X85.166 Y123.451 E0.01855
G1 X84.476 Y122.753 E0.03078
G1 X84.068 Y122.203 E0.02149
G1 X83.793 Y121.702 E0.01790
G1 X83.443 Y120.741 E0.03206
G1 X83.310 Y119.764 E0.03092
G1 X83.311 Y117.219 E0.07980
;WIPE_START
G1 F8640.000
G1 X83.310 Y119.764 E-0.58767
G1 X83.411 Y120.504 E-0.17233
;WIPE_END
G1 E-0.04000 F2100.000
G1 Z0.600000 F10800.000
G1 X82.933 Y118.313
G1 Z0.200000
G1 E0.80000 F2100.000
G1 F1200.000
G1 X82.933 Y119.772 E0.04575
G1 X83.077 Y120.833 E0.03358
G1 X83.458 Y121.877 E0.03484
G1 X83.764 Y122.427 E0.01973
G1 X84.192 Y123.001 E0.02246
G1 X84.912 Y123.729 E0.03209
G1 X85.419 Y124.133 E0.02032
G1 X86.035 Y124.499 E0.02248
G1 X86.793 Y124.814 E0.02574
G1 X87.528 Y124.998 E0.02375
G1 X88.834 Y125.066 E0.04102
;WIPE_START
G1 F8640.000
G1 X87.528 Y124.998 E-0.30208
G1 X86.793 Y124.814 E-0.17487
G1 X86.035 Y124.499 E-0.18958
G1 X85.687 Y124.292 E-0.09348
;WIPE_END
G1 E-0.04000 F2100.000
G1 Z0.600000 F10800.000
G1 X155.902 Y119.789
G1 Z0.200000
G1 E0.80000 F2100.000
G1 F1200.000
G1 X161.568 Y119.789 E0.17765
G1 X161.789 Y119.568 E0.00979
G1 X161.789 Y114.015 E0.17410
G1 X162.166 Y114.065 E0.01193
G1 X162.166 Y119.643 E0.17489
G1 X162.108 Y119.781 E0.00470
G1 X161.781 Y120.108 E0.01450
G1 X161.643 Y120.166 E0.00470
G1 X155.952 Y120.166 E0.17844
G1 X156.001 Y120.543 E0.01193
G1 X161.680 Y120.543 E0.17805
G1 X162.022 Y120.401 E0.01160
G1 X162.401 Y120.022 E0.01683
G1 X162.543 Y119.680 E0.01160
G1 X162.543 Y114.114 E0.17450
G1 X162.920 Y114.164 E0.01193
G1 X162.920 Y119.698 E0.17353
G1 X162.704 Y120.247 E0.01847
G1 X162.275 Y120.681 E0.01914
G1 X161.880 Y120.884 E0.01393
G1 X161.698 Y120.920 E0.00580
G1 X156.051 Y120.920 E0.17707
G1 X156.169 Y121.297 E0.01239
G1 X161.708 Y121.297 E0.17367
G1 X162.274 Y121.129 E0.01853
G1 X162.522 Y120.966 E0.00927
G1 X163.121 Y120.291 E0.02831
G1 X163.297 Y119.708 E0.01911
G1 X163.297 Y114.310 E0.16923
G1 X163.674 Y114.466 E0.01279
G1 X163.674 Y119.721 E0.16477
G1 X163.589 Y120.147 E0.01360
G1 X163.318 Y120.685 E0.01887
G1 X162.561 Y121.401 E0.03268
G1 X162.050 Y121.620 E0.01745
G1 X161.712 Y121.674 E0.01072
G1 X156.325 Y121.674 E0.16891
G1 X156.481 Y122.051 E0.01280
G1 X161.715 Y122.051 E0.16409
G1 X162.139 Y121.987 E0.01347
G1 X162.765 Y121.718 E0.02135
G1 X163.019 Y121.533 E0.00987
G1 X163.625 Y120.904 E0.02739
G1 X163.943 Y120.276 E0.02206
G1 X164.029 Y119.940 E0.01088
G1 X164.050 Y114.622 E0.16673
G1 X164.426 Y114.818 E0.01327
G1 X164.425 Y119.790 E0.15588
G1 X164.370 Y120.158 E0.01168
G1 X164.127 Y120.807 E0.02172
G1 X163.932 Y121.124 E0.01168
G1 X163.267 Y121.818 E0.03014
G1 X162.725 Y122.166 E0.02018
G1 X161.939 Y122.411 E0.02581
G1 X156.643 Y122.428 E0.16606
G1 X156.933 Y122.805 E0.01490
G1 X161.717 Y122.805 E0.15003
G1 X162.320 Y122.719 E0.01908
G1 X162.877 Y122.511 E0.01866
G1 X163.500 Y122.114 E0.02315
G1 X164.240 Y121.340 E0.03357
G1 X164.462 Y120.981 E0.01324
G1 X164.739 Y120.235 E0.02494
G1 X164.802 Y119.814 E0.01335
G1 X164.802 Y115.107 E0.14760
G1 X165.178 Y115.395 E0.01486
G1 X165.178 Y119.847 E0.13958
G1 X165.005 Y120.666 E0.02623
G1 X164.797 Y121.153 E0.01660
G1 X164.313 Y121.842 E0.02641
G1 X163.746 Y122.400 E0.02495
G1 X163.374 Y122.671 E0.01443
G1 X162.678 Y123.001 E0.02415
G1 X162.042 Y123.158 E0.02053
G1 X157.222 Y123.182 E0.15115
G1 X157.511 Y123.559 E0.01490
G1 X162.080 Y123.533 E0.14326
G1 X162.791 Y123.361 E0.02293
G1 X163.204 Y123.191 E0.01400
G1 X163.991 Y122.686 E0.02933
G1 X164.856 Y121.775 E0.03939
G1 X165.133 Y121.325 E0.01658
G1 X165.475 Y120.400 E0.03090
G1 X165.553 Y119.880 E0.01649
G1 X165.554 Y115.725 E0.13026
G1 X165.928 Y116.214 E0.01929
G1 X165.928 Y119.931 E0.11655
G1 X165.713 Y120.926 E0.03191
G1 X165.468 Y121.497 E0.01950
G1 X164.876 Y122.345 E0.03242
G1 X164.238 Y122.972 E0.02807
G1 X163.782 Y123.306 E0.01772
G1 X163.369 Y123.530 E0.01472
G1 X162.558 Y123.826 E0.02706
G1 X161.724 Y123.936 E0.02638
G1 X157.994 Y123.936 E0.11695
G1 X158.485 Y124.313 E0.01942
G1 X161.726 Y124.313 E0.10162
G1 X162.649 Y124.191 E0.02920
G1 X163.542 Y123.866 E0.02980
G1 X163.996 Y123.617 E0.01624
G1 X164.484 Y123.258 E0.01899
G1 X165.152 Y122.602 E0.02935
G1 X165.473 Y122.210 E0.01589
G1 X165.796 Y121.684 E0.01935
G1 X166.062 Y121.071 E0.02094
G1 X166.210 Y120.570 E0.01640
G1 X166.303 Y119.972 E0.01896
G1 X166.303 Y116.702 E0.10252
G1 X166.690 Y117.562 F10800.000
G1 F1200.000
G1 X166.677 Y120.023 E0.07716
G1 X166.578 Y120.651 E0.01994
G1 X166.415 Y121.204 E0.01806
G1 X166.131 Y121.858 E0.02235
G1 X165.773 Y122.439 E0.02140
G1 X165.425 Y122.861 E0.01715
G1 X164.719 Y123.553 E0.03100
G1 X164.189 Y123.941 E0.02059
G1 X163.702 Y124.207 E0.01740
