; generated by Slic3r Prusa Edition 1.42.0-beta2+linux64 on 2019-06-18 at 12:06:53

; 

; external perimeters extrusion width = 0.45mm
; perimeters extrusion width = 0.45mm
; infill extrusion width = 0.45mm
; solid infill extrusion width = 0.45mm
; top infill extrusion width = 0.40mm
; first layer extrusion width = 0.42mm

M73 P0 R49
M73 Q0 S50
M201 X1000 Y1000 Z1000 E5000 ; sets maximum accelerations, mm/sec^2
M203 X200 Y200 Z12 E120 ; sets maximum feedrates, mm/sec
M204 P1250 R1250 T1250 ; sets acceleration (P, T) and retract acceleration (R), mm/sec^2
M205 X8.00 Y8.00 Z0.40 E1.50 ; sets the jerk limits, mm/sec
M205 S0 T0 ; sets the minimum extruding and travel feed rate, mm/sec
M107
M115 U3.6.0 ; tell printer latest fw version
M83  ; extruder relative mode
M104 S215 ; set extruder temp
M140 S60 ; set bed temp
M190 S60 ; wait for bed temp
M109 S215 ; wait for extruder temp
G28 W ; home all without mesh bed level
G80 ; mesh bed leveling
G1 Y-3.0 F1000.0 ; go outside print area
G92 E0.0
G1 X60.0 E9.0  F1000.0 ; intro line
M73 Q0 S50
M73 P0 R49
G1 X100.0 E12.5  F1000.0 ; intro line
G92 E0.0
M221 S95
M900 K30 ; Filament gcode
G21 ; set units to millimeters
G90 ; use absolute coordinates
M83 ; use relative distances for extrusion
;BEFORE_LAYER_CHANGE
G92 E0.0
;0.2


G1 E-0.80000 F2100.00000
G1 Z0.600 F10800.000
;AFTER_LAYER_CHANGE
;0.2
G1 X93.763 Y102.944
G1 Z0.200
G1 E0.80000 F2100.00000
M204 S1000
G1 F1200
G1 X94.319 Y102.670 E0.01942
G1 X124.693 Y94.083 E0.98969
G1 X155.004 Y94.061 E0.95038
G1 X155.823 Y94.222 E0.02620
G1 X156.526 Y94.681 E0.02631
G1 X157.003 Y95.367 E0.02620
G1 X157.187 Y96.182 E0.02620
G1 X157.182 Y113.918 E0.55610
G1 X157.040 Y114.543 E0.02010
G1 X156.723 Y115.100 E0.02010
G1 X156.258 Y115.541 E0.02010
G1 X155.681 Y115.830 E0.02021
G1 X155.002 Y115.939 E0.02157
G1 X94.952 Y115.938 E1.88282
G1 X94.293 Y115.821 E0.02100
G1 X93.697 Y115.508 E0.02112
G1 X93.226 Y115.032 E0.02100
G1 X92.920 Y114.431 E0.02112
G1 X92.812 Y113.770 E0.02100
G1 X92.827 Y104.491 E0.29095
G1 X92.986 Y103.893 E0.01942
G1 X93.307 Y103.363 E0.01942
G1 X93.719 Y102.985 E0.01753
G1 F8640
G1 X94.319 Y102.670 E-0.15633
G1 X96.834 Y101.959 E-0.60367
G1 E-0.04000 F2100.00000
G1 Z0.800 F10800.000
G1 X144.661 Y100.500
G1 Z0.200
G1 E0.80000 F2100.00000
G1 F1200
G1 X144.711 Y99.920 E0.01825
G1 X144.862 Y99.358 E0.01825
G1 X145.108 Y98.830 E0.01825
G1 X145.442 Y98.354 E0.01825
G1 X145.854 Y97.942 E0.01825
G1 X146.330 Y97.608 E0.01825
G1 X146.858 Y97.362 E0.01825
G1 X147.420 Y97.211 E0.01825
G1 X148.000 Y97.161 E0.01825
G1 X148.580 Y97.211 E0.01825
G1 X149.142 Y97.362 E0.01825
G1 X149.670 Y97.608 E0.01825
G1 X150.146 Y97.942 E0.01825
G1 X150.558 Y98.354 E0.01825
G1 X150.892 Y98.830 E0.01825
G1 X151.138 Y99.358 E0.01825
G1 X151.289 Y99.920 E0.01825
G1 X151.339 Y100.500 E0.01825
G1 X151.289 Y101.080 E0.01825
G1 X151.138 Y101.642 E0.01825
G1 X150.892 Y102.170 E0.01825
G1 X150.558 Y102.646 E0.01825
G1 X150.146 Y103.058 E0.01825
G1 X149.670 Y103.392 E0.01825
G1 X149.142 Y103.638 E0.01825
G1 X148.580 Y103.789 E0.01825
G1 X148.000 Y103.839 E0.01825
G1 X147.420 Y103.789 E0.01825
G1 X146.858 Y103.638 E0.01825
G1 X146.330 Y103.392 E0.01825
G1 X145.854 Y103.058 E0.01825
G1 X145.442 Y102.646 E0.01825
G1 X145.108 Y102.170 E0.01825
G1 X144.862 Y101.642 E0.01825
G1 X144.711 Y101.080 E0.01825
G1 X144.666 Y100.560 E0.01637
G1 X145.042 Y100.527 F10800.000
G1 F1200
G1 X145.084 Y99.986 E0.01702
G1 X145.218 Y99.487 E0.01618
G1 X145.436 Y99.020 E0.01618
G1 X145.732 Y98.597 E0.01618
G1 X146.097 Y98.232 E0.01618
G1 X146.520 Y97.936 E0.01618
G1 X146.987 Y97.718 E0.01618
G1 X147.486 Y97.584 E0.01618
G1 X148.000 Y97.539 E0.01618
G1 X148.514 Y97.584 E0.01618
G1 X149.013 Y97.718 E0.01618
G1 X149.480 Y97.936 E0.01618
G1 X149.903 Y98.232 E0.01618
G1 X150.268 Y98.597 E0.01618
G1 X150.564 Y99.020 E0.01618
G1 X150.782 Y99.487 E0.01618
G1 X150.916 Y99.986 E0.01618
G1 X150.961 Y100.500 E0.01618
G1 X150.916 Y101.014 E0.01618
G1 X150.782 Y101.513 E0.01618
G1 X150.564 Y101.980 E0.01618
G1 X150.268 Y102.403 E0.01618
G1 X149.903 Y102.768 E0.01618
G1 X149.480 Y103.064 E0.01618
G1 X149.013 Y103.282 E0.01618
G1 X148.514 Y103.416 E0.01618
G1 X148.000 Y103.461 E0.01618
G1 X147.486 Y103.416 E0.01618
G1 X146.987 Y103.282 E0.01618
G1 X146.520 Y103.064 E0.01618
G1 X146.097 Y102.768 E0.01618
G1 X145.732 Y102.403 E0.01618
G1 X145.436 Y101.980 E0.01618
G1 X145.218 Y101.513 E0.01618
G1 X145.084 Y101.014 E0.01618
G1 X145.047 Y100.587 E0.01345
G1 X144.694 Y100.329 F10800.000
G1 F8640
G1 X145.084 Y99.986 E-0.13900
G1 X145.218 Y99.487 E-0.11917
G1 X145.436 Y99.020 E-0.11917
G1 X145.732 Y98.597 E-0.11917
G1 X146.097 Y98.232 E-0.11917
G1 X146.520 Y97.936 E-0.11917
G1 X146.618 Y97.890 E-0.02516
G1 E-0.04000 F2100.00000
G1 Z0.800 F10800.000
G1 X135.339 Y100.500
G1 Z0.200
G1 E0.80000 F2100.00000
G1 F1200
G1 X135.289 Y101.080 E0.01825
G1 X135.138 Y101.642 E0.01825
G1 X134.892 Y102.170 E0.01825
G1 X134.558 Y102.646 E0.01825
G1 X134.146 Y103.058 E0.01825
G1 X133.670 Y103.392 E0.01825
G1 X133.142 Y103.638 E0.01825
G1 X132.580 Y103.789 E0.01825
G1 X132.000 Y103.839 E0.01825
G1 X131.420 Y103.789 E0.01825
G1 X130.858 Y103.638 E0.01825
G1 X130.330 Y103.392 E0.01825
G1 X129.854 Y103.058 E0.01825
G1 X129.442 Y102.646 E0.01825
G1 X129.108 Y102.170 E0.01825
G1 X128.862 Y101.642 E0.01825
G1 X128.711 Y101.080 E0.01825
G1 X128.661 Y100.500 E0.01825
G1 X128.711 Y99.920 E0.01825
G1 X128.862 Y99.358 E0.01825
G1 X129.108 Y98.830 E0.01825
G1 X129.442 Y98.354 E0.01825
G1 X129.854 Y97.942 E0.01825
G1 X130.330 Y97.608 E0.01825
G1 X130.858 Y97.362 E0.01825
G1 X131.420 Y97.211 E0.01825
G1 X132.000 Y97.161 E0.01825
G1 X132.580 Y97.211 E0.01825
G1 X133.142 Y97.362 E0.01825
G1 X133.670 Y97.608 E0.01825
G1 X134.146 Y97.942 E0.01825
G1 X134.558 Y98.354 E0.01825
G1 X134.892 Y98.830 E0.01825
G1 X135.138 Y99.358 E0.01825
G1 X135.289 Y99.920 E0.01825
G1 X135.334 Y100.440 E0.01637
G1 X134.958 Y100.473 F10800.000
G1 F1200
G1 X134.916 Y101.014 E0.01702
G1 X134.782 Y101.513 E0.01618
G1 X134.564 Y101.980 E0.01618
G1 X134.268 Y102.403 E0.01618
G1 X133.903 Y102.768 E0.01618
G1 X133.480 Y103.064 E0.01618
G1 X133.013 Y103.282 E0.01618
G1 X132.514 Y103.416 E0.01618
G1 X132.000 Y103.461 E0.01618
G1 X131.486 Y103.416 E0.01618
G1 X130.987 Y103.282 E0.01618
G1 X130.520 Y103.064 E0.01618
G1 X130.097 Y102.768 E0.01618
G1 X129.732 Y102.403 E0.01618
G1 X129.436 Y101.980 E0.01618
G1 X129.218 Y101.513 E0.01618
G1 X129.084 Y101.014 E0.01618
G1 X129.039 Y100.500 E0.01618
G1 X129.084 Y99.986 E0.01618
G1 X129.218 Y99.487 E0.01618
G1 X129.436 Y99.020 E0.01618
G1 X129.732 Y98.597 E0.01618
G1 X130.097 Y98.232 E0.01618
G1 X130.520 Y97.936 E0.01618
G1 X130.987 Y97.718 E0.01618
G1 X131.486 Y97.584 E0.01618
G1 X132.000 Y97.539 E0.01618
G1 X132.514 Y97.584 E0.01618
G1 X133.013 Y97.718 E0.01618
G1 X133.480 Y97.936 E0.01618
G1 X133.903 Y98.232 E0.01618
G1 X134.268 Y98.597 E0.01618
G1 X134.564 Y99.020 E0.01618
G1 X134.782 Y99.487 E0.01618
G1 X134.916 Y99.986 E0.01618
G1 X134.953 Y100.413 E0.01345
G1 X135.306 Y100.671 F10800.000
G1 F8640
G1 X134.916 Y101.014 E-0.13900
G1 X134.782 Y101.513 E-0.11917
G1 X134.564 Y101.980 E-0.11917
G1 X134.268 Y102.403 E-0.11917
G1 X133.903 Y102.768 E-0.11917
G1 X133.480 Y103.064 E-0.11917
G1 X133.382 Y103.110 E-0.02516
G1 E-0.04000 F2100.00000
G1 Z0.800 F10800.000
G1 X126.341 Y106.091
G1 Z0.200
G1 E0.80000 F2100.00000
G1 F1200
G1 X126.341 Y97.591 E0.26651
G1 X129.138 Y97.591 E0.08768
G1 X128.862 Y97.867 E0.01222
G1 X128.452 Y98.452 E0.02239
G1 X128.151 Y99.099 E0.02239
G1 X127.966 Y99.789 E0.02239
G1 X127.904 Y100.500 E0.02239
G1 X127.966 Y101.211 E0.02239
G1 X128.151 Y101.901 E0.02239
G1 X128.452 Y102.548 E0.02239
G1 X128.862 Y103.133 E0.02239
G1 X129.367 Y103.638 E0.02239
G1 X129.952 Y104.048 E0.02239
G1 X130.599 Y104.349 E0.02239
G1 X131.289 Y104.534 E0.02239
G1 X132.000 Y104.596 E0.02239
G1 X132.711 Y104.534 E0.02239
G1 X133.401 Y104.349 E0.02239
G1 X134.048 Y104.048 E0.02239
G1 X134.633 Y103.638 E0.02239
G1 X135.138 Y103.133 E0.02239
G1 X135.548 Y102.548 E0.02239
G1 X135.849 Y101.901 E0.02239
G1 X136.034 Y101.211 E0.02239
G1 X136.096 Y100.500 E0.02239
G1 X136.034 Y99.789 E0.02239
G1 X135.849 Y99.099 E0.02239
G1 X135.548 Y98.452 E0.02239
G1 X135.138 Y97.867 E0.02239
G1 X134.862 Y97.591 E0.01222
G1 X145.138 Y97.591 E0.32218
G1 X144.862 Y97.867 E0.01222
G1 X144.452 Y98.452 E0.02239
G1 X144.151 Y99.099 E0.02239
G1 X143.966 Y99.789 E0.02239
G1 X143.904 Y100.500 E0.02239
G1 X143.966 Y101.211 E0.02239
G1 X144.151 Y101.901 E0.02239
G1 X144.452 Y102.548 E0.02239
G1 X144.862 Y103.133 E0.02239
G1 X145.367 Y103.638 E0.02239
G1 X145.952 Y104.048 E0.02239
G1 X146.599 Y104.349 E0.02239
G1 X147.289 Y104.534 E0.02239
G1 X148.000 Y104.596 E0.02239
G1 X148.711 Y104.534 E0.02239
G1 X149.401 Y104.349 E0.02239
G1 X150.048 Y104.048 E0.02239
G1 X150.633 Y103.638 E0.02239
G1 X151.138 Y103.133 E0.02239
G1 X151.548 Y102.548 E0.02239
G1 X151.849 Y101.901 E0.02239
G1 X152.034 Y101.211 E0.02239
G1 X152.096 Y100.500 E0.02239
G1 X152.034 Y99.789 E0.02239
G1 X151.849 Y99.099 E0.02239
G1 X151.548 Y98.452 E0.02239
G1 X151.138 Y97.867 E0.02239
G1 X150.862 Y97.591 E0.01222
G1 X153.659 Y97.591 E0.08768
G1 X153.659 Y112.409 E0.46459
G1 X127.341 Y112.409 E0.82517
G1 X127.341 Y112.194 E0.00672
G1 X124.556 Y109.409 E0.12352
G1 X122.444 Y109.409 E0.06619
G1 X119.659 Y112.194 E0.12352
G1 X119.659 Y112.409 E0.00672
G1 X96.341 Y112.409 E0.73110
G1 X96.341 Y106.091 E0.19808
G1 X126.281 Y106.091 E0.93875
G1 X125.964 Y105.714 F10800.000
G1 F1200
G1 X125.964 Y97.214 E0.26651
G1 X130.283 Y97.214 E0.13541
G1 X130.141 Y97.280 E0.00490
G1 X129.610 Y97.652 E0.02032
G1 X129.152 Y98.110 E0.02032
G1 X128.780 Y98.641 E0.02032
G1 X128.506 Y99.228 E0.02032
G1 X128.339 Y99.854 E0.02032
G1 X128.282 Y100.500 E0.02032
G1 X128.339 Y101.146 E0.02032
G1 X128.506 Y101.772 E0.02032
G1 X128.780 Y102.359 E0.02032
G1 X129.152 Y102.890 E0.02032
G1 X129.610 Y103.348 E0.02032
G1 X130.141 Y103.720 E0.02032
G1 X130.728 Y103.994 E0.02032
G1 X131.354 Y104.161 E0.02032
G1 X132.000 Y104.218 E0.02032
G1 X132.646 Y104.161 E0.02032
G1 X133.272 Y103.994 E0.02032
G1 X133.859 Y103.720 E0.02032
G1 X134.390 Y103.348 E0.02032
G1 X134.848 Y102.890 E0.02032
G1 X135.220 Y102.359 E0.02032
G1 X135.494 Y101.772 E0.02032
G1 X135.661 Y101.146 E0.02032
G1 X135.718 Y100.500 E0.02032
G1 X135.661 Y99.854 E0.02032
G1 X135.494 Y99.228 E0.02032
G1 X135.220 Y98.641 E0.02032
G1 X134.848 Y98.110 E0.02032
G1 X134.390 Y97.652 E0.02032
G1 X133.859 Y97.280 E0.02032
G1 X133.717 Y97.214 E0.00490
G1 X146.283 Y97.214 E0.39399
G1 X146.141 Y97.280 E0.00490
G1 X145.610 Y97.652 E0.02032
G1 X145.152 Y98.110 E0.02032
G1 X144.780 Y98.641 E0.02032
G1 X144.506 Y99.228 E0.02032
G1 X144.339 Y99.854 E0.02032
G1 X144.282 Y100.500 E0.02032
G1 X144.339 Y101.146 E0.02032
G1 X144.506 Y101.772 E0.02032
G1 X144.780 Y102.359 E0.02032
G1 X145.152 Y102.890 E0.02032
G1 X145.610 Y103.348 E0.02032
G1 X146.141 Y103.720 E0.02032
G1 X146.728 Y103.994 E0.02032
G1 X147.354 Y104.161 E0.02032
G1 X148.000 Y104.218 E0.02032
G1 X148.646 Y104.161 E0.02032
G1 X149.272 Y103.994 E0.02032
G1 X149.859 Y103.720 E0.02032
G1 X150.390 Y103.348 E0.02032
G1 X150.848 Y102.890 E0.02032
G1 X151.220 Y102.359 E0.02032
G1 X151.494 Y101.772 E0.02032
G1 X151.661 Y101.146 E0.02032
G1 X151.718 Y100.500 E0.02032
G1 X151.661 Y99.854 E0.02032
G1 X151.494 Y99.228 E0.02032
G1 X151.220 Y98.641 E0.02032
G1 X150.848 Y98.110 E0.02032
G1 X150.390 Y97.652 E0.02032
G1 X149.859 Y97.280 E0.02032
G1 X149.717 Y97.214 E0.00490
G1 X154.036 Y97.214 E0.13541
G1 X154.036 Y112.786 E0.48824
G1 X126.964 Y112.786 E0.84881
G1 X126.964 Y112.351 E0.01365
G1 X124.399 Y109.786 E0.11373
G1 X122.601 Y109.786 E0.05640
G1 X120.036 Y112.351 E0.11373
G1 X120.036 Y112.786 E0.01365
G1 X95.964 Y112.786 E0.75475
G1 X95.964 Y105.714 E0.22173
G1 X125.904 Y105.714 E0.93875
G1 X125.587 Y105.337 F10800.000
G1 F1200
G1 X125.587 Y96.837 E0.26651
G1 X154.413 Y96.837 E0.90381
G1 X154.413 Y113.163 E0.51189
G1 X126.587 Y113.163 E0.87246
G1 X126.587 Y112.507 E0.02057
G1 X124.243 Y110.163 E0.10393
G1 X122.757 Y110.163 E0.04660
G1 X120.413 Y112.507 E0.10393
G1 X120.413 Y113.163 E0.02057
G1 X95.587 Y113.163 E0.77840
G1 X95.587 Y105.337 E0.24537
G1 X125.527 Y105.337 E0.93875
G1 X125.210 Y104.960 F10800.000
G1 F1200
G1 X125.210 Y96.460 E0.26651
G1 X154.790 Y96.460 E0.92746
G1 X154.790 Y113.540 E0.53553
G1 X126.210 Y113.540 E0.89611
G1 X126.210 Y112.663 E0.02750
G1 X124.087 Y110.540 E0.09414
G1 X122.913 Y110.540 E0.03681
G1 X120.790 Y112.663 E0.09414
G1 X120.790 Y113.540 E0.02750
G1 X95.210 Y113.540 E0.80204
G1 X95.210 Y104.960 E0.26902
G1 X125.150 Y104.960 E0.93875
G1 X125.608 Y104.923 F10800.000
G1 F8640
G1 X125.173 Y101.669 E-0.76000
G1 E-0.04000 F2100.00000
G1 Z0.800 F10800.000
G1 X128.114 Y102.491
G1 Z0.200
G1 E0.80000 F2100.00000
G1 F1200
G1 X126.624 Y101.001 E0.06633
G1 X126.624 Y100.466 E0.01686
G1 X127.784 Y101.626 E0.05166
G1 X127.686 Y101.261 E0.01191
G1 X127.661 Y100.967 E0.00929
G1 X126.624 Y99.930 E0.04616
G1 X126.624 Y99.395 E0.01686
G1 X127.629 Y100.399 E0.04473
G1 X127.672 Y99.907 E0.01556
G1 X126.624 Y98.859 E0.04665
G1 X126.624 Y98.324 E0.01686
G1 X127.761 Y99.461 E0.05063
G1 X127.874 Y99.038 E0.01377
G1 X126.710 Y97.874 E0.05184
G1 X127.245 Y97.874 E0.01686
G1 X128.040 Y98.668 E0.03536
G1 X128.211 Y98.304 E0.01267
G1 X127.781 Y97.874 E0.01914
G1 X128.316 Y97.874 E0.01686
G1 X128.553 Y98.111 E0.01054
G1 F8640
G1 X128.316 Y97.874 E-0.07732
G1 X127.781 Y97.874 E-0.12365
G1 X128.211 Y98.304 E-0.14038
G1 X128.040 Y98.668 E-0.09294
G1 X127.245 Y97.874 E-0.25933
G1 X126.958 Y97.874 E-0.06638
G1 E-0.04000 F2100.00000
G1 Z0.800 F10800.000
G1 X130.464 Y97.161
G1 Z0.200
G1 E0.80000 F2100.00000
G1 F1200
G1 X131.219 Y97.048 E0.00554
G1 F8640
G1 X130.464 Y97.161 E-0.17617
G1 E-0.62383 F2100.00000
G1 Z0.800 F10800.000
G1 X132.781 Y97.048
G1 Z0.200
G1 E0.80000 F2100.00000
G1 F1200
G1 X132.930 Y97.067 E0.00109
G1 X133.079 Y97.087 E0.00155
G1 X133.536 Y97.161 E0.00640
G1 F8640
G1 X133.079 Y97.087 E-0.10688
G1 E-0.69312 F2100.00000
G1 Z0.800 F10800.000
G1 X130.009 Y104.386
G1 Z0.200
G1 E0.80000 F2100.00000
G1 F1200
G1 X137.749 Y112.126 E0.34463
G1 X138.284 Y112.126 E0.01686
G1 X130.874 Y104.716 E0.32996
G1 X131.239 Y104.814 E0.01191
G1 X131.533 Y104.839 E0.00929
G1 X138.820 Y112.126 E0.32445
G1 X139.355 Y112.126 E0.01686
G1 X132.101 Y104.871 E0.32303
G1 X132.593 Y104.828 E0.01556
G1 X139.891 Y112.126 E0.32495
G1 X140.426 Y112.126 E0.01686
G1 X133.039 Y104.739 E0.32892
G1 X133.462 Y104.626 E0.01377
G1 X140.962 Y112.126 E0.33396
G1 X141.497 Y112.126 E0.01686
G1 X133.832 Y104.460 E0.34133
G1 X134.196 Y104.289 E0.01267
G1 X142.033 Y112.126 E0.34895
G1 X142.568 Y112.126 E0.01686
G1 X134.511 Y104.069 E0.35877
M73 Q2 S49
G1 X134.824 Y103.847 E0.01209
G1 X143.104 Y112.126 E0.36866
M73 P2 R48
G1 X143.639 Y112.126 E0.01686
G1 X135.092 Y103.579 E0.38058
G1 X135.359 Y103.310 E0.01192
G1 X144.175 Y112.126 E0.39254
G1 X144.710 Y112.126 E0.01686
G1 X135.580 Y102.995 E0.40657
G1 X135.799 Y102.679 E0.01212
G1 X145.246 Y112.126 E0.42066
G1 X145.781 Y112.126 E0.01686
G1 X135.969 Y102.314 E0.43692
G1 X136.131 Y101.941 E0.01281
G1 X146.317 Y112.126 E0.45353
G1 X146.852 Y112.126 E0.01686
G1 X136.245 Y101.518 E0.47234
G1 X136.314 Y101.261 E0.00840
G1 X136.330 Y101.069 E0.00607
G1 X147.388 Y112.126 E0.49236
G1 X147.923 Y112.126 E0.01686
G1 X136.374 Y100.576 E0.51429
G1 X136.337 Y100.004 E0.01806
G1 X148.459 Y112.126 E0.53977
G1 X148.994 Y112.126 E0.01686
G1 X136.206 Y99.338 E0.56944
G1 X136.116 Y99.002 E0.01094
G1 X135.863 Y98.459 E0.01886
G1 X149.530 Y112.126 E0.60856
G1 X150.065 Y112.126 E0.01686
G1 X135.814 Y97.874 E0.63460
G1 X136.349 Y97.874 E0.01686
G1 X150.601 Y112.126 E0.63460
G1 X151.136 Y112.126 E0.01686
G1 X136.885 Y97.874 E0.63460
G1 X137.420 Y97.874 E0.01686
G1 X151.672 Y112.126 E0.63460
G1 X152.207 Y112.126 E0.01686
G1 X137.956 Y97.874 E0.63460
G1 X138.491 Y97.874 E0.01686
G1 X152.913 Y112.296 E0.64216
G1 F8640
G1 X150.585 Y109.968 E-0.76000
G1 E-0.04000 F2100.00000
G1 Z0.800 F10800.000
G1 X153.546 Y98.470
G1 Z0.200
G1 E0.80000 F2100.00000
