; generated by SuperSlicer 2.3.55 on 2021-06-22 at 17:21:33 UTC

; 

; external perimeters extrusion width = 0.45mm
; perimeters extrusion width = 0.45mm
; infill extrusion width = 0.45mm
; solid infill extrusion width = 0.45mm
; top infill extrusion width = 0.40mm
; support material extrusion width = 0.35mm
; first layer extrusion width = 0.42mm

; object:{"name":"zaxisendstopmounting","id":"zaxisendstopmounting.STL id:0 copy 0","object_center":[125.000000,105.000000,0.000000],"boundingbox_center":[125.000000,105.000000,9.750000],"boundingbox_size":[60.000000,17.500000,19.500000]}
; Total objects to print: 1
M486 T1
; plater:{"center":[125.000000,105.000000,0.000000],"boundingbox_center":[125.000000,105.000000,9.750000],"boundingbox_size":[60.000000,17.500000,19.500000]}

M73 P0 R41
M73 Q0 S41
;TYPE:Custom
M862.3 P "MK3S" ; printer model check
M862.1 P0.4 ; nozzle diameter check
M115 U3.9.2 ; tell printer latest fw version
G90 ; use absolute coordinates
M83 ; extruder relative mode
M104 S215 ; set extruder temp
M140 S60 ; set bed temp
M190 S60 ; wait for bed temp
M109 S215 ; wait for extruder temp
G28 W ; home all without mesh bed level
G80 ; mesh bed leveling
G1 Y-3.0 F1000.0 ; go outside print area
G92 E0.0
G1 X60.0 E9.0 F1000.0 ; intro line
G1 X100.0 E12.5 F1000.0 ; intro line
G92 E0.0
M221 S95

; Don't change E values below. Excessive value can damage the printer.

M107
G21 ; set units to millimeters
G90 ; use absolute coordinates
M83 ; use relative distances for extrusion
M900 K0.05 ; Filament gcode LA 1.5
M900 K30 ; Filament gcode LA 1.0
M107
;LAYER_CHANGE
;Z:0.2
;HEIGHT:0.2
;BEFORE_LAYER_CHANGE
;0.2


G1 E-0.80000 F2100.000
G1 Z0.400000 F10800.000
;AFTER_LAYER_CHANGE
;0.2
G1 X90.077 Y99.512
G1 Z0.200000
G1 E0.80000 F2100.000
;TYPE:Skirt
;WIDTH:0.42
G1 F1200.000
M204 P1000
G1 X90.744 Y98.957 E0.02719
G1 X91.478 Y98.483 E0.02740
G1 X92.264 Y98.102 E0.02740
G1 X123.040 Y89.334 E1.00337
G1 X123.973 Y89.135 E0.02988
G1 X124.983 Y89.061 E0.03175
G1 X155.007 Y89.061 E0.94138
G1 X156.330 Y89.186 E0.04169
G1 X157.608 Y89.551 E0.04169
G1 X158.797 Y90.146 E0.04169
G1 X159.856 Y90.950 E0.04169
G1 X160.749 Y91.935 E0.04169
G1 X161.449 Y93.074 E0.04189
G1 X161.923 Y94.315 E0.04169
G1 X162.161 Y95.623 E0.04169
G1 X162.188 Y113.783 E0.56938
G1 X162.076 Y115.015 E0.03879
G1 X161.863 Y115.890 E0.02823
G1 X161.541 Y116.731 E0.02823
G1 X161.118 Y117.525 E0.02823
G1 X160.598 Y118.260 E0.02823
G1 X159.990 Y118.924 E0.02823
G1 X159.299 Y119.511 E0.02843
G1 X158.545 Y120.004 E0.02823
G1 X157.736 Y120.398 E0.02823
G1 X156.419 Y120.797 E0.04313
G1 X155.058 Y120.938 E0.04293
G1 X94.596 Y120.927 E1.89573
G1 X93.598 Y120.801 E0.03154
G1 X92.621 Y120.534 E0.03175
G1 X91.698 Y120.135 E0.03154
G1 X90.833 Y119.608 E0.03175
G1 X90.051 Y118.964 E0.03175
G1 X89.372 Y118.222 E0.03154
G1 X88.803 Y117.393 E0.03154
G1 X88.352 Y116.486 E0.03175
G1 X87.969 Y115.247 E0.04065
G1 X87.815 Y113.960 E0.04065
G1 X87.812 Y104.644 E0.29210
G1 X87.970 Y103.251 E0.04396
G1 X88.203 Y102.409 E0.02740
G1 X88.535 Y101.608 E0.02719
G1 X88.960 Y100.852 E0.02719
G1 X89.478 Y100.148 E0.02740
G1 X90.036 Y99.555 E0.02552
;WIPE_START
G1 F8640.000
G1 X90.744 Y98.957 E-0.21400
G1 X91.478 Y98.483 E-0.20176
G1 X92.264 Y98.102 E-0.20176
G1 X92.858 Y97.933 E-0.14247
;WIPE_END
G1 E-0.04000 F2100.000
G1 Z1.000000 F10800.000
G1 X96.181 Y99.283
G1 Z0.200000
G1 E0.80000 F2100.000
G1 F1200.000
G1 X94.427 Y99.309 E0.05498
G1 X93.676 Y99.451 E0.02398
G1 X92.558 Y99.890 E0.03766
G1 X91.946 Y100.268 E0.02255
G1 X91.485 Y100.645 E0.01867
G1 X90.812 Y101.326 E0.03002
G1 X90.467 Y101.769 E0.01759
G1 X90.116 Y102.355 E0.02143
G1 X89.823 Y103.038 E0.02330
G1 X89.568 Y104.097 E0.03416
G1 X89.533 Y105.932 E0.05754
;WIPE_START
G1 F8640.000
G1 X89.568 Y104.097 E-0.42378
G1 X89.823 Y103.038 E-0.25154
G1 X89.968 Y102.701 E-0.08469
;WIPE_END
G1 E-0.04000 F2100.000
G1 Z0.600000 F10800.000
G1 X89.910 Y107.028
G1 Z0.200000
G1 E0.80000 F2100.000
G1 F1200.000
G1 X89.939 Y104.172 E0.08956
G1 X90.173 Y103.180 E0.03195
G1 X90.453 Y102.524 E0.02236
G1 X90.780 Y101.979 E0.01996
G1 X91.105 Y101.565 E0.01650
G1 X91.744 Y100.920 E0.02846
G1 X92.166 Y100.574 E0.01711
G1 X92.751 Y100.215 E0.02152
G1 X93.775 Y99.814 E0.03449
G1 X94.857 Y99.660 E0.03424
G1 X97.278 Y99.660 E0.07593
G1 X98.015 Y100.037 F10800.000
G1 F1200.000
G1 X94.861 Y100.037 E0.09888
G1 X93.891 Y100.174 E0.03072
G1 X92.925 Y100.549 E0.03249
G1 X92.385 Y100.881 E0.01988
G1 X91.386 Y101.816 E0.04291
G1 X90.777 Y102.718 E0.03413
G1 X90.528 Y103.308 E0.02009
G1 X90.313 Y104.217 E0.02928
G1 X90.287 Y107.765 E0.11124
G1 X90.664 Y108.257 E0.01942
G1 X90.664 Y104.622 E0.11397
G1 X90.720 Y104.051 E0.01799
G1 X90.847 Y103.538 E0.01656
G1 X91.305 Y102.551 E0.03413
G1 X91.642 Y102.096 E0.01773
G1 X92.252 Y101.477 E0.02727
G1 X93.099 Y100.884 E0.03241
G1 X93.681 Y100.634 E0.01987
G1 X94.322 Y100.466 E0.02076
G1 X94.866 Y100.414 E0.01713
G1 X98.506 Y100.414 E0.11415
G1 X98.989 Y100.791 E0.01920
G1 X94.879 Y100.791 E0.12888
G1 X94.400 Y100.835 E0.01507
G1 X93.850 Y100.974 E0.01779
G1 X93.281 Y101.214 E0.01936
G1 X92.512 Y101.750 E0.02937
G1 X91.932 Y102.337 E0.02587
G1 X91.622 Y102.756 E0.01634
G1 X91.206 Y103.654 E0.03105
G1 X91.089 Y104.131 E0.01541
G1 X91.041 Y104.624 E0.01552
G1 X91.041 Y108.739 E0.12902
;WIPE_START
G1 F8640.000
G1 X91.041 Y105.447 E-0.76000
;WIPE_END
G1 E-0.04000 F2100.000
G1 Z0.600000 F10800.000
G1 X90.287 Y110.735
G1 Z0.200000
G1 E0.80000 F2100.000
G1 F1200.000
G1 X90.287 Y113.890 E0.09892
G1 X90.424 Y114.859 E0.03069
G1 X90.814 Y115.853 E0.03347
G1 X91.186 Y116.439 E0.02178
G1 X92.280 Y117.541 E0.04869
G1 X93.094 Y118.032 E0.02982
G1 X93.529 Y118.212 E0.01473
G1 X94.425 Y118.431 E0.02894
G1 X98.018 Y118.461 E0.11266
G1 X98.509 Y118.084 E0.01940
G1 X94.779 Y118.084 E0.11696
G1 X94.147 Y117.999 E0.01998
G1 X93.660 Y117.858 E0.01590
G1 X93.007 Y117.568 E0.02241
G1 X92.509 Y117.242 E0.01866
G1 X91.772 Y116.544 E0.03183
G1 X91.488 Y116.214 E0.01364
G1 X91.142 Y115.666 E0.02032
G1 X90.884 Y115.069 E0.02040
G1 X90.719 Y114.443 E0.02028
G1 X90.664 Y113.900 E0.01711
G1 X90.664 Y110.243 E0.11466
G1 X91.041 Y109.761 E0.01919
G1 X91.041 Y113.881 E0.12917
G1 X91.085 Y114.350 E0.01478
G1 X91.224 Y114.900 E0.01779
G1 X91.465 Y115.471 E0.01941
G1 X91.764 Y115.953 E0.01780
G1 X92.032 Y116.271 E0.01304
G1 X92.721 Y116.929 E0.02987
G1 X93.184 Y117.235 E0.01740
G1 X93.792 Y117.505 E0.02084
G1 X94.222 Y117.630 E0.01405
G1 X94.803 Y117.708 E0.01839
G1 X98.990 Y117.708 E0.13127
G1 X99.279 Y117.331 E0.01489
G1 X94.819 Y117.331 E0.13986
G1 X93.922 Y117.151 E0.02867
G1 X93.363 Y116.903 E0.01917
G1 X92.757 Y116.462 E0.02349
G1 X92.067 Y115.729 E0.03159
G1 X91.801 Y115.299 E0.01585
G1 X91.577 Y114.767 E0.01810
G1 X91.418 Y113.876 E0.02837
G1 X91.418 Y104.632 E0.28984
M73 Q1 S41
G1 X91.565 Y103.770 E0.02741
M73 P1 R41
G1 X91.937 Y102.962 E0.02790
G1 X92.216 Y102.585 E0.01471
G1 X92.771 Y102.024 E0.02474
G1 X93.452 Y101.550 E0.02601
G1 X93.983 Y101.327 E0.01806
G1 X94.881 Y101.168 E0.02858
G1 X99.278 Y101.168 E0.13788
G1 X99.567 Y101.545 E0.01490
G1 X94.883 Y101.545 E0.14689
G1 X94.115 Y101.681 E0.02444
G1 X93.639 Y101.878 E0.01617
G1 X93.257 Y102.112 E0.01404
G1 X92.500 Y102.833 E0.03278
G1 X92.253 Y103.168 E0.01305
G1 X91.922 Y103.891 E0.02494
G1 X91.795 Y104.633 E0.02358
G1 X91.828 Y114.217 E0.30052
G1 X91.931 Y114.635 E0.01349
G1 X92.136 Y115.127 E0.01671
G1 X92.569 Y115.742 E0.02358
G1 X93.182 Y116.332 E0.02668
G1 X93.606 Y116.605 E0.01581
G1 X94.054 Y116.798 E0.01530
G1 X94.841 Y116.954 E0.02516
G1 X99.568 Y116.954 E0.14822
G1 X99.858 Y116.577 E0.01491
G1 X94.854 Y116.577 E0.15688
G1 X94.187 Y116.445 E0.02133
G1 X93.783 Y116.272 E0.01378
G1 X93.412 Y116.033 E0.01385
G1 X92.839 Y115.478 E0.02501
G1 X92.465 Y114.942 E0.02047
G1 X92.287 Y114.511 E0.01465
G1 X92.172 Y113.868 E0.02047
G1 X92.195 Y104.374 E0.29768
G1 X92.281 Y104.007 E0.01182
G1 X92.565 Y103.380 E0.02158
G1 X92.784 Y103.082 E0.01160
G1 X93.279 Y102.582 E0.02205
G1 X93.808 Y102.215 E0.02018
G1 X94.239 Y102.037 E0.01465
G1 X94.884 Y101.922 E0.02054
G1 X99.857 Y101.922 E0.15591
G1 X100.019 Y102.299 E0.01287
G1 X94.665 Y102.320 E0.16788
G1 X93.976 Y102.553 E0.02278
G1 X93.696 Y102.725 E0.01030
G1 X93.067 Y103.331 E0.02739
G1 X92.884 Y103.581 E0.00972
G1 X92.640 Y104.122 E0.01861
G1 X92.549 Y104.635 E0.01635
G1 X92.549 Y113.865 E0.28937
G1 X92.640 Y114.378 E0.01635
G1 X92.803 Y114.774 E0.01341
G1 X93.108 Y115.214 E0.01679
G1 X93.648 Y115.739 E0.02364
G1 X93.960 Y115.939 E0.01160
G1 X94.660 Y116.179 E0.02321
G1 X100.019 Y116.200 E0.16804
G1 X100.176 Y115.823 E0.01281
G1 X94.851 Y115.822 E0.16696
G1 X94.595 Y115.781 E0.00813
G1 X94.078 Y115.575 E0.01744
G1 X93.836 Y115.405 E0.00928
G1 X93.282 Y114.835 E0.02493
G1 X93.141 Y114.606 E0.00842
G1 X92.999 Y114.262 E0.01167
G1 X92.926 Y113.862 E0.01274
G1 X92.936 Y104.518 E0.29299
G1 X93.125 Y103.927 E0.01944
G1 X93.351 Y103.579 E0.01303
G1 X93.915 Y103.032 E0.02464
G1 X94.144 Y102.891 E0.00842
G1 X94.731 Y102.691 E0.01945
G1 X100.175 Y102.676 E0.17069
G1 X100.331 Y103.053 E0.01280
G1 X94.892 Y103.053 E0.17053
G1 X94.602 Y103.108 E0.00927
G1 X94.121 Y103.348 E0.01684
G1 X93.634 Y103.828 E0.02146
G1 X93.471 Y104.076 E0.00927
G1 X93.309 Y104.569 E0.01626
G1 X93.303 Y113.858 E0.29125
G1 X93.479 Y114.441 E0.01911
G1 X93.598 Y114.629 E0.00697
G1 X94.078 Y115.116 E0.02146
G1 X94.584 Y115.386 E0.01797
G1 X94.892 Y115.447 E0.00985
G1 X100.331 Y115.447 E0.17053
G1 X100.449 Y115.070 E0.01238
G1 X94.902 Y115.070 E0.17394
G1 X94.720 Y115.034 E0.00580
G1 X94.325 Y114.831 E0.01393
G1 X93.816 Y114.271 E0.02371
G1 X93.680 Y113.848 E0.01393
G1 X93.680 Y104.652 E0.28835
G1 X93.716 Y104.470 E0.00580
G1 X93.919 Y104.075 E0.01393
G1 X94.353 Y103.646 E0.01914
G1 X94.902 Y103.430 E0.01847
G1 X100.449 Y103.430 E0.17394
G1 X100.499 Y103.807 E0.01193
G1 X94.920 Y103.807 E0.17491
G1 X94.578 Y103.949 E0.01160
G1 X94.158 Y104.390 E0.01912
G1 X94.057 Y104.670 E0.00933
G1 X94.057 Y113.830 E0.28719
G1 X94.199 Y114.172 E0.01160
G1 X94.578 Y114.551 E0.01683
G1 X94.920 Y114.693 E0.01160
G1 X100.499 Y114.693 E0.17491
G1 X100.548 Y114.316 E0.01193
G1 X94.957 Y114.316 E0.17531
G1 X94.819 Y114.258 E0.00470
G1 X94.492 Y113.931 E0.01450
G1 X94.434 Y113.793 E0.00470
G1 X94.434 Y104.707 E0.28486
G1 X94.492 Y104.569 E0.00470
G1 X94.819 Y104.242 E0.01450
G1 X94.957 Y104.184 E0.00470
G1 X100.548 Y104.184 E0.17531
G1 X100.598 Y104.561 E0.01193
G1 X95.032 Y104.561 E0.17451
G1 X94.811 Y104.782 E0.00979
G1 X94.811 Y113.718 E0.28016
G1 X95.032 Y113.939 E0.00979
G1 X100.598 Y113.939 E0.17451
;WIPE_START
G1 F8640.000
G1 X97.307 Y113.939 E-0.76000
;WIPE_END
G1 E-0.04000 F2100.000
G1 Z0.600000 F10800.000
G1 X97.285 Y118.838
G1 Z0.200000
G1 E0.80000 F2100.000
G1 F1200.000
G1 X94.745 Y118.837 E0.07964
G1 X94.000 Y118.739 E0.02356
G1 X93.416 Y118.572 E0.01906
G1 X92.419 Y118.096 E0.03463
G1 X91.740 Y117.576 E0.02682
M73 P1 R40
G1 X91.238 Y117.077 E0.02218
G1 X90.885 Y116.667 E0.01698
G1 X90.481 Y116.030 E0.02365
G1 X90.064 Y114.975 E0.03559
G1 X89.910 Y113.914 E0.03359
G1 X89.910 Y111.471 E0.07660
;WIPE_START
G1 F8640.000
G1 X89.910 Y113.914 E-0.56413
G1 X90.032 Y114.754 E-0.19587
;WIPE_END
G1 E-0.04000 F2100.000
G1 Z0.600000 F10800.000
G1 X89.533 Y112.567
G1 Z0.200000
G1 E0.80000 F2100.000
G1 F1200.000
G1 X89.559 Y114.323 E0.05505
G1 X89.701 Y115.074 E0.02398
G1 X89.837 Y115.497 E0.01393
G1 X90.149 Y116.209 E0.02435
G1 X90.584 Y116.894 E0.02545
G1 X91.482 Y117.851 E0.04116
G1 X91.820 Y118.139 E0.01391
G1 X92.472 Y118.564 E0.02443
G1 X93.265 Y118.918 E0.02722
G1 X93.909 Y119.105 E0.02104
G1 X94.677 Y119.212 E0.02430
G1 X96.223 Y119.212 E0.04846
;WIPE_START
G1 F8640.000
G1 X94.677 Y119.212 E-0.35689
G1 X93.909 Y119.105 E-0.17898
G1 X93.265 Y118.918 E-0.15492
G1 X92.991 Y118.796 E-0.06921
;WIPE_END
G1 E-0.04000 F2100.000
G1 Z0.600000 F10800.000
G1 X115.402 Y113.939
G1 Z0.200000
G1 E0.80000 F2100.000
G1 F1200.000
G1 X120.968 Y113.939 E0.17451
G1 X121.189 Y113.718 E0.00979
G1 X121.189 Y112.828 E0.02789
G1 X123.078 Y110.939 E0.08379
G1 X123.922 Y110.939 E0.02646
G1 X125.811 Y112.828 E0.08379
G1 X125.811 Y113.718 E0.02789
G1 X126.032 Y113.939 E0.00979
G1 X131.598 Y113.939 E0.17451
G1 X131.548 Y114.316 E0.01193
G1 X125.957 Y114.316 E0.17531
G1 X125.819 Y114.258 E0.00470
G1 X125.492 Y113.931 E0.01450
G1 X125.434 Y113.793 E0.00470
G1 X125.434 Y112.984 E0.02535
G1 X123.766 Y111.316 E0.07399
G1 X123.234 Y111.316 E0.01666
G1 X121.566 Y112.984 E0.07399
G1 X121.566 Y113.793 E0.02535
G1 X121.508 Y113.931 E0.00470
G1 X121.181 Y114.258 E0.01450
G1 X121.043 Y114.316 E0.00470
G1 X115.452 Y114.316 E0.17531
G1 X115.501 Y114.693 E0.01193
G1 X121.080 Y114.693 E0.17491
G1 X121.360 Y114.592 E0.00933
G1 X121.842 Y114.110 E0.02140
G1 X121.943 Y113.830 E0.00933
G1 X121.943 Y113.140 E0.02161
G1 X123.390 Y111.693 E0.06420
G1 X123.610 Y111.693 E0.00687
G1 X125.057 Y113.140 E0.06420
G1 X125.057 Y113.830 E0.02161
G1 X125.158 Y114.110 E0.00933
G1 X125.640 Y114.592 E0.02140
G1 X125.920 Y114.693 E0.00933
G1 X131.499 Y114.693 E0.17491
G1 X131.449 Y115.070 E0.01193
G1 X125.720 Y115.034 E0.17963
G1 X125.353 Y114.854 E0.01280
G1 X124.896 Y114.397 E0.02030
G1 X124.684 Y113.885 E0.01735
G1 X124.680 Y113.297 E0.01845
G1 X123.500 Y112.116 E0.05233
G1 X122.320 Y113.297 E0.05233
G1 X122.316 Y113.885 E0.01845
G1 X122.184 Y114.271 E0.01280
G1 X121.521 Y114.934 E0.02937
G1 X121.098 Y115.070 E0.01393
G1 X115.551 Y115.070 E0.17394
G1 X115.668 Y115.446 E0.01236
G1 X121.126 Y115.446 E0.17112
G1 X121.398 Y115.392 E0.00870
G1 X121.935 Y115.104 E0.01911
G1 X122.366 Y114.672 E0.01915
G1 X122.658 Y114.095 E0.02026
G1 X122.697 Y113.453 E0.02017
G1 X123.500 Y112.650 E0.03561
G1 X124.303 Y113.453 E0.03561
G1 X124.342 Y114.095 E0.02017
G1 X124.634 Y114.672 E0.02026
G1 X125.065 Y115.104 E0.01915
G1 X125.602 Y115.392 E0.01911
G1 X125.874 Y115.446 E0.00870
G1 X131.332 Y115.446 E0.17112
G1 X131.176 Y115.822 E0.01276
G1 X125.842 Y115.822 E0.16725
G1 X125.479 Y115.748 E0.01159
G1 X125.046 Y115.556 E0.01485
G1 X124.351 Y114.921 E0.02952
G1 X124.145 Y114.615 E0.01159
G1 X123.999 Y114.262 E0.01196
G1 X123.926 Y113.609 E0.02060
G1 X123.500 Y113.183 E0.01889
G1 X123.074 Y113.609 E0.01889
G1 X123.001 Y114.262 E0.02060
G1 X122.855 Y114.615 E0.01196
G1 X122.649 Y114.921 E0.01159
G1 X122.171 Y115.399 E0.02118
G1 X121.930 Y115.570 E0.00928
G1 X121.512 Y115.751 E0.01428
G1 X121.121 Y115.824 E0.01245
G1 X115.825 Y115.823 E0.16608
G1 X115.980 Y116.198 E0.01271
G1 X121.193 Y116.197 E0.16346
G1 X121.628 Y116.110 E0.01391
G1 X122.118 Y115.897 E0.01674
G1 X122.423 Y115.680 E0.01175
G1 X122.905 Y115.200 E0.02132
G1 X123.147 Y114.868 E0.01290
G1 X123.335 Y114.448 E0.01442
G1 X123.451 Y113.765 E0.02171
G1 X123.500 Y113.716 E0.00217
G1 X123.549 Y113.765 E0.00217
G1 X123.665 Y114.448 E0.02171
G1 X123.853 Y114.868 E0.01442
G1 X124.095 Y115.200 E0.01290
G1 X124.577 Y115.680 E0.02132
G1 X124.882 Y115.897 E0.01175
G1 X125.372 Y116.110 E0.01674
G1 X125.812 Y116.198 E0.01405
G1 X131.020 Y116.198 E0.16331
G1 X130.857 Y116.577 E0.01293
G1 X125.590 Y116.549 E0.16516
G1 X125.228 Y116.460 E0.01168
G1 X124.501 Y116.099 E0.02546
G1 X123.815 Y115.453 E0.02955
G1 X123.500 Y115.008 E0.01707
G1 X123.185 Y115.453 E0.01707
G1 X122.501 Y116.098 E0.02948
G1 X122.192 Y116.285 E0.01132
G1 X121.558 Y116.520 E0.02121
G1 X121.190 Y116.575 E0.01168
G1 X116.141 Y116.576 E0.15828
G1 X116.432 Y116.954 E0.01494
G1 X121.444 Y116.926 E0.15718
G1 X121.774 Y116.854 E0.01059
G1 X122.471 Y116.564 E0.02365
G1 X122.914 Y116.252 E0.01700
G1 X123.500 Y115.667 E0.02597
G1 X124.086 Y116.252 E0.02597
G1 X124.536 Y116.568 E0.01725
G1 X125.227 Y116.854 E0.02343
G1 X125.557 Y116.926 E0.01059
G1 X130.568 Y116.954 E0.15713
G1 X130.279 Y117.332 E0.01490
G1 X125.514 Y117.301 E0.14941
G1 X124.916 Y117.148 E0.01935
G1 X124.488 Y116.968 E0.01454
G1 X123.971 Y116.645 E0.01913
G1 X123.500 Y116.206 E0.02020
G1 X123.031 Y116.644 E0.02015
G1 X122.514 Y116.967 E0.01910
G1 X121.838 Y117.228 E0.02272
G1 X121.494 Y117.300 E0.01103
G1 X116.721 Y117.331 E0.14966
G1 X117.010 Y117.708 E0.01491
G1 X121.185 Y117.708 E0.13090
